( Made using CamBam - http://www.cambam.co.uk )
( 4chan_mixer_panel 2/6/2015 6:54:04 PM )
( T3 : 3.175 )
( T10 : 0.0 )
G21 G90 G61 G40
G0 Z3.0
( T10 : 0.0 )
T10 M6
( Engrave1 )
G17
M3 S1000
G0 X16.1729 Y120.8067
G0 Z0.408
G1 F1000.0 Z-0.002
G1 F2000.0 Y125.0028
G1 X16.809
G1 Y124.414
G2 X17.3345 Y124.9079 I1.2449 J-0.7981
G2 X18.0812 Y125.0976 I0.7216 J-1.2764
G2 X18.4766 Y125.0561 I0.0149 J-1.7612
G2 X18.8438 Y124.904 I-0.2433 J-1.1068
G2 X19.2666 Y124.3627 I-0.5567 J-0.8705
G2 X19.8176 Y124.9012 I1.4719 J-0.9549
G2 X20.5625 Y125.0976 I0.7255 J-1.2408
G2 X21.0786 Y125.0231 I0.0237 J-1.6609
G2 X21.5227 Y124.7499 I-0.3215 J-1.0201
G2 X21.7926 Y124.2507 I-0.8149 J-0.7631
G2 X21.8585 Y123.687 I-2.124 J-0.5342
G1 Y120.8067
G1 X21.1513
G1 Y123.45
G3 X21.1394 Y123.7589 I-3.5613 J0.0174
G3 X21.0801 Y124.0624 I-1.2022 J-0.077
G3 X20.8312 Y124.3666 I-0.5504 J-0.1964
G3 X20.4045 Y124.4812 I-0.4087 J-0.6703
G3 X19.6696 Y124.1849 I-0.0281 J-0.9898
G3 X19.433 Y123.7428 I0.6906 J-0.6539
G3 X19.3772 Y123.2445 I1.9543 J-0.4711
G1 Y120.8067
G1 X18.666
G1 Y123.5329
G3 X18.6329 Y123.9017 I-1.861 J0.0187
G3 X18.4922 Y124.2441 I-0.8603 J-0.1534
G3 X18.2367 Y124.4322 I-0.4321 J-0.3194
G3 X17.9232 Y124.4812 I-0.2963 J-0.8687
G3 X17.3661 Y124.3232 I-0.005 J-1.0435
G3 X16.9986 Y123.8609 I0.4823 J-0.7606
G3 X16.9053 Y123.427 I1.7196 J-0.597
G3 X16.8841 Y122.9837 I4.169 J-0.4217
G1 Y120.8067
G1 X16.1729
G0 Z3.0
G0 X22.9174
G0 Z0.408
G1 F1000.0 Z-0.002
G1 F2000.0 Y125.0028
G1 X23.6286
G1 Y120.8067
G1 X22.9174
G0 Z3.0
G0 X24.2371
G0 Z0.408
G1 F1000.0 Z-0.002
G1 F2000.0 X25.7701 Y122.9877
G1 X24.3517 Y125.0028
G1 X25.2407
G1 X25.8847 Y124.0189
G2 X26.1771 Y123.5487 I-10.4203 J-6.8058
G2 X26.4971 Y124.011 I12.0137 J-7.9753
G1 X27.2044 Y125.0028
G1 X28.0539
G1 X26.6038 Y123.0272
G1 X28.1645 Y120.8067
G1 X27.2913
G1 X26.43 Y122.1105
G1 X26.2008 Y122.4622
G1 X25.0984 Y120.8067
G1 X24.2371
G0 Z3.0
G0 X28.6288 Y122.0416
G0 Z0.408
G1 F1000.0 Z-0.002
G2 F2000.0 X28.5201 Y122.8692 I2.8082 J0.7897
G2 X28.6355 Y123.7431 I3.0687 J0.0394
G2 X29.0654 Y124.5128 I1.839 J-0.5222
G2 X29.7092 Y124.9586 I1.3089 J-1.2028
G2 X30.4799 Y125.0976 I0.7441 J-1.9191
G2 X31.2296 Y124.9605 I0.0251 J-1.9805
G2 X31.8549 Y124.5247 I-0.6605 J-1.6142
G2 X32.2755 Y123.7696 I-1.3823 J-1.2648
G2 X32.3883 Y122.9126 I-2.9066 J-0.8183
G2 X32.3843 Y122.723 I-7.0987 J0.053
G1 X29.255
G3 X29.3563 Y122.1587 I2.1714 J0.0985
G3 X29.6462 Y121.6641 I1.2423 J0.3958
G3 X30.5233 Y121.2966 I0.8493 J0.7966
G3 X31.1911 Y121.5021 I0.03 J1.0903
G3 X31.4581 Y121.7981 I-0.6611 J0.8647
G3 X31.6296 Y122.158 I-1.5645 J0.9667
G1 X32.3646 Y122.0671
G2 X32.1276 Y121.5124 I-1.9694 J0.5134
G2 X31.7205 Y121.0674 I-1.407 J0.8785
G2 X31.1493 Y120.7905 I-1.0016 J1.3384
G2 X30.5194 Y120.7118 I-0.6071 J2.3001
G2 X29.7287 Y120.8399 I-0.0316 J2.3092
G2 X29.0575 Y121.2769 I0.5886 J1.6384
G2 X28.6347 Y122.021 I1.3567 J1.263
G2 X28.6288 Y122.0416 I2.8024 J0.8103
G0 Z3.0
G0 X29.2945 Y123.3077
G0 Z0.408
G1 F1000.0 Z-0.002
G1 F2000.0 X31.6375
G3 X31.5615 Y123.7245 I-2.1018 J-0.168
G3 X31.3689 Y124.1019 I-1.0249 J-0.2854
G3 X30.4878 Y124.5128 I-0.8529 J-0.6788
G3 X29.662 Y124.1849 I-0.0267 J-1.1365
G3 X29.3957 Y123.7809 I0.8223 J-0.8318
G3 X29.2945 Y123.3077 I1.4421 J-0.5558
G0 Z3.0
G0 X33.2496
G0 Z0.408
G1 F1000.0 Z-0.002
G1 F2000.0 Y125.0028
G1 X33.8897
G1 Y124.3666
G2 X34.0853 Y124.6836 I2.85 J-1.5404
G2 X34.3401 Y124.9553 I0.9522 J-0.6374
G2 X34.7984 Y125.0976 I0.455 J-0.6566
G2 X35.5294 Y124.8684 I-0.0356 J-1.394
G1 X35.2844 Y124.2086
G3 X34.7629 Y124.3627 I-0.5395 J-0.8665
G3 X34.3441 Y124.2204 I-0.0056 J-0.6712
G3 X34.0793 Y123.8332 I0.4562 J-0.596
G3 X33.9608 Y123.0035 I2.6572 J-0.8029
G1 Y120.8067
G1 X33.2496
G1 Y123.3077
G0 Z3.0
G0 X23.6286 Y125.7811
G0 Z0.408
G1 F1000.0 Z-0.002
G1 F2000.0 X22.9174
G1 Y126.599
G1 X23.6286
G1 Y125.7811
G0 Z3.0
G0 X30.5 Y107.23
G0 Z0.408
G1 F1000.0 Z-0.002
G1 F2000.0 X10.49 Y107.21
G0 Z3.0
G0 X10.5433 Y84.3733
G0 Z0.408
G1 F1000.0 Z-0.002
G1 F2000.0 X30.5433
G0 Z3.0
G0 X30.4667 Y61.5367
G0 Z0.408
G1 F1000.0 Z-0.002
G1 F2000.0 X10.5 Y61.51
G0 Z3.0
G0 Y38.68
G0 Z0.408
G1 F1000.0 Z-0.002
G1 F2000.0 X30.5
G0 Z3.0
G0 X21.71 Y23.03
G0 Z0.408
G1 F1000.0 Z-0.002
G1 F2000.0 Y17.53
G1 X23.91 Y19.73
G0 Z3.0
G0 X18.9 Y17.59
G0 Z0.408
G1 F1000.0 Z-0.002
G1 F2000.0 Y23.09
G1 X16.7 Y20.89
( mounting )
G0 Z3.0
( T3 : 3.175 )
T3 M6
M3 S1000
G0 X7.5 Y125.5
G0 Z3.0
G0 X7.5125 Y125.5
G0 Z0.01
G1 F1000.0 Z0.0
G2 F2000.0 X7.4938 Y125.4892 Z-0.0333 I-0.0125 J0.0
G2 Y125.5108 Z-0.0667 I0.0062 J0.0108
G2 X7.5125 Y125.5 Z-0.1 I0.0063 J-0.0108
G2 X7.4938 Y125.4892 Z-0.1333 I-0.0125 J0.0
G2 Y125.5108 Z-0.1667 I0.0062 J0.0108
G2 X7.5125 Y125.5 Z-0.2 I0.0063 J-0.0108
G2 X7.4938 Y125.4892 Z-0.2333 I-0.0125 J0.0
G2 Y125.5108 Z-0.2667 I0.0062 J0.0108
G2 X7.5125 Y125.5 Z-0.3 I0.0063 J-0.0108
G2 X7.4938 Y125.4892 Z-0.3333 I-0.0125 J0.0
G2 Y125.5108 Z-0.3667 I0.0062 J0.0108
G2 X7.5125 Y125.5 Z-0.4 I0.0063 J-0.0108
G2 X7.4938 Y125.4892 Z-0.4333 I-0.0125 J0.0
G2 Y125.5108 Z-0.4667 I0.0062 J0.0108
G2 X7.5125 Y125.5 Z-0.5 I0.0063 J-0.0108
G2 X7.4938 Y125.4892 Z-0.5333 I-0.0125 J0.0
G2 Y125.5108 Z-0.5667 I0.0062 J0.0108
G2 X7.5125 Y125.5 Z-0.6 I0.0063 J-0.0108
G2 X7.4938 Y125.4892 Z-0.6333 I-0.0125 J0.0
G2 Y125.5108 Z-0.6667 I0.0062 J0.0108
G2 X7.5125 Y125.5 Z-0.7 I0.0063 J-0.0108
G2 X7.4938 Y125.4892 Z-0.7333 I-0.0125 J0.0
G2 Y125.5108 Z-0.7667 I0.0062 J0.0108
G2 X7.5125 Y125.5 Z-0.8 I0.0063 J-0.0108
G2 X7.4938 Y125.4892 Z-0.8333 I-0.0125 J0.0
G2 Y125.5108 Z-0.8667 I0.0062 J0.0108
G2 X7.5125 Y125.5 Z-0.9 I0.0063 J-0.0108
G2 X7.4938 Y125.4892 Z-0.9333 I-0.0125 J0.0
G2 Y125.5108 Z-0.9667 I0.0062 J0.0108
G2 X7.5125 Y125.5 Z-1.0 I0.0063 J-0.0108
G2 X7.4938 Y125.4892 Z-1.0333 I-0.0125 J0.0
G2 Y125.5108 Z-1.0667 I0.0062 J0.0108
G2 X7.5125 Y125.5 Z-1.1 I0.0063 J-0.0108
G2 X7.4938 Y125.4892 Z-1.1333 I-0.0125 J0.0
G2 Y125.5108 Z-1.1667 I0.0062 J0.0108
G2 X7.5125 Y125.5 Z-1.2 I0.0063 J-0.0108
G2 X7.4938 Y125.4892 Z-1.2333 I-0.0125 J0.0
G2 Y125.5108 Z-1.2667 I0.0062 J0.0108
G2 X7.5125 Y125.5 Z-1.3 I0.0063 J-0.0108
G2 X7.4938 Y125.4892 Z-1.3333 I-0.0125 J0.0
G2 Y125.5108 Z-1.3667 I0.0062 J0.0108
G2 X7.5125 Y125.5 Z-1.4 I0.0063 J-0.0108
G2 X7.4938 Y125.4892 Z-1.4333 I-0.0125 J0.0
G2 Y125.5108 Z-1.4667 I0.0062 J0.0108
G2 X7.5125 Y125.5 Z-1.5 I0.0063 J-0.0108
G2 X7.4938 Y125.4892 Z-1.5333 I-0.0125 J0.0
G2 Y125.5108 Z-1.5667 I0.0062 J0.0108
G2 X7.5125 Y125.5 Z-1.6 I0.0063 J-0.0108
G2 X7.4938 Y125.4892 Z-1.6333 I-0.0125 J0.0
G2 Y125.5108 Z-1.6667 I0.0062 J0.0108
G2 X7.5125 Y125.5 Z-1.7 I0.0063 J-0.0108
G2 X7.4938 Y125.4892 Z-1.7333 I-0.0125 J0.0
G2 Y125.5108 Z-1.7667 I0.0062 J0.0108
G2 X7.5125 Y125.5 Z-1.8 I0.0063 J-0.0108
G2 X7.4938 Y125.4892 Z-1.8333 I-0.0125 J0.0
G2 Y125.5108 Z-1.8667 I0.0062 J0.0108
G2 X7.5125 Y125.5 Z-1.9 I0.0063 J-0.0108
G2 X7.4938 Y125.4892 Z-1.9333 I-0.0125 J0.0
G2 Y125.5108 Z-1.9667 I0.0062 J0.0108
G2 X7.5125 Y125.5 Z-2.0 I0.0063 J-0.0108
G2 X7.4938 Y125.4892 Z-2.0333 I-0.0125 J0.0
G2 Y125.5108 Z-2.0667 I0.0062 J0.0108
G2 X7.5125 Y125.5 Z-2.1 I0.0063 J-0.0108
G2 X7.4938 Y125.4892 Z-2.1333 I-0.0125 J0.0
G2 Y125.5108 Z-2.1667 I0.0062 J0.0108
G2 X7.5125 Y125.5 Z-2.2 I0.0063 J-0.0108
G2 X7.4938 Y125.4892 Z-2.2333 I-0.0125 J0.0
G2 Y125.5108 Z-2.2667 I0.0062 J0.0108
G2 X7.5125 Y125.5 Z-2.3 I0.0063 J-0.0108
G2 X7.4938 Y125.4892 Z-2.3333 I-0.0125 J0.0
G2 Y125.5108 Z-2.3667 I0.0062 J0.0108
G2 X7.5125 Y125.5 Z-2.4 I0.0063 J-0.0108
G2 X7.4938 Y125.4892 Z-2.4333 I-0.0125 J0.0
G2 Y125.5108 Z-2.4667 I0.0062 J0.0108
G2 X7.5125 Y125.5 Z-2.5 I0.0063 J-0.0108
G2 X7.4938 Y125.4892 Z-2.5333 I-0.0125 J0.0
G2 Y125.5108 Z-2.5667 I0.0062 J0.0108
G2 X7.5125 Y125.5 Z-2.6 I0.0063 J-0.0108
G2 X7.4938 Y125.4892 Z-2.6333 I-0.0125 J0.0
G2 Y125.5108 Z-2.6667 I0.0062 J0.0108
G2 X7.5125 Y125.5 Z-2.7 I0.0063 J-0.0108
G2 X7.4938 Y125.4892 Z-2.7333 I-0.0125 J0.0
G2 Y125.5108 Z-2.7667 I0.0062 J0.0108
G2 X7.5125 Y125.5 Z-2.8 I0.0063 J-0.0108
G2 X7.4938 Y125.4892 Z-2.8333 I-0.0125 J0.0
G2 Y125.5108 Z-2.8667 I0.0062 J0.0108
G2 X7.5125 Y125.5 Z-2.9 I0.0063 J-0.0108
G2 X7.4938 Y125.4892 Z-2.9333 I-0.0125 J0.0
G2 Y125.5108 Z-2.9667 I0.0062 J0.0108
G2 X7.5125 Y125.5 Z-3.0 I0.0063 J-0.0108
G2 X7.4938 Y125.4892 Z-3.0333 I-0.0125 J0.0
G2 Y125.5108 Z-3.0667 I0.0062 J0.0108
G2 X7.5125 Y125.5 Z-3.1 I0.0062 J-0.0108
G2 X7.4938 Y125.4892 Z-3.1333 I-0.0125 J0.0
G2 Y125.5108 Z-3.1667 I0.0063 J0.0108
G2 X7.5125 Y125.5 Z-3.2 I0.0062 J-0.0108
G2 X7.4938 Y125.4892 I-0.0125 J0.0
G2 Y125.5108 I0.0063 J0.0108
G2 X7.5125 Y125.5 I0.0062 J-0.0108
G0 Z3.0
G0 X10.5025 Y107.21
G0 Z0.01
G1 F1000.0 Z0.0
G2 F2000.0 X10.4838 Y107.1992 Z-0.0333 I-0.0125 J0.0
G2 Y107.2208 Z-0.0667 I0.0062 J0.0108
G2 X10.5025 Y107.21 Z-0.1 I0.0063 J-0.0108
G2 X10.4838 Y107.1992 Z-0.1333 I-0.0125 J0.0
G2 Y107.2208 Z-0.1667 I0.0062 J0.0108
G2 X10.5025 Y107.21 Z-0.2 I0.0063 J-0.0108
G2 X10.4838 Y107.1992 Z-0.2333 I-0.0125 J0.0
G2 Y107.2208 Z-0.2667 I0.0062 J0.0108
G2 X10.5025 Y107.21 Z-0.3 I0.0063 J-0.0108
G2 X10.4838 Y107.1992 Z-0.3333 I-0.0125 J0.0
G2 Y107.2208 Z-0.3667 I0.0062 J0.0108
G2 X10.5025 Y107.21 Z-0.4 I0.0063 J-0.0108
G2 X10.4838 Y107.1992 Z-0.4333 I-0.0125 J0.0
G2 Y107.2208 Z-0.4667 I0.0062 J0.0108
G2 X10.5025 Y107.21 Z-0.5 I0.0063 J-0.0108
G2 X10.4838 Y107.1992 Z-0.5333 I-0.0125 J0.0
G2 Y107.2208 Z-0.5667 I0.0062 J0.0108
G2 X10.5025 Y107.21 Z-0.6 I0.0063 J-0.0108
G2 X10.4838 Y107.1992 Z-0.6333 I-0.0125 J0.0
G2 Y107.2208 Z-0.6667 I0.0062 J0.0108
G2 X10.5025 Y107.21 Z-0.7 I0.0063 J-0.0108
G2 X10.4838 Y107.1992 Z-0.7333 I-0.0125 J0.0
G2 Y107.2208 Z-0.7667 I0.0062 J0.0108
G2 X10.5025 Y107.21 Z-0.8 I0.0063 J-0.0108
G2 X10.4838 Y107.1992 Z-0.8333 I-0.0125 J0.0
G2 Y107.2208 Z-0.8667 I0.0062 J0.0108
G2 X10.5025 Y107.21 Z-0.9 I0.0063 J-0.0108
G2 X10.4838 Y107.1992 Z-0.9333 I-0.0125 J0.0
G2 Y107.2208 Z-0.9667 I0.0062 J0.0108
G2 X10.5025 Y107.21 Z-1.0 I0.0063 J-0.0108
G2 X10.4838 Y107.1992 Z-1.0333 I-0.0125 J0.0
G2 Y107.2208 Z-1.0667 I0.0062 J0.0108
G2 X10.5025 Y107.21 Z-1.1 I0.0063 J-0.0108
G2 X10.4838 Y107.1992 Z-1.1333 I-0.0125 J0.0
G2 Y107.2208 Z-1.1667 I0.0062 J0.0108
G2 X10.5025 Y107.21 Z-1.2 I0.0063 J-0.0108
G2 X10.4838 Y107.1992 Z-1.2333 I-0.0125 J0.0
G2 Y107.2208 Z-1.2667 I0.0062 J0.0108
G2 X10.5025 Y107.21 Z-1.3 I0.0063 J-0.0108
G2 X10.4838 Y107.1992 Z-1.3333 I-0.0125 J0.0
G2 Y107.2208 Z-1.3667 I0.0062 J0.0108
G2 X10.5025 Y107.21 Z-1.4 I0.0063 J-0.0108
G2 X10.4838 Y107.1992 Z-1.4333 I-0.0125 J0.0
G2 Y107.2208 Z-1.4667 I0.0062 J0.0108
G2 X10.5025 Y107.21 Z-1.5 I0.0063 J-0.0108
G2 X10.4838 Y107.1992 Z-1.5333 I-0.0125 J0.0
G2 Y107.2208 Z-1.5667 I0.0062 J0.0108
G2 X10.5025 Y107.21 Z-1.6 I0.0063 J-0.0108
G2 X10.4838 Y107.1992 Z-1.6333 I-0.0125 J0.0
G2 Y107.2208 Z-1.6667 I0.0062 J0.0108
G2 X10.5025 Y107.21 Z-1.7 I0.0063 J-0.0108
G2 X10.4838 Y107.1992 Z-1.7333 I-0.0125 J0.0
G2 Y107.2208 Z-1.7667 I0.0062 J0.0108
G2 X10.5025 Y107.21 Z-1.8 I0.0063 J-0.0108
G2 X10.4838 Y107.1992 Z-1.8333 I-0.0125 J0.0
G2 Y107.2208 Z-1.8667 I0.0062 J0.0108
G2 X10.5025 Y107.21 Z-1.9 I0.0063 J-0.0108
G2 X10.4838 Y107.1992 Z-1.9333 I-0.0125 J0.0
G2 Y107.2208 Z-1.9667 I0.0062 J0.0108
G2 X10.5025 Y107.21 Z-2.0 I0.0063 J-0.0108
G2 X10.4838 Y107.1992 Z-2.0333 I-0.0125 J0.0
G2 Y107.2208 Z-2.0667 I0.0062 J0.0108
G2 X10.5025 Y107.21 Z-2.1 I0.0063 J-0.0108
G2 X10.4838 Y107.1992 Z-2.1333 I-0.0125 J0.0
G2 Y107.2208 Z-2.1667 I0.0062 J0.0108
G2 X10.5025 Y107.21 Z-2.2 I0.0063 J-0.0108
G2 X10.4838 Y107.1992 Z-2.2333 I-0.0125 J0.0
G2 Y107.2208 Z-2.2667 I0.0062 J0.0108
G2 X10.5025 Y107.21 Z-2.3 I0.0063 J-0.0108
G2 X10.4838 Y107.1992 Z-2.3333 I-0.0125 J0.0
G2 Y107.2208 Z-2.3667 I0.0062 J0.0108
G2 X10.5025 Y107.21 Z-2.4 I0.0063 J-0.0108
G2 X10.4838 Y107.1992 Z-2.4333 I-0.0125 J0.0
G2 Y107.2208 Z-2.4667 I0.0062 J0.0108
G2 X10.5025 Y107.21 Z-2.5 I0.0063 J-0.0108
G2 X10.4838 Y107.1992 Z-2.5333 I-0.0125 J0.0
G2 Y107.2208 Z-2.5667 I0.0062 J0.0108
G2 X10.5025 Y107.21 Z-2.6 I0.0063 J-0.0108
G2 X10.4838 Y107.1992 Z-2.6333 I-0.0125 J0.0
G2 Y107.2208 Z-2.6667 I0.0062 J0.0108
G2 X10.5025 Y107.21 Z-2.7 I0.0063 J-0.0108
G2 X10.4838 Y107.1992 Z-2.7333 I-0.0125 J0.0
G2 Y107.2208 Z-2.7667 I0.0062 J0.0108
G2 X10.5025 Y107.21 Z-2.8 I0.0062 J-0.0108
G2 X10.4838 Y107.1992 Z-2.8333 I-0.0125 J0.0
G2 Y107.2208 Z-2.8667 I0.0062 J0.0108
G2 X10.5025 Y107.21 Z-2.9 I0.0062 J-0.0108
G2 X10.4838 Y107.1992 Z-2.9333 I-0.0125 J0.0
G2 Y107.2208 Z-2.9667 I0.0062 J0.0108
G2 X10.5025 Y107.21 Z-3.0 I0.0062 J-0.0108
G2 X10.4838 Y107.1992 Z-3.0333 I-0.0125 J0.0
G2 Y107.2208 Z-3.0667 I0.0062 J0.0108
G2 X10.5025 Y107.21 Z-3.1 I0.0062 J-0.0108
G2 X10.4838 Y107.1992 Z-3.1333 I-0.0125 J0.0
G2 Y107.2208 Z-3.1667 I0.0063 J0.0108
G2 X10.5025 Y107.21 Z-3.2 I0.0062 J-0.0108
G2 X10.4838 Y107.1992 I-0.0125 J0.0
G2 Y107.2208 I0.0063 J0.0108
G2 X10.5025 Y107.21 I0.0062 J-0.0108
G0 Z3.0
G0 X30.5025
G0 Z0.01
G1 F1000.0 Z0.0
G2 F2000.0 X30.4838 Y107.1992 Z-0.0333 I-0.0125 J0.0
G2 Y107.2208 Z-0.0667 I0.0062 J0.0108
G2 X30.5025 Y107.21 Z-0.1 I0.0063 J-0.0108
G2 X30.4838 Y107.1992 Z-0.1333 I-0.0125 J0.0
G2 Y107.2208 Z-0.1667 I0.0062 J0.0108
G2 X30.5025 Y107.21 Z-0.2 I0.0063 J-0.0108
G2 X30.4838 Y107.1992 Z-0.2333 I-0.0125 J0.0
G2 Y107.2208 Z-0.2667 I0.0062 J0.0108
G2 X30.5025 Y107.21 Z-0.3 I0.0063 J-0.0108
G2 X30.4838 Y107.1992 Z-0.3333 I-0.0125 J0.0
G2 Y107.2208 Z-0.3667 I0.0062 J0.0108
G2 X30.5025 Y107.21 Z-0.4 I0.0063 J-0.0108
G2 X30.4838 Y107.1992 Z-0.4333 I-0.0125 J0.0
G2 Y107.2208 Z-0.4667 I0.0062 J0.0108
G2 X30.5025 Y107.21 Z-0.5 I0.0063 J-0.0108
G2 X30.4838 Y107.1992 Z-0.5333 I-0.0125 J0.0
G2 Y107.2208 Z-0.5667 I0.0062 J0.0108
G2 X30.5025 Y107.21 Z-0.6 I0.0063 J-0.0108
G2 X30.4838 Y107.1992 Z-0.6333 I-0.0125 J0.0
G2 Y107.2208 Z-0.6667 I0.0062 J0.0108
G2 X30.5025 Y107.21 Z-0.7 I0.0063 J-0.0108
G2 X30.4838 Y107.1992 Z-0.7333 I-0.0125 J0.0
G2 Y107.2208 Z-0.7667 I0.0062 J0.0108
G2 X30.5025 Y107.21 Z-0.8 I0.0063 J-0.0108
G2 X30.4838 Y107.1992 Z-0.8333 I-0.0125 J0.0
G2 Y107.2208 Z-0.8667 I0.0062 J0.0108
G2 X30.5025 Y107.21 Z-0.9 I0.0063 J-0.0108
G2 X30.4838 Y107.1992 Z-0.9333 I-0.0125 J0.0
G2 Y107.2208 Z-0.9667 I0.0062 J0.0108
G2 X30.5025 Y107.21 Z-1.0 I0.0063 J-0.0108
G2 X30.4838 Y107.1992 Z-1.0333 I-0.0125 J0.0
G2 Y107.2208 Z-1.0667 I0.0062 J0.0108
G2 X30.5025 Y107.21 Z-1.1 I0.0063 J-0.0108
G2 X30.4838 Y107.1992 Z-1.1333 I-0.0125 J0.0
G2 Y107.2208 Z-1.1667 I0.0062 J0.0108
G2 X30.5025 Y107.21 Z-1.2 I0.0063 J-0.0108
G2 X30.4838 Y107.1992 Z-1.2333 I-0.0125 J0.0
G2 Y107.2208 Z-1.2667 I0.0062 J0.0108
G2 X30.5025 Y107.21 Z-1.3 I0.0063 J-0.0108
G2 X30.4838 Y107.1992 Z-1.3333 I-0.0125 J0.0
G2 Y107.2208 Z-1.3667 I0.0062 J0.0108
G2 X30.5025 Y107.21 Z-1.4 I0.0063 J-0.0108
G2 X30.4838 Y107.1992 Z-1.4333 I-0.0125 J0.0
G2 Y107.2208 Z-1.4667 I0.0062 J0.0108
G2 X30.5025 Y107.21 Z-1.5 I0.0063 J-0.0108
G2 X30.4838 Y107.1992 Z-1.5333 I-0.0125 J0.0
G2 Y107.2208 Z-1.5667 I0.0062 J0.0108
G2 X30.5025 Y107.21 Z-1.6 I0.0063 J-0.0108
G2 X30.4838 Y107.1992 Z-1.6333 I-0.0125 J0.0
G2 Y107.2208 Z-1.6667 I0.0062 J0.0108
G2 X30.5025 Y107.21 Z-1.7 I0.0063 J-0.0108
G2 X30.4838 Y107.1992 Z-1.7333 I-0.0125 J0.0
G2 Y107.2208 Z-1.7667 I0.0062 J0.0108
G2 X30.5025 Y107.21 Z-1.8 I0.0063 J-0.0108
G2 X30.4838 Y107.1992 Z-1.8333 I-0.0125 J0.0
G2 Y107.2208 Z-1.8667 I0.0062 J0.0108
G2 X30.5025 Y107.21 Z-1.9 I0.0063 J-0.0108
G2 X30.4838 Y107.1992 Z-1.9333 I-0.0125 J0.0
G2 Y107.2208 Z-1.9667 I0.0062 J0.0108
G2 X30.5025 Y107.21 Z-2.0 I0.0063 J-0.0108
G2 X30.4838 Y107.1992 Z-2.0333 I-0.0125 J0.0
G2 Y107.2208 Z-2.0667 I0.0062 J0.0108
G2 X30.5025 Y107.21 Z-2.1 I0.0063 J-0.0108
G2 X30.4838 Y107.1992 Z-2.1333 I-0.0125 J0.0
G2 Y107.2208 Z-2.1667 I0.0062 J0.0108
G2 X30.5025 Y107.21 Z-2.2 I0.0063 J-0.0108
G2 X30.4838 Y107.1992 Z-2.2333 I-0.0125 J0.0
G2 Y107.2208 Z-2.2667 I0.0062 J0.0108
G2 X30.5025 Y107.21 Z-2.3 I0.0063 J-0.0108
G2 X30.4838 Y107.1992 Z-2.3333 I-0.0125 J0.0
G2 Y107.2208 Z-2.3667 I0.0062 J0.0108
G2 X30.5025 Y107.21 Z-2.4 I0.0063 J-0.0108
G2 X30.4838 Y107.1992 Z-2.4333 I-0.0125 J0.0
G2 Y107.2208 Z-2.4667 I0.0062 J0.0108
G2 X30.5025 Y107.21 Z-2.5 I0.0063 J-0.0108
G2 X30.4838 Y107.1992 Z-2.5333 I-0.0125 J0.0
G2 Y107.2208 Z-2.5667 I0.0062 J0.0108
G2 X30.5025 Y107.21 Z-2.6 I0.0063 J-0.0108
G2 X30.4838 Y107.1992 Z-2.6333 I-0.0125 J0.0
G2 Y107.2208 Z-2.6667 I0.0062 J0.0108
G2 X30.5025 Y107.21 Z-2.7 I0.0063 J-0.0108
G2 X30.4838 Y107.1992 Z-2.7333 I-0.0125 J0.0
G2 Y107.2208 Z-2.7667 I0.0062 J0.0108
G2 X30.5025 Y107.21 Z-2.8 I0.0063 J-0.0108
G2 X30.4838 Y107.1992 Z-2.8333 I-0.0125 J0.0
G2 Y107.2208 Z-2.8667 I0.0062 J0.0108
G2 X30.5025 Y107.21 Z-2.9 I0.0063 J-0.0108
G2 X30.4838 Y107.1992 Z-2.9333 I-0.0125 J0.0
G2 Y107.2208 Z-2.9667 I0.0062 J0.0108
G2 X30.5025 Y107.21 Z-3.0 I0.0063 J-0.0108
G2 X30.4838 Y107.1992 Z-3.0333 I-0.0125 J0.0
G2 Y107.2208 Z-3.0667 I0.0062 J0.0108
G2 X30.5025 Y107.21 Z-3.1 I0.0063 J-0.0108
G2 X30.4838 Y107.1992 Z-3.1333 I-0.0125 J0.0
G2 Y107.2208 Z-3.1667 I0.0062 J0.0108
G2 X30.5025 Y107.21 Z-3.2 I0.0063 J-0.0108
G2 X30.4838 Y107.1992 I-0.0125 J0.0
G2 Y107.2208 I0.0063 J0.0108
G2 X30.5025 Y107.21 I0.0062 J-0.0108
G0 Z0.0
G1 F1000.0 X30.5125 Y107.23
G2 F2000.0 X30.4938 Y107.2192 Z-0.0333 I-0.0125 J0.0
G2 Y107.2408 Z-0.0667 I0.0062 J0.0108
G2 X30.5125 Y107.23 Z-0.1 I0.0063 J-0.0108
G2 X30.4938 Y107.2192 Z-0.1333 I-0.0125 J0.0
G2 Y107.2408 Z-0.1667 I0.0062 J0.0108
G2 X30.5125 Y107.23 Z-0.2 I0.0063 J-0.0108
G2 X30.4938 Y107.2192 Z-0.2333 I-0.0125 J0.0
G2 Y107.2408 Z-0.2667 I0.0062 J0.0108
G2 X30.5125 Y107.23 Z-0.3 I0.0063 J-0.0108
G2 X30.4938 Y107.2192 Z-0.3333 I-0.0125 J0.0
G2 Y107.2408 Z-0.3667 I0.0062 J0.0108
G2 X30.5125 Y107.23 Z-0.4 I0.0063 J-0.0108
G2 X30.4938 Y107.2192 Z-0.4333 I-0.0125 J0.0
G2 Y107.2408 Z-0.4667 I0.0062 J0.0108
G2 X30.5125 Y107.23 Z-0.5 I0.0063 J-0.0108
G2 X30.4938 Y107.2192 Z-0.5333 I-0.0125 J0.0
G2 Y107.2408 Z-0.5667 I0.0062 J0.0108
G2 X30.5125 Y107.23 Z-0.6 I0.0063 J-0.0108
G2 X30.4938 Y107.2192 Z-0.6333 I-0.0125 J0.0
G2 Y107.2408 Z-0.6667 I0.0062 J0.0108
G2 X30.5125 Y107.23 Z-0.7 I0.0063 J-0.0108
G2 X30.4938 Y107.2192 Z-0.7333 I-0.0125 J0.0
G2 Y107.2408 Z-0.7667 I0.0062 J0.0108
G2 X30.5125 Y107.23 Z-0.8 I0.0063 J-0.0108
G2 X30.4938 Y107.2192 Z-0.8333 I-0.0125 J0.0
G2 Y107.2408 Z-0.8667 I0.0062 J0.0108
G2 X30.5125 Y107.23 Z-0.9 I0.0063 J-0.0108
G2 X30.4938 Y107.2192 Z-0.9333 I-0.0125 J0.0
G2 Y107.2408 Z-0.9667 I0.0062 J0.0108
G2 X30.5125 Y107.23 Z-1.0 I0.0063 J-0.0108
G2 X30.4938 Y107.2192 Z-1.0333 I-0.0125 J0.0
G2 Y107.2408 Z-1.0667 I0.0062 J0.0108
G2 X30.5125 Y107.23 Z-1.1 I0.0063 J-0.0108
G2 X30.4938 Y107.2192 Z-1.1333 I-0.0125 J0.0
G2 Y107.2408 Z-1.1667 I0.0062 J0.0108
G2 X30.5125 Y107.23 Z-1.2 I0.0063 J-0.0108
G2 X30.4938 Y107.2192 Z-1.2333 I-0.0125 J0.0
G2 Y107.2408 Z-1.2667 I0.0062 J0.0108
G2 X30.5125 Y107.23 Z-1.3 I0.0063 J-0.0108
G2 X30.4938 Y107.2192 Z-1.3333 I-0.0125 J0.0
G2 Y107.2408 Z-1.3667 I0.0062 J0.0108
G2 X30.5125 Y107.23 Z-1.4 I0.0063 J-0.0108
G2 X30.4938 Y107.2192 Z-1.4333 I-0.0125 J0.0
G2 Y107.2408 Z-1.4667 I0.0062 J0.0108
G2 X30.5125 Y107.23 Z-1.5 I0.0063 J-0.0108
G2 X30.4938 Y107.2192 Z-1.5333 I-0.0125 J0.0
G2 Y107.2408 Z-1.5667 I0.0062 J0.0108
G2 X30.5125 Y107.23 Z-1.6 I0.0063 J-0.0108
G2 X30.4938 Y107.2192 Z-1.6333 I-0.0125 J0.0
G2 Y107.2408 Z-1.6667 I0.0062 J0.0108
G2 X30.5125 Y107.23 Z-1.7 I0.0063 J-0.0108
G2 X30.4938 Y107.2192 Z-1.7333 I-0.0125 J0.0
G2 Y107.2408 Z-1.7667 I0.0062 J0.0108
G2 X30.5125 Y107.23 Z-1.8 I0.0063 J-0.0108
G2 X30.4938 Y107.2192 Z-1.8333 I-0.0125 J0.0
G2 Y107.2408 Z-1.8667 I0.0062 J0.0108
G2 X30.5125 Y107.23 Z-1.9 I0.0063 J-0.0108
G2 X30.4938 Y107.2192 Z-1.9333 I-0.0125 J0.0
G2 Y107.2408 Z-1.9667 I0.0062 J0.0108
G2 X30.5125 Y107.23 Z-2.0 I0.0063 J-0.0108
G2 X30.4938 Y107.2192 Z-2.0333 I-0.0125 J0.0
G2 Y107.2408 Z-2.0667 I0.0062 J0.0108
G2 X30.5125 Y107.23 Z-2.1 I0.0063 J-0.0108
G2 X30.4938 Y107.2192 Z-2.1333 I-0.0125 J0.0
G2 Y107.2408 Z-2.1667 I0.0062 J0.0108
G2 X30.5125 Y107.23 Z-2.2 I0.0063 J-0.0108
G2 X30.4938 Y107.2192 Z-2.2333 I-0.0125 J0.0
G2 Y107.2408 Z-2.2667 I0.0062 J0.0108
G2 X30.5125 Y107.23 Z-2.3 I0.0063 J-0.0108
G2 X30.4938 Y107.2192 Z-2.3333 I-0.0125 J0.0
G2 Y107.2408 Z-2.3667 I0.0062 J0.0108
G2 X30.5125 Y107.23 Z-2.4 I0.0063 J-0.0108
G2 X30.4938 Y107.2192 Z-2.4333 I-0.0125 J0.0
G2 Y107.2408 Z-2.4667 I0.0062 J0.0108
G2 X30.5125 Y107.23 Z-2.5 I0.0063 J-0.0108
G2 X30.4938 Y107.2192 Z-2.5333 I-0.0125 J0.0
G2 Y107.2408 Z-2.5667 I0.0062 J0.0108
G2 X30.5125 Y107.23 Z-2.6 I0.0063 J-0.0108
G2 X30.4938 Y107.2192 Z-2.6333 I-0.0125 J0.0
G2 Y107.2408 Z-2.6667 I0.0062 J0.0108
G2 X30.5125 Y107.23 Z-2.7 I0.0063 J-0.0108
G2 X30.4938 Y107.2192 Z-2.7333 I-0.0125 J0.0
G2 Y107.2408 Z-2.7667 I0.0062 J0.0108
G2 X30.5125 Y107.23 Z-2.8 I0.0063 J-0.0108
G2 X30.4938 Y107.2192 Z-2.8333 I-0.0125 J0.0
G2 Y107.2408 Z-2.8667 I0.0062 J0.0108
G2 X30.5125 Y107.23 Z-2.9 I0.0063 J-0.0108
G2 X30.4938 Y107.2192 Z-2.9333 I-0.0125 J0.0
G2 Y107.2408 Z-2.9667 I0.0062 J0.0108
G2 X30.5125 Y107.23 Z-3.0 I0.0063 J-0.0108
G2 X30.4938 Y107.2192 Z-3.0333 I-0.0125 J0.0
G2 Y107.2408 Z-3.0667 I0.0062 J0.0108
G2 X30.5125 Y107.23 Z-3.1 I0.0063 J-0.0108
G2 X30.4938 Y107.2192 Z-3.1333 I-0.0125 J0.0
G2 Y107.2408 Z-3.1667 I0.0062 J0.0108
G2 X30.5125 Y107.23 Z-3.2 I0.0063 J-0.0108
G2 X30.4938 Y107.2192 I-0.0125 J0.0
G2 Y107.2408 I0.0063 J0.0108
G2 X30.5125 Y107.23 I0.0062 J-0.0108
G0 Z3.0
G0 X30.5558 Y84.3733
G0 Z0.01
G1 F1000.0 Z0.0
G2 F2000.0 X30.5371 Y84.3625 Z-0.0333 I-0.0125 J0.0
G2 Y84.3842 Z-0.0667 I0.0062 J0.0108
G2 X30.5558 Y84.3733 Z-0.1 I0.0063 J-0.0108
G2 X30.5371 Y84.3625 Z-0.1333 I-0.0125 J0.0
G2 Y84.3842 Z-0.1667 I0.0062 J0.0108
G2 X30.5558 Y84.3733 Z-0.2 I0.0063 J-0.0108
G2 X30.5371 Y84.3625 Z-0.2333 I-0.0125 J0.0
G2 Y84.3842 Z-0.2667 I0.0062 J0.0108
G2 X30.5558 Y84.3733 Z-0.3 I0.0063 J-0.0108
G2 X30.5371 Y84.3625 Z-0.3333 I-0.0125 J0.0
G2 Y84.3842 Z-0.3667 I0.0062 J0.0108
G2 X30.5558 Y84.3733 Z-0.4 I0.0063 J-0.0108
G2 X30.5371 Y84.3625 Z-0.4333 I-0.0125 J0.0
G2 Y84.3842 Z-0.4667 I0.0062 J0.0108
G2 X30.5558 Y84.3733 Z-0.5 I0.0063 J-0.0108
G2 X30.5371 Y84.3625 Z-0.5333 I-0.0125 J0.0
G2 Y84.3842 Z-0.5667 I0.0062 J0.0108
G2 X30.5558 Y84.3733 Z-0.6 I0.0063 J-0.0108
G2 X30.5371 Y84.3625 Z-0.6333 I-0.0125 J0.0
G2 Y84.3842 Z-0.6667 I0.0062 J0.0108
G2 X30.5558 Y84.3733 Z-0.7 I0.0063 J-0.0108
G2 X30.5371 Y84.3625 Z-0.7333 I-0.0125 J0.0
G2 Y84.3842 Z-0.7667 I0.0062 J0.0108
G2 X30.5558 Y84.3733 Z-0.8 I0.0063 J-0.0108
G2 X30.5371 Y84.3625 Z-0.8333 I-0.0125 J0.0
G2 Y84.3842 Z-0.8667 I0.0062 J0.0108
G2 X30.5558 Y84.3733 Z-0.9 I0.0063 J-0.0108
G2 X30.5371 Y84.3625 Z-0.9333 I-0.0125 J0.0
G2 Y84.3842 Z-0.9667 I0.0062 J0.0108
G2 X30.5558 Y84.3733 Z-1.0 I0.0063 J-0.0108
G2 X30.5371 Y84.3625 Z-1.0333 I-0.0125 J0.0
G2 Y84.3842 Z-1.0667 I0.0062 J0.0108
G2 X30.5558 Y84.3733 Z-1.1 I0.0063 J-0.0108
G2 X30.5371 Y84.3625 Z-1.1333 I-0.0125 J0.0
G2 Y84.3842 Z-1.1667 I0.0062 J0.0108
G2 X30.5558 Y84.3733 Z-1.2 I0.0063 J-0.0108
G2 X30.5371 Y84.3625 Z-1.2333 I-0.0125 J0.0
G2 Y84.3842 Z-1.2667 I0.0062 J0.0108
G2 X30.5558 Y84.3733 Z-1.3 I0.0063 J-0.0108
G2 X30.5371 Y84.3625 Z-1.3333 I-0.0125 J0.0
G2 Y84.3842 Z-1.3667 I0.0062 J0.0108
G2 X30.5558 Y84.3733 Z-1.4 I0.0063 J-0.0108
G2 X30.5371 Y84.3625 Z-1.4333 I-0.0125 J0.0
G2 Y84.3842 Z-1.4667 I0.0062 J0.0108
G2 X30.5558 Y84.3733 Z-1.5 I0.0063 J-0.0108
G2 X30.5371 Y84.3625 Z-1.5333 I-0.0125 J0.0
G2 Y84.3842 Z-1.5667 I0.0062 J0.0108
G2 X30.5558 Y84.3733 Z-1.6 I0.0063 J-0.0108
G2 X30.5371 Y84.3625 Z-1.6333 I-0.0125 J0.0
G2 Y84.3842 Z-1.6667 I0.0062 J0.0108
G2 X30.5558 Y84.3733 Z-1.7 I0.0063 J-0.0108
G2 X30.5371 Y84.3625 Z-1.7333 I-0.0125 J0.0
G2 Y84.3842 Z-1.7667 I0.0062 J0.0108
G2 X30.5558 Y84.3733 Z-1.8 I0.0063 J-0.0108
G2 X30.5371 Y84.3625 Z-1.8333 I-0.0125 J0.0
G2 Y84.3842 Z-1.8667 I0.0062 J0.0108
G2 X30.5558 Y84.3733 Z-1.9 I0.0063 J-0.0108
G2 X30.5371 Y84.3625 Z-1.9333 I-0.0125 J0.0
G2 Y84.3842 Z-1.9667 I0.0062 J0.0108
G2 X30.5558 Y84.3733 Z-2.0 I0.0063 J-0.0108
G2 X30.5371 Y84.3625 Z-2.0333 I-0.0125 J0.0
G2 Y84.3842 Z-2.0667 I0.0062 J0.0108
G2 X30.5558 Y84.3733 Z-2.1 I0.0063 J-0.0108
G2 X30.5371 Y84.3625 Z-2.1333 I-0.0125 J0.0
G2 Y84.3842 Z-2.1667 I0.0062 J0.0108
G2 X30.5558 Y84.3733 Z-2.2 I0.0063 J-0.0108
G2 X30.5371 Y84.3625 Z-2.2333 I-0.0125 J0.0
G2 Y84.3842 Z-2.2667 I0.0062 J0.0108
G2 X30.5558 Y84.3733 Z-2.3 I0.0063 J-0.0108
G2 X30.5371 Y84.3625 Z-2.3333 I-0.0125 J0.0
G2 Y84.3842 Z-2.3667 I0.0062 J0.0108
G2 X30.5558 Y84.3733 Z-2.4 I0.0063 J-0.0108
G2 X30.5371 Y84.3625 Z-2.4333 I-0.0125 J0.0
G2 Y84.3842 Z-2.4667 I0.0062 J0.0108
G2 X30.5558 Y84.3733 Z-2.5 I0.0063 J-0.0108
G2 X30.5371 Y84.3625 Z-2.5333 I-0.0125 J0.0
G2 Y84.3842 Z-2.5667 I0.0062 J0.0108
G2 X30.5558 Y84.3733 Z-2.6 I0.0063 J-0.0108
G2 X30.5371 Y84.3625 Z-2.6333 I-0.0125 J0.0
G2 Y84.3842 Z-2.6667 I0.0062 J0.0108
G2 X30.5558 Y84.3733 Z-2.7 I0.0063 J-0.0108
G2 X30.5371 Y84.3625 Z-2.7333 I-0.0125 J0.0
G2 Y84.3842 Z-2.7667 I0.0062 J0.0108
G2 X30.5558 Y84.3733 Z-2.8 I0.0063 J-0.0108
G2 X30.5371 Y84.3625 Z-2.8333 I-0.0125 J0.0
G2 Y84.3842 Z-2.8667 I0.0062 J0.0108
G2 X30.5558 Y84.3733 Z-2.9 I0.0063 J-0.0108
G2 X30.5371 Y84.3625 Z-2.9333 I-0.0125 J0.0
G2 Y84.3842 Z-2.9667 I0.0062 J0.0108
G2 X30.5558 Y84.3733 Z-3.0 I0.0063 J-0.0108
G2 X30.5371 Y84.3625 Z-3.0333 I-0.0125 J0.0
G2 Y84.3842 Z-3.0667 I0.0062 J0.0108
G2 X30.5558 Y84.3733 Z-3.1 I0.0063 J-0.0108
G2 X30.5371 Y84.3625 Z-3.1333 I-0.0125 J0.0
G2 Y84.3842 Z-3.1667 I0.0062 J0.0108
G2 X30.5558 Y84.3733 Z-3.2 I0.0063 J-0.0108
G2 X30.5371 Y84.3625 I-0.0125 J0.0
G2 Y84.3842 I0.0063 J0.0108
G2 X30.5558 Y84.3733 I0.0062 J-0.0108
G0 Z0.0
G1 F1000.0 X30.5125 Y84.37
G2 F2000.0 X30.4938 Y84.3592 Z-0.0333 I-0.0125 J0.0
G2 Y84.3808 Z-0.0667 I0.0062 J0.0108
G2 X30.5125 Y84.37 Z-0.1 I0.0063 J-0.0108
G2 X30.4938 Y84.3592 Z-0.1333 I-0.0125 J0.0
G2 Y84.3808 Z-0.1667 I0.0062 J0.0108
G2 X30.5125 Y84.37 Z-0.2 I0.0063 J-0.0108
G2 X30.4938 Y84.3592 Z-0.2333 I-0.0125 J0.0
G2 Y84.3808 Z-0.2667 I0.0062 J0.0108
G2 X30.5125 Y84.37 Z-0.3 I0.0063 J-0.0108
G2 X30.4938 Y84.3592 Z-0.3333 I-0.0125 J0.0
G2 Y84.3808 Z-0.3667 I0.0062 J0.0108
G2 X30.5125 Y84.37 Z-0.4 I0.0063 J-0.0108
G2 X30.4938 Y84.3592 Z-0.4333 I-0.0125 J0.0
G2 Y84.3808 Z-0.4667 I0.0062 J0.0108
G2 X30.5125 Y84.37 Z-0.5 I0.0063 J-0.0108
G2 X30.4938 Y84.3592 Z-0.5333 I-0.0125 J0.0
G2 Y84.3808 Z-0.5667 I0.0062 J0.0108
G2 X30.5125 Y84.37 Z-0.6 I0.0063 J-0.0108
G2 X30.4938 Y84.3592 Z-0.6333 I-0.0125 J0.0
G2 Y84.3808 Z-0.6667 I0.0062 J0.0108
G2 X30.5125 Y84.37 Z-0.7 I0.0063 J-0.0108
G2 X30.4938 Y84.3592 Z-0.7333 I-0.0125 J0.0
G2 Y84.3808 Z-0.7667 I0.0062 J0.0108
G2 X30.5125 Y84.37 Z-0.8 I0.0063 J-0.0108
G2 X30.4938 Y84.3592 Z-0.8333 I-0.0125 J0.0
G2 Y84.3808 Z-0.8667 I0.0062 J0.0108
G2 X30.5125 Y84.37 Z-0.9 I0.0063 J-0.0108
G2 X30.4938 Y84.3592 Z-0.9333 I-0.0125 J0.0
G2 Y84.3808 Z-0.9667 I0.0062 J0.0108
G2 X30.5125 Y84.37 Z-1.0 I0.0063 J-0.0108
G2 X30.4938 Y84.3592 Z-1.0333 I-0.0125 J0.0
G2 Y84.3808 Z-1.0667 I0.0062 J0.0108
G2 X30.5125 Y84.37 Z-1.1 I0.0063 J-0.0108
G2 X30.4938 Y84.3592 Z-1.1333 I-0.0125 J0.0
G2 Y84.3808 Z-1.1667 I0.0062 J0.0108
G2 X30.5125 Y84.37 Z-1.2 I0.0063 J-0.0108
G2 X30.4938 Y84.3592 Z-1.2333 I-0.0125 J0.0
G2 Y84.3808 Z-1.2667 I0.0062 J0.0108
G2 X30.5125 Y84.37 Z-1.3 I0.0063 J-0.0108
G2 X30.4938 Y84.3592 Z-1.3333 I-0.0125 J0.0
G2 Y84.3808 Z-1.3667 I0.0062 J0.0108
G2 X30.5125 Y84.37 Z-1.4 I0.0063 J-0.0108
G2 X30.4938 Y84.3592 Z-1.4333 I-0.0125 J0.0
G2 Y84.3808 Z-1.4667 I0.0062 J0.0108
G2 X30.5125 Y84.37 Z-1.5 I0.0063 J-0.0108
G2 X30.4938 Y84.3592 Z-1.5333 I-0.0125 J0.0
G2 Y84.3808 Z-1.5667 I0.0062 J0.0108
G2 X30.5125 Y84.37 Z-1.6 I0.0063 J-0.0108
G2 X30.4938 Y84.3592 Z-1.6333 I-0.0125 J0.0
G2 Y84.3808 Z-1.6667 I0.0062 J0.0108
G2 X30.5125 Y84.37 Z-1.7 I0.0063 J-0.0108
G2 X30.4938 Y84.3592 Z-1.7333 I-0.0125 J0.0
G2 Y84.3808 Z-1.7667 I0.0062 J0.0108
G2 X30.5125 Y84.37 Z-1.8 I0.0063 J-0.0108
G2 X30.4938 Y84.3592 Z-1.8333 I-0.0125 J0.0
G2 Y84.3808 Z-1.8667 I0.0062 J0.0108
G2 X30.5125 Y84.37 Z-1.9 I0.0063 J-0.0108
G2 X30.4938 Y84.3592 Z-1.9333 I-0.0125 J0.0
G2 Y84.3808 Z-1.9667 I0.0062 J0.0108
G2 X30.5125 Y84.37 Z-2.0 I0.0063 J-0.0108
G2 X30.4938 Y84.3592 Z-2.0333 I-0.0125 J0.0
G2 Y84.3808 Z-2.0667 I0.0062 J0.0108
G2 X30.5125 Y84.37 Z-2.1 I0.0063 J-0.0108
G2 X30.4938 Y84.3592 Z-2.1333 I-0.0125 J0.0
G2 Y84.3808 Z-2.1667 I0.0062 J0.0108
G2 X30.5125 Y84.37 Z-2.2 I0.0063 J-0.0108
G2 X30.4938 Y84.3592 Z-2.2333 I-0.0125 J0.0
G2 Y84.3808 Z-2.2667 I0.0062 J0.0108
G2 X30.5125 Y84.37 Z-2.3 I0.0063 J-0.0108
G2 X30.4938 Y84.3592 Z-2.3333 I-0.0125 J0.0
G2 Y84.3808 Z-2.3667 I0.0062 J0.0108
G2 X30.5125 Y84.37 Z-2.4 I0.0063 J-0.0108
G2 X30.4938 Y84.3592 Z-2.4333 I-0.0125 J0.0
G2 Y84.3808 Z-2.4667 I0.0062 J0.0108
G2 X30.5125 Y84.37 Z-2.5 I0.0063 J-0.0108
G2 X30.4938 Y84.3592 Z-2.5333 I-0.0125 J0.0
G2 Y84.3808 Z-2.5667 I0.0062 J0.0108
G2 X30.5125 Y84.37 Z-2.6 I0.0063 J-0.0108
G2 X30.4938 Y84.3592 Z-2.6333 I-0.0125 J0.0
G2 Y84.3808 Z-2.6667 I0.0062 J0.0108
G2 X30.5125 Y84.37 Z-2.7 I0.0063 J-0.0108
G2 X30.4938 Y84.3592 Z-2.7333 I-0.0125 J0.0
G2 Y84.3808 Z-2.7667 I0.0062 J0.0108
G2 X30.5125 Y84.37 Z-2.8 I0.0063 J-0.0108
G2 X30.4938 Y84.3592 Z-2.8333 I-0.0125 J0.0
G2 Y84.3808 Z-2.8667 I0.0062 J0.0108
G2 X30.5125 Y84.37 Z-2.9 I0.0063 J-0.0108
G2 X30.4938 Y84.3592 Z-2.9333 I-0.0125 J0.0
G2 Y84.3808 Z-2.9667 I0.0062 J0.0108
G2 X30.5125 Y84.37 Z-3.0 I0.0063 J-0.0108
G2 X30.4938 Y84.3592 Z-3.0333 I-0.0125 J0.0
G2 Y84.3808 Z-3.0667 I0.0062 J0.0108
G2 X30.5125 Y84.37 Z-3.1 I0.0063 J-0.0108
G2 X30.4938 Y84.3592 Z-3.1333 I-0.0125 J0.0
G2 Y84.3808 Z-3.1667 I0.0062 J0.0108
G2 X30.5125 Y84.37 Z-3.2 I0.0063 J-0.0108
G2 X30.4938 Y84.3592 I-0.0125 J0.0
G2 Y84.3808 I0.0063 J0.0108
G2 X30.5125 Y84.37 I0.0062 J-0.0108
G0 Z3.0
G0 X10.5558 Y84.3733
G0 Z0.01
G1 F1000.0 Z0.0
G2 F2000.0 X10.5371 Y84.3625 Z-0.0333 I-0.0125 J0.0
G2 Y84.3842 Z-0.0667 I0.0062 J0.0108
G2 X10.5558 Y84.3733 Z-0.1 I0.0063 J-0.0108
G2 X10.5371 Y84.3625 Z-0.1333 I-0.0125 J0.0
G2 Y84.3842 Z-0.1667 I0.0062 J0.0108
G2 X10.5558 Y84.3733 Z-0.2 I0.0063 J-0.0108
G2 X10.5371 Y84.3625 Z-0.2333 I-0.0125 J0.0
G2 Y84.3842 Z-0.2667 I0.0062 J0.0108
G2 X10.5558 Y84.3733 Z-0.3 I0.0063 J-0.0108
G2 X10.5371 Y84.3625 Z-0.3333 I-0.0125 J0.0
G2 Y84.3842 Z-0.3667 I0.0062 J0.0108
G2 X10.5558 Y84.3733 Z-0.4 I0.0063 J-0.0108
G2 X10.5371 Y84.3625 Z-0.4333 I-0.0125 J0.0
G2 Y84.3842 Z-0.4667 I0.0062 J0.0108
G2 X10.5558 Y84.3733 Z-0.5 I0.0063 J-0.0108
G2 X10.5371 Y84.3625 Z-0.5333 I-0.0125 J0.0
G2 Y84.3842 Z-0.5667 I0.0062 J0.0108
G2 X10.5558 Y84.3733 Z-0.6 I0.0063 J-0.0108
G2 X10.5371 Y84.3625 Z-0.6333 I-0.0125 J0.0
G2 Y84.3842 Z-0.6667 I0.0062 J0.0108
G2 X10.5558 Y84.3733 Z-0.7 I0.0063 J-0.0108
G2 X10.5371 Y84.3625 Z-0.7333 I-0.0125 J0.0
G2 Y84.3842 Z-0.7667 I0.0062 J0.0108
G2 X10.5558 Y84.3733 Z-0.8 I0.0063 J-0.0108
G2 X10.5371 Y84.3625 Z-0.8333 I-0.0125 J0.0
G2 Y84.3842 Z-0.8667 I0.0062 J0.0108
G2 X10.5558 Y84.3733 Z-0.9 I0.0063 J-0.0108
G2 X10.5371 Y84.3625 Z-0.9333 I-0.0125 J0.0
G2 Y84.3842 Z-0.9667 I0.0062 J0.0108
G2 X10.5558 Y84.3733 Z-1.0 I0.0063 J-0.0108
G2 X10.5371 Y84.3625 Z-1.0333 I-0.0125 J0.0
G2 Y84.3842 Z-1.0667 I0.0062 J0.0108
G2 X10.5558 Y84.3733 Z-1.1 I0.0063 J-0.0108
G2 X10.5371 Y84.3625 Z-1.1333 I-0.0125 J0.0
G2 Y84.3842 Z-1.1667 I0.0062 J0.0108
G2 X10.5558 Y84.3733 Z-1.2 I0.0063 J-0.0108
G2 X10.5371 Y84.3625 Z-1.2333 I-0.0125 J0.0
G2 Y84.3842 Z-1.2667 I0.0062 J0.0108
G2 X10.5558 Y84.3733 Z-1.3 I0.0063 J-0.0108
G2 X10.5371 Y84.3625 Z-1.3333 I-0.0125 J0.0
G2 Y84.3842 Z-1.3667 I0.0062 J0.0108
G2 X10.5558 Y84.3733 Z-1.4 I0.0063 J-0.0108
G2 X10.5371 Y84.3625 Z-1.4333 I-0.0125 J0.0
G2 Y84.3842 Z-1.4667 I0.0062 J0.0108
G2 X10.5558 Y84.3733 Z-1.5 I0.0063 J-0.0108
G2 X10.5371 Y84.3625 Z-1.5333 I-0.0125 J0.0
G2 Y84.3842 Z-1.5667 I0.0062 J0.0108
G2 X10.5558 Y84.3733 Z-1.6 I0.0063 J-0.0108
G2 X10.5371 Y84.3625 Z-1.6333 I-0.0125 J0.0
G2 Y84.3842 Z-1.6667 I0.0062 J0.0108
G2 X10.5558 Y84.3733 Z-1.7 I0.0063 J-0.0108
G2 X10.5371 Y84.3625 Z-1.7333 I-0.0125 J0.0
G2 Y84.3842 Z-1.7667 I0.0062 J0.0108
G2 X10.5558 Y84.3733 Z-1.8 I0.0063 J-0.0108
G2 X10.5371 Y84.3625 Z-1.8333 I-0.0125 J0.0
G2 Y84.3842 Z-1.8667 I0.0062 J0.0108
G2 X10.5558 Y84.3733 Z-1.9 I0.0063 J-0.0108
G2 X10.5371 Y84.3625 Z-1.9333 I-0.0125 J0.0
G2 Y84.3842 Z-1.9667 I0.0062 J0.0108
G2 X10.5558 Y84.3733 Z-2.0 I0.0063 J-0.0108
G2 X10.5371 Y84.3625 Z-2.0333 I-0.0125 J0.0
G2 Y84.3842 Z-2.0667 I0.0062 J0.0108
G2 X10.5558 Y84.3733 Z-2.1 I0.0063 J-0.0108
G2 X10.5371 Y84.3625 Z-2.1333 I-0.0125 J0.0
G2 Y84.3842 Z-2.1667 I0.0062 J0.0108
G2 X10.5558 Y84.3733 Z-2.2 I0.0063 J-0.0108
G2 X10.5371 Y84.3625 Z-2.2333 I-0.0125 J0.0
G2 Y84.3842 Z-2.2667 I0.0062 J0.0108
G2 X10.5558 Y84.3733 Z-2.3 I0.0063 J-0.0108
G2 X10.5371 Y84.3625 Z-2.3333 I-0.0125 J0.0
G2 Y84.3842 Z-2.3667 I0.0062 J0.0108
G2 X10.5558 Y84.3733 Z-2.4 I0.0063 J-0.0108
G2 X10.5371 Y84.3625 Z-2.4333 I-0.0125 J0.0
G2 Y84.3842 Z-2.4667 I0.0062 J0.0108
G2 X10.5558 Y84.3733 Z-2.5 I0.0063 J-0.0108
G2 X10.5371 Y84.3625 Z-2.5333 I-0.0125 J0.0
G2 Y84.3842 Z-2.5667 I0.0062 J0.0108
G2 X10.5558 Y84.3733 Z-2.6 I0.0063 J-0.0108
G2 X10.5371 Y84.3625 Z-2.6333 I-0.0125 J0.0
G2 Y84.3842 Z-2.6667 I0.0062 J0.0108
G2 X10.5558 Y84.3733 Z-2.7 I0.0063 J-0.0108
G2 X10.5371 Y84.3625 Z-2.7333 I-0.0125 J0.0
G2 Y84.3842 Z-2.7667 I0.0062 J0.0108
G2 X10.5558 Y84.3733 Z-2.8 I0.0062 J-0.0108
G2 X10.5371 Y84.3625 Z-2.8333 I-0.0125 J0.0
G2 Y84.3842 Z-2.8667 I0.0062 J0.0108
G2 X10.5558 Y84.3733 Z-2.9 I0.0062 J-0.0108
G2 X10.5371 Y84.3625 Z-2.9333 I-0.0125 J0.0
G2 Y84.3842 Z-2.9667 I0.0062 J0.0108
G2 X10.5558 Y84.3733 Z-3.0 I0.0062 J-0.0108
G2 X10.5371 Y84.3625 Z-3.0333 I-0.0125 J0.0
G2 Y84.3842 Z-3.0667 I0.0062 J0.0108
G2 X10.5558 Y84.3733 Z-3.1 I0.0062 J-0.0108
G2 X10.5371 Y84.3625 Z-3.1333 I-0.0125 J0.0
G2 Y84.3842 Z-3.1667 I0.0063 J0.0108
G2 X10.5558 Y84.3733 Z-3.2 I0.0062 J-0.0108
G2 X10.5371 Y84.3625 I-0.0125 J0.0
G2 Y84.3842 I0.0063 J0.0108
G2 X10.5558 Y84.3733 I0.0062 J-0.0108
G0 Z3.0
G0 X10.5125 Y61.51
G0 Z0.01
G1 F1000.0 Z0.0
G2 F2000.0 X10.4938 Y61.4992 Z-0.0333 I-0.0125 J0.0
G2 Y61.5208 Z-0.0667 I0.0063 J0.0108
G2 X10.5125 Y61.51 Z-0.1 I0.0062 J-0.0108
G2 X10.4938 Y61.4992 Z-0.1333 I-0.0125 J0.0
G2 Y61.5208 Z-0.1667 I0.0063 J0.0108
G2 X10.5125 Y61.51 Z-0.2 I0.0062 J-0.0108
G2 X10.4938 Y61.4992 Z-0.2333 I-0.0125 J0.0
G2 Y61.5208 Z-0.2667 I0.0063 J0.0108
G2 X10.5125 Y61.51 Z-0.3 I0.0062 J-0.0108
G2 X10.4938 Y61.4992 Z-0.3333 I-0.0125 J0.0
G2 Y61.5208 Z-0.3667 I0.0063 J0.0108
G2 X10.5125 Y61.51 Z-0.4 I0.0062 J-0.0108
G2 X10.4938 Y61.4992 Z-0.4333 I-0.0125 J0.0
G2 Y61.5208 Z-0.4667 I0.0063 J0.0108
G2 X10.5125 Y61.51 Z-0.5 I0.0062 J-0.0108
G2 X10.4938 Y61.4992 Z-0.5333 I-0.0125 J0.0
G2 Y61.5208 Z-0.5667 I0.0063 J0.0108
G2 X10.5125 Y61.51 Z-0.6 I0.0062 J-0.0108
G2 X10.4938 Y61.4992 Z-0.6333 I-0.0125 J0.0
G2 Y61.5208 Z-0.6667 I0.0063 J0.0108
G2 X10.5125 Y61.51 Z-0.7 I0.0062 J-0.0108
G2 X10.4938 Y61.4992 Z-0.7333 I-0.0125 J0.0
G2 Y61.5208 Z-0.7667 I0.0063 J0.0108
G2 X10.5125 Y61.51 Z-0.8 I0.0062 J-0.0108
G2 X10.4938 Y61.4992 Z-0.8333 I-0.0125 J0.0
G2 Y61.5208 Z-0.8667 I0.0063 J0.0108
G2 X10.5125 Y61.51 Z-0.9 I0.0062 J-0.0108
G2 X10.4938 Y61.4992 Z-0.9333 I-0.0125 J0.0
G2 Y61.5208 Z-0.9667 I0.0063 J0.0108
G2 X10.5125 Y61.51 Z-1.0 I0.0062 J-0.0108
G2 X10.4938 Y61.4992 Z-1.0333 I-0.0125 J0.0
G2 Y61.5208 Z-1.0667 I0.0063 J0.0108
G2 X10.5125 Y61.51 Z-1.1 I0.0062 J-0.0108
G2 X10.4938 Y61.4992 Z-1.1333 I-0.0125 J0.0
G2 Y61.5208 Z-1.1667 I0.0063 J0.0108
G2 X10.5125 Y61.51 Z-1.2 I0.0062 J-0.0108
G2 X10.4938 Y61.4992 Z-1.2333 I-0.0125 J0.0
G2 Y61.5208 Z-1.2667 I0.0063 J0.0108
G2 X10.5125 Y61.51 Z-1.3 I0.0062 J-0.0108
G2 X10.4938 Y61.4992 Z-1.3333 I-0.0125 J0.0
G2 Y61.5208 Z-1.3667 I0.0063 J0.0108
G2 X10.5125 Y61.51 Z-1.4 I0.0062 J-0.0108
G2 X10.4938 Y61.4992 Z-1.4333 I-0.0125 J0.0
G2 Y61.5208 Z-1.4667 I0.0063 J0.0108
G2 X10.5125 Y61.51 Z-1.5 I0.0062 J-0.0108
G2 X10.4938 Y61.4992 Z-1.5333 I-0.0125 J0.0
G2 Y61.5208 Z-1.5667 I0.0063 J0.0108
G2 X10.5125 Y61.51 Z-1.6 I0.0062 J-0.0108
G2 X10.4938 Y61.4992 Z-1.6333 I-0.0125 J0.0
G2 Y61.5208 Z-1.6667 I0.0063 J0.0108
G2 X10.5125 Y61.51 Z-1.7 I0.0062 J-0.0108
G2 X10.4938 Y61.4992 Z-1.7333 I-0.0125 J0.0
G2 Y61.5208 Z-1.7667 I0.0063 J0.0108
G2 X10.5125 Y61.51 Z-1.8 I0.0062 J-0.0108
G2 X10.4938 Y61.4992 Z-1.8333 I-0.0125 J0.0
G2 Y61.5208 Z-1.8667 I0.0063 J0.0108
G2 X10.5125 Y61.51 Z-1.9 I0.0062 J-0.0108
G2 X10.4938 Y61.4992 Z-1.9333 I-0.0125 J0.0
G2 Y61.5208 Z-1.9667 I0.0063 J0.0108
G2 X10.5125 Y61.51 Z-2.0 I0.0062 J-0.0108
G2 X10.4938 Y61.4992 Z-2.0333 I-0.0125 J0.0
G2 Y61.5208 Z-2.0667 I0.0063 J0.0108
G2 X10.5125 Y61.51 Z-2.1 I0.0062 J-0.0108
G2 X10.4938 Y61.4992 Z-2.1333 I-0.0125 J0.0
G2 Y61.5208 Z-2.1667 I0.0063 J0.0108
G2 X10.5125 Y61.51 Z-2.2 I0.0062 J-0.0108
G2 X10.4938 Y61.4992 Z-2.2333 I-0.0125 J0.0
G2 Y61.5208 Z-2.2667 I0.0063 J0.0108
G2 X10.5125 Y61.51 Z-2.3 I0.0062 J-0.0108
G2 X10.4938 Y61.4992 Z-2.3333 I-0.0125 J0.0
G2 Y61.5208 Z-2.3667 I0.0063 J0.0108
G2 X10.5125 Y61.51 Z-2.4 I0.0062 J-0.0108
G2 X10.4938 Y61.4992 Z-2.4333 I-0.0125 J0.0
G2 Y61.5208 Z-2.4667 I0.0063 J0.0108
G2 X10.5125 Y61.51 Z-2.5 I0.0062 J-0.0108
G2 X10.4938 Y61.4992 Z-2.5333 I-0.0125 J0.0
G2 Y61.5208 Z-2.5667 I0.0063 J0.0108
G2 X10.5125 Y61.51 Z-2.6 I0.0062 J-0.0108
G2 X10.4938 Y61.4992 Z-2.6333 I-0.0125 J0.0
G2 Y61.5208 Z-2.6667 I0.0063 J0.0108
G2 X10.5125 Y61.51 Z-2.7 I0.0062 J-0.0108
G2 X10.4938 Y61.4992 Z-2.7333 I-0.0125 J0.0
G2 Y61.5208 Z-2.7667 I0.0063 J0.0108
G2 X10.5125 Y61.51 Z-2.8 I0.0062 J-0.0108
G2 X10.4938 Y61.4992 Z-2.8333 I-0.0125 J0.0
G2 Y61.5208 Z-2.8667 I0.0063 J0.0108
G2 X10.5125 Y61.51 Z-2.9 I0.0062 J-0.0108
G2 X10.4938 Y61.4992 Z-2.9333 I-0.0125 J0.0
G2 Y61.5208 Z-2.9667 I0.0063 J0.0108
G2 X10.5125 Y61.51 Z-3.0 I0.0062 J-0.0108
G2 X10.4938 Y61.4992 Z-3.0333 I-0.0125 J0.0
G2 Y61.5208 Z-3.0667 I0.0063 J0.0108
G2 X10.5125 Y61.51 Z-3.1 I0.0062 J-0.0108
G2 X10.4938 Y61.4992 Z-3.1333 I-0.0125 J0.0
G2 Y61.5208 Z-3.1667 I0.0063 J0.0108
G2 X10.5125 Y61.51 Z-3.2 I0.0062 J-0.0108
G2 X10.4938 Y61.4992 I-0.0125 J0.0
G2 Y61.5208 I0.0063 J0.0108
G2 X10.5125 Y61.51 I0.0062 J-0.0108
G0 Z3.0
G0 X30.4792 Y61.5367
G0 Z0.01
G1 F1000.0 Z0.0
G2 F2000.0 X30.4604 Y61.5258 Z-0.0333 I-0.0125 J0.0
G2 Y61.5475 Z-0.0667 I0.0063 J0.0108
G2 X30.4792 Y61.5367 Z-0.1 I0.0062 J-0.0108
G2 X30.4604 Y61.5258 Z-0.1333 I-0.0125 J0.0
G2 Y61.5475 Z-0.1667 I0.0063 J0.0108
G2 X30.4792 Y61.5367 Z-0.2 I0.0062 J-0.0108
G2 X30.4604 Y61.5258 Z-0.2333 I-0.0125 J0.0
G2 Y61.5475 Z-0.2667 I0.0063 J0.0108
G2 X30.4792 Y61.5367 Z-0.3 I0.0062 J-0.0108
G2 X30.4604 Y61.5258 Z-0.3333 I-0.0125 J0.0
G2 Y61.5475 Z-0.3667 I0.0063 J0.0108
G2 X30.4792 Y61.5367 Z-0.4 I0.0062 J-0.0108
G2 X30.4604 Y61.5258 Z-0.4333 I-0.0125 J0.0
G2 Y61.5475 Z-0.4667 I0.0063 J0.0108
G2 X30.4792 Y61.5367 Z-0.5 I0.0062 J-0.0108
G2 X30.4604 Y61.5258 Z-0.5333 I-0.0125 J0.0
G2 Y61.5475 Z-0.5667 I0.0063 J0.0108
G2 X30.4792 Y61.5367 Z-0.6 I0.0062 J-0.0108
G2 X30.4604 Y61.5258 Z-0.6333 I-0.0125 J0.0
G2 Y61.5475 Z-0.6667 I0.0063 J0.0108
G2 X30.4792 Y61.5367 Z-0.7 I0.0062 J-0.0108
G2 X30.4604 Y61.5258 Z-0.7333 I-0.0125 J0.0
G2 Y61.5475 Z-0.7667 I0.0063 J0.0108
G2 X30.4792 Y61.5367 Z-0.8 I0.0062 J-0.0108
G2 X30.4604 Y61.5258 Z-0.8333 I-0.0125 J0.0
G2 Y61.5475 Z-0.8667 I0.0063 J0.0108
G2 X30.4792 Y61.5367 Z-0.9 I0.0062 J-0.0108
G2 X30.4604 Y61.5258 Z-0.9333 I-0.0125 J0.0
G2 Y61.5475 Z-0.9667 I0.0063 J0.0108
G2 X30.4792 Y61.5367 Z-1.0 I0.0062 J-0.0108
G2 X30.4604 Y61.5258 Z-1.0333 I-0.0125 J0.0
G2 Y61.5475 Z-1.0667 I0.0063 J0.0108
G2 X30.4792 Y61.5367 Z-1.1 I0.0062 J-0.0108
G2 X30.4604 Y61.5258 Z-1.1333 I-0.0125 J0.0
G2 Y61.5475 Z-1.1667 I0.0063 J0.0108
G2 X30.4792 Y61.5367 Z-1.2 I0.0062 J-0.0108
G2 X30.4604 Y61.5258 Z-1.2333 I-0.0125 J0.0
G2 Y61.5475 Z-1.2667 I0.0063 J0.0108
G2 X30.4792 Y61.5367 Z-1.3 I0.0062 J-0.0108
G2 X30.4604 Y61.5258 Z-1.3333 I-0.0125 J0.0
G2 Y61.5475 Z-1.3667 I0.0063 J0.0108
G2 X30.4792 Y61.5367 Z-1.4 I0.0062 J-0.0108
G2 X30.4604 Y61.5258 Z-1.4333 I-0.0125 J0.0
G2 Y61.5475 Z-1.4667 I0.0063 J0.0108
G2 X30.4792 Y61.5367 Z-1.5 I0.0062 J-0.0108
G2 X30.4604 Y61.5258 Z-1.5333 I-0.0125 J0.0
G2 Y61.5475 Z-1.5667 I0.0063 J0.0108
G2 X30.4792 Y61.5367 Z-1.6 I0.0062 J-0.0108
G2 X30.4604 Y61.5258 Z-1.6333 I-0.0125 J0.0
G2 Y61.5475 Z-1.6667 I0.0063 J0.0108
G2 X30.4792 Y61.5367 Z-1.7 I0.0062 J-0.0108
G2 X30.4604 Y61.5258 Z-1.7333 I-0.0125 J0.0
G2 Y61.5475 Z-1.7667 I0.0063 J0.0108
G2 X30.4792 Y61.5367 Z-1.8 I0.0062 J-0.0108
G2 X30.4604 Y61.5258 Z-1.8333 I-0.0125 J0.0
G2 Y61.5475 Z-1.8667 I0.0063 J0.0108
G2 X30.4792 Y61.5367 Z-1.9 I0.0062 J-0.0108
G2 X30.4604 Y61.5258 Z-1.9333 I-0.0125 J0.0
G2 Y61.5475 Z-1.9667 I0.0063 J0.0108
G2 X30.4792 Y61.5367 Z-2.0 I0.0062 J-0.0108
G2 X30.4604 Y61.5258 Z-2.0333 I-0.0125 J0.0
G2 Y61.5475 Z-2.0667 I0.0063 J0.0108
G2 X30.4792 Y61.5367 Z-2.1 I0.0062 J-0.0108
G2 X30.4604 Y61.5258 Z-2.1333 I-0.0125 J0.0
G2 Y61.5475 Z-2.1667 I0.0063 J0.0108
G2 X30.4792 Y61.5367 Z-2.2 I0.0062 J-0.0108
G2 X30.4604 Y61.5258 Z-2.2333 I-0.0125 J0.0
G2 Y61.5475 Z-2.2667 I0.0063 J0.0108
G2 X30.4792 Y61.5367 Z-2.3 I0.0062 J-0.0108
G2 X30.4604 Y61.5258 Z-2.3333 I-0.0125 J0.0
G2 Y61.5475 Z-2.3667 I0.0063 J0.0108
G2 X30.4792 Y61.5367 Z-2.4 I0.0062 J-0.0108
G2 X30.4604 Y61.5258 Z-2.4333 I-0.0125 J0.0
G2 Y61.5475 Z-2.4667 I0.0063 J0.0108
G2 X30.4792 Y61.5367 Z-2.5 I0.0062 J-0.0108
G2 X30.4604 Y61.5258 Z-2.5333 I-0.0125 J0.0
G2 Y61.5475 Z-2.5667 I0.0063 J0.0108
G2 X30.4792 Y61.5367 Z-2.6 I0.0062 J-0.0108
G2 X30.4604 Y61.5258 Z-2.6333 I-0.0125 J0.0
G2 Y61.5475 Z-2.6667 I0.0063 J0.0108
G2 X30.4792 Y61.5367 Z-2.7 I0.0062 J-0.0108
G2 X30.4604 Y61.5258 Z-2.7333 I-0.0125 J0.0
G2 Y61.5475 Z-2.7667 I0.0063 J0.0108
G2 X30.4792 Y61.5367 Z-2.8 I0.0062 J-0.0108
G2 X30.4604 Y61.5258 Z-2.8333 I-0.0125 J0.0
G2 Y61.5475 Z-2.8667 I0.0063 J0.0108
G2 X30.4792 Y61.5367 Z-2.9 I0.0062 J-0.0108
G2 X30.4604 Y61.5258 Z-2.9333 I-0.0125 J0.0
G2 Y61.5475 Z-2.9667 I0.0063 J0.0108
G2 X30.4792 Y61.5367 Z-3.0 I0.0062 J-0.0108
G2 X30.4604 Y61.5258 Z-3.0333 I-0.0125 J0.0
G2 Y61.5475 Z-3.0667 I0.0063 J0.0108
G2 X30.4792 Y61.5367 Z-3.1 I0.0062 J-0.0108
G2 X30.4604 Y61.5258 Z-3.1333 I-0.0125 J0.0
G2 Y61.5475 Z-3.1667 I0.0063 J0.0108
G2 X30.4792 Y61.5367 Z-3.2 I0.0062 J-0.0108
G2 X30.4604 Y61.5258 I-0.0125 J0.0
G2 Y61.5475 I0.0063 J0.0108
G2 X30.4792 Y61.5367 I0.0062 J-0.0108
G0 Z0.0
G1 F1000.0 X30.5125 Y61.51
G2 F2000.0 X30.4938 Y61.4992 Z-0.0333 I-0.0125 J0.0
G2 Y61.5208 Z-0.0667 I0.0063 J0.0108
G2 X30.5125 Y61.51 Z-0.1 I0.0062 J-0.0108
G2 X30.4938 Y61.4992 Z-0.1333 I-0.0125 J0.0
G2 Y61.5208 Z-0.1667 I0.0063 J0.0108
G2 X30.5125 Y61.51 Z-0.2 I0.0062 J-0.0108
G2 X30.4938 Y61.4992 Z-0.2333 I-0.0125 J0.0
G2 Y61.5208 Z-0.2667 I0.0063 J0.0108
G2 X30.5125 Y61.51 Z-0.3 I0.0062 J-0.0108
G2 X30.4938 Y61.4992 Z-0.3333 I-0.0125 J0.0
G2 Y61.5208 Z-0.3667 I0.0063 J0.0108
G2 X30.5125 Y61.51 Z-0.4 I0.0062 J-0.0108
G2 X30.4938 Y61.4992 Z-0.4333 I-0.0125 J0.0
G2 Y61.5208 Z-0.4667 I0.0063 J0.0108
G2 X30.5125 Y61.51 Z-0.5 I0.0062 J-0.0108
G2 X30.4938 Y61.4992 Z-0.5333 I-0.0125 J0.0
G2 Y61.5208 Z-0.5667 I0.0063 J0.0108
G2 X30.5125 Y61.51 Z-0.6 I0.0062 J-0.0108
G2 X30.4938 Y61.4992 Z-0.6333 I-0.0125 J0.0
G2 Y61.5208 Z-0.6667 I0.0063 J0.0108
G2 X30.5125 Y61.51 Z-0.7 I0.0062 J-0.0108
G2 X30.4938 Y61.4992 Z-0.7333 I-0.0125 J0.0
G2 Y61.5208 Z-0.7667 I0.0063 J0.0108
G2 X30.5125 Y61.51 Z-0.8 I0.0062 J-0.0108
G2 X30.4938 Y61.4992 Z-0.8333 I-0.0125 J0.0
G2 Y61.5208 Z-0.8667 I0.0063 J0.0108
G2 X30.5125 Y61.51 Z-0.9 I0.0062 J-0.0108
G2 X30.4938 Y61.4992 Z-0.9333 I-0.0125 J0.0
G2 Y61.5208 Z-0.9667 I0.0063 J0.0108
G2 X30.5125 Y61.51 Z-1.0 I0.0062 J-0.0108
G2 X30.4938 Y61.4992 Z-1.0333 I-0.0125 J0.0
G2 Y61.5208 Z-1.0667 I0.0063 J0.0108
G2 X30.5125 Y61.51 Z-1.1 I0.0062 J-0.0108
G2 X30.4938 Y61.4992 Z-1.1333 I-0.0125 J0.0
G2 Y61.5208 Z-1.1667 I0.0063 J0.0108
G2 X30.5125 Y61.51 Z-1.2 I0.0062 J-0.0108
G2 X30.4938 Y61.4992 Z-1.2333 I-0.0125 J0.0
G2 Y61.5208 Z-1.2667 I0.0063 J0.0108
G2 X30.5125 Y61.51 Z-1.3 I0.0062 J-0.0108
G2 X30.4938 Y61.4992 Z-1.3333 I-0.0125 J0.0
G2 Y61.5208 Z-1.3667 I0.0063 J0.0108
G2 X30.5125 Y61.51 Z-1.4 I0.0062 J-0.0108
G2 X30.4938 Y61.4992 Z-1.4333 I-0.0125 J0.0
G2 Y61.5208 Z-1.4667 I0.0063 J0.0108
G2 X30.5125 Y61.51 Z-1.5 I0.0062 J-0.0108
G2 X30.4938 Y61.4992 Z-1.5333 I-0.0125 J0.0
G2 Y61.5208 Z-1.5667 I0.0063 J0.0108
G2 X30.5125 Y61.51 Z-1.6 I0.0062 J-0.0108
G2 X30.4938 Y61.4992 Z-1.6333 I-0.0125 J0.0
G2 Y61.5208 Z-1.6667 I0.0063 J0.0108
G2 X30.5125 Y61.51 Z-1.7 I0.0062 J-0.0108
G2 X30.4938 Y61.4992 Z-1.7333 I-0.0125 J0.0
G2 Y61.5208 Z-1.7667 I0.0063 J0.0108
G2 X30.5125 Y61.51 Z-1.8 I0.0062 J-0.0108
G2 X30.4938 Y61.4992 Z-1.8333 I-0.0125 J0.0
G2 Y61.5208 Z-1.8667 I0.0063 J0.0108
G2 X30.5125 Y61.51 Z-1.9 I0.0062 J-0.0108
G2 X30.4938 Y61.4992 Z-1.9333 I-0.0125 J0.0
G2 Y61.5208 Z-1.9667 I0.0063 J0.0108
G2 X30.5125 Y61.51 Z-2.0 I0.0062 J-0.0108
G2 X30.4938 Y61.4992 Z-2.0333 I-0.0125 J0.0
G2 Y61.5208 Z-2.0667 I0.0063 J0.0108
G2 X30.5125 Y61.51 Z-2.1 I0.0062 J-0.0108
G2 X30.4938 Y61.4992 Z-2.1333 I-0.0125 J0.0
G2 Y61.5208 Z-2.1667 I0.0063 J0.0108
G2 X30.5125 Y61.51 Z-2.2 I0.0062 J-0.0108
G2 X30.4938 Y61.4992 Z-2.2333 I-0.0125 J0.0
G2 Y61.5208 Z-2.2667 I0.0063 J0.0108
G2 X30.5125 Y61.51 Z-2.3 I0.0062 J-0.0108
G2 X30.4938 Y61.4992 Z-2.3333 I-0.0125 J0.0
G2 Y61.5208 Z-2.3667 I0.0063 J0.0108
G2 X30.5125 Y61.51 Z-2.4 I0.0062 J-0.0108
G2 X30.4938 Y61.4992 Z-2.4333 I-0.0125 J0.0
G2 Y61.5208 Z-2.4667 I0.0063 J0.0108
G2 X30.5125 Y61.51 Z-2.5 I0.0062 J-0.0108
G2 X30.4938 Y61.4992 Z-2.5333 I-0.0125 J0.0
G2 Y61.5208 Z-2.5667 I0.0063 J0.0108
G2 X30.5125 Y61.51 Z-2.6 I0.0062 J-0.0108
G2 X30.4938 Y61.4992 Z-2.6333 I-0.0125 J0.0
G2 Y61.5208 Z-2.6667 I0.0063 J0.0108
G2 X30.5125 Y61.51 Z-2.7 I0.0062 J-0.0108
G2 X30.4938 Y61.4992 Z-2.7333 I-0.0125 J0.0
G2 Y61.5208 Z-2.7667 I0.0063 J0.0108
G2 X30.5125 Y61.51 Z-2.8 I0.0062 J-0.0108
G2 X30.4938 Y61.4992 Z-2.8333 I-0.0125 J0.0
G2 Y61.5208 Z-2.8667 I0.0063 J0.0108
G2 X30.5125 Y61.51 Z-2.9 I0.0062 J-0.0108
G2 X30.4938 Y61.4992 Z-2.9333 I-0.0125 J0.0
G2 Y61.5208 Z-2.9667 I0.0063 J0.0108
G2 X30.5125 Y61.51 Z-3.0 I0.0062 J-0.0108
G2 X30.4938 Y61.4992 Z-3.0333 I-0.0125 J0.0
G2 Y61.5208 Z-3.0667 I0.0063 J0.0108
G2 X30.5125 Y61.51 Z-3.1 I0.0062 J-0.0108
G2 X30.4938 Y61.4992 Z-3.1333 I-0.0125 J0.0
G2 Y61.5208 Z-3.1667 I0.0063 J0.0108
G2 X30.5125 Y61.51 Z-3.2 I0.0062 J-0.0108
G2 X30.4938 Y61.4992 I-0.0125 J0.0
G2 Y61.5208 I0.0063 J0.0108
G2 X30.5125 Y61.51 I0.0062 J-0.0108
G0 Z3.0
G0 Y38.68
G0 Z0.01
G1 F1000.0 Z0.0
G2 F2000.0 X30.4938 Y38.6692 Z-0.0333 I-0.0125 J0.0
G2 Y38.6908 Z-0.0667 I0.0063 J0.0108
G2 X30.5125 Y38.68 Z-0.1 I0.0062 J-0.0108
G2 X30.4938 Y38.6692 Z-0.1333 I-0.0125 J0.0
G2 Y38.6908 Z-0.1667 I0.0063 J0.0108
G2 X30.5125 Y38.68 Z-0.2 I0.0062 J-0.0108
G2 X30.4938 Y38.6692 Z-0.2333 I-0.0125 J0.0
G2 Y38.6908 Z-0.2667 I0.0063 J0.0108
G2 X30.5125 Y38.68 Z-0.3 I0.0062 J-0.0108
G2 X30.4938 Y38.6692 Z-0.3333 I-0.0125 J0.0
G2 Y38.6908 Z-0.3667 I0.0063 J0.0108
G2 X30.5125 Y38.68 Z-0.4 I0.0062 J-0.0108
G2 X30.4938 Y38.6692 Z-0.4333 I-0.0125 J0.0
G2 Y38.6908 Z-0.4667 I0.0063 J0.0108
G2 X30.5125 Y38.68 Z-0.5 I0.0062 J-0.0108
G2 X30.4938 Y38.6692 Z-0.5333 I-0.0125 J0.0
G2 Y38.6908 Z-0.5667 I0.0063 J0.0108
G2 X30.5125 Y38.68 Z-0.6 I0.0062 J-0.0108
G2 X30.4938 Y38.6692 Z-0.6333 I-0.0125 J0.0
G2 Y38.6908 Z-0.6667 I0.0063 J0.0108
G2 X30.5125 Y38.68 Z-0.7 I0.0062 J-0.0108
G2 X30.4938 Y38.6692 Z-0.7333 I-0.0125 J0.0
G2 Y38.6908 Z-0.7667 I0.0063 J0.0108
G2 X30.5125 Y38.68 Z-0.8 I0.0062 J-0.0108
G2 X30.4938 Y38.6692 Z-0.8333 I-0.0125 J0.0
G2 Y38.6908 Z-0.8667 I0.0063 J0.0108
G2 X30.5125 Y38.68 Z-0.9 I0.0062 J-0.0108
G2 X30.4938 Y38.6692 Z-0.9333 I-0.0125 J0.0
G2 Y38.6908 Z-0.9667 I0.0063 J0.0108
G2 X30.5125 Y38.68 Z-1.0 I0.0062 J-0.0108
G2 X30.4938 Y38.6692 Z-1.0333 I-0.0125 J0.0
G2 Y38.6908 Z-1.0667 I0.0063 J0.0108
G2 X30.5125 Y38.68 Z-1.1 I0.0062 J-0.0108
G2 X30.4938 Y38.6692 Z-1.1333 I-0.0125 J0.0
G2 Y38.6908 Z-1.1667 I0.0063 J0.0108
G2 X30.5125 Y38.68 Z-1.2 I0.0062 J-0.0108
G2 X30.4938 Y38.6692 Z-1.2333 I-0.0125 J0.0
G2 Y38.6908 Z-1.2667 I0.0063 J0.0108
G2 X30.5125 Y38.68 Z-1.3 I0.0062 J-0.0108
G2 X30.4938 Y38.6692 Z-1.3333 I-0.0125 J0.0
G2 Y38.6908 Z-1.3667 I0.0063 J0.0108
G2 X30.5125 Y38.68 Z-1.4 I0.0062 J-0.0108
G2 X30.4938 Y38.6692 Z-1.4333 I-0.0125 J0.0
G2 Y38.6908 Z-1.4667 I0.0063 J0.0108
G2 X30.5125 Y38.68 Z-1.5 I0.0062 J-0.0108
G2 X30.4938 Y38.6692 Z-1.5333 I-0.0125 J0.0
G2 Y38.6908 Z-1.5667 I0.0063 J0.0108
G2 X30.5125 Y38.68 Z-1.6 I0.0062 J-0.0108
G2 X30.4938 Y38.6692 Z-1.6333 I-0.0125 J0.0
G2 Y38.6908 Z-1.6667 I0.0063 J0.0108
G2 X30.5125 Y38.68 Z-1.7 I0.0062 J-0.0108
G2 X30.4938 Y38.6692 Z-1.7333 I-0.0125 J0.0
G2 Y38.6908 Z-1.7667 I0.0063 J0.0108
G2 X30.5125 Y38.68 Z-1.8 I0.0062 J-0.0108
G2 X30.4938 Y38.6692 Z-1.8333 I-0.0125 J0.0
G2 Y38.6908 Z-1.8667 I0.0063 J0.0108
G2 X30.5125 Y38.68 Z-1.9 I0.0062 J-0.0108
G2 X30.4938 Y38.6692 Z-1.9333 I-0.0125 J0.0
G2 Y38.6908 Z-1.9667 I0.0063 J0.0108
G2 X30.5125 Y38.68 Z-2.0 I0.0062 J-0.0108
G2 X30.4938 Y38.6692 Z-2.0333 I-0.0125 J0.0
G2 Y38.6908 Z-2.0667 I0.0063 J0.0108
G2 X30.5125 Y38.68 Z-2.1 I0.0062 J-0.0108
G2 X30.4938 Y38.6692 Z-2.1333 I-0.0125 J0.0
G2 Y38.6908 Z-2.1667 I0.0063 J0.0108
G2 X30.5125 Y38.68 Z-2.2 I0.0062 J-0.0108
G2 X30.4938 Y38.6692 Z-2.2333 I-0.0125 J0.0
G2 Y38.6908 Z-2.2667 I0.0063 J0.0108
G2 X30.5125 Y38.68 Z-2.3 I0.0062 J-0.0108
G2 X30.4938 Y38.6692 Z-2.3333 I-0.0125 J0.0
G2 Y38.6908 Z-2.3667 I0.0063 J0.0108
G2 X30.5125 Y38.68 Z-2.4 I0.0062 J-0.0108
G2 X30.4938 Y38.6692 Z-2.4333 I-0.0125 J0.0
G2 Y38.6908 Z-2.4667 I0.0063 J0.0108
G2 X30.5125 Y38.68 Z-2.5 I0.0062 J-0.0108
G2 X30.4938 Y38.6692 Z-2.5333 I-0.0125 J0.0
G2 Y38.6908 Z-2.5667 I0.0063 J0.0108
G2 X30.5125 Y38.68 Z-2.6 I0.0062 J-0.0108
G2 X30.4938 Y38.6692 Z-2.6333 I-0.0125 J0.0
G2 Y38.6908 Z-2.6667 I0.0063 J0.0108
G2 X30.5125 Y38.68 Z-2.7 I0.0062 J-0.0108
G2 X30.4938 Y38.6692 Z-2.7333 I-0.0125 J0.0
G2 Y38.6908 Z-2.7667 I0.0063 J0.0108
G2 X30.5125 Y38.68 Z-2.8 I0.0062 J-0.0108
G2 X30.4938 Y38.6692 Z-2.8333 I-0.0125 J0.0
G2 Y38.6908 Z-2.8667 I0.0063 J0.0108
G2 X30.5125 Y38.68 Z-2.9 I0.0062 J-0.0108
G2 X30.4938 Y38.6692 Z-2.9333 I-0.0125 J0.0
G2 Y38.6908 Z-2.9667 I0.0063 J0.0108
G2 X30.5125 Y38.68 Z-3.0 I0.0062 J-0.0108
G2 X30.4938 Y38.6692 Z-3.0333 I-0.0125 J0.0
G2 Y38.6908 Z-3.0667 I0.0063 J0.0108
G2 X30.5125 Y38.68 Z-3.1 I0.0062 J-0.0108
G2 X30.4938 Y38.6692 Z-3.1333 I-0.0125 J0.0
G2 Y38.6908 Z-3.1667 I0.0063 J0.0108
G2 X30.5125 Y38.68 Z-3.2 I0.0062 J-0.0108
G2 X30.4938 Y38.6692 I-0.0125 J0.0
G2 Y38.6908 I0.0063 J0.0108
G2 X30.5125 Y38.68 I0.0062 J-0.0108
G0 Z0.0
G1 F1000.0 Y38.65
G2 F2000.0 X30.4938 Y38.6392 Z-0.0333 I-0.0125 J0.0
G2 Y38.6608 Z-0.0667 I0.0063 J0.0108
G2 X30.5125 Y38.65 Z-0.1 I0.0062 J-0.0108
G2 X30.4938 Y38.6392 Z-0.1333 I-0.0125 J0.0
G2 Y38.6608 Z-0.1667 I0.0063 J0.0108
G2 X30.5125 Y38.65 Z-0.2 I0.0062 J-0.0108
G2 X30.4938 Y38.6392 Z-0.2333 I-0.0125 J0.0
G2 Y38.6608 Z-0.2667 I0.0063 J0.0108
G2 X30.5125 Y38.65 Z-0.3 I0.0062 J-0.0108
G2 X30.4938 Y38.6392 Z-0.3333 I-0.0125 J0.0
G2 Y38.6608 Z-0.3667 I0.0063 J0.0108
G2 X30.5125 Y38.65 Z-0.4 I0.0062 J-0.0108
G2 X30.4938 Y38.6392 Z-0.4333 I-0.0125 J0.0
G2 Y38.6608 Z-0.4667 I0.0063 J0.0108
G2 X30.5125 Y38.65 Z-0.5 I0.0062 J-0.0108
G2 X30.4938 Y38.6392 Z-0.5333 I-0.0125 J0.0
G2 Y38.6608 Z-0.5667 I0.0063 J0.0108
G2 X30.5125 Y38.65 Z-0.6 I0.0062 J-0.0108
G2 X30.4938 Y38.6392 Z-0.6333 I-0.0125 J0.0
G2 Y38.6608 Z-0.6667 I0.0063 J0.0108
G2 X30.5125 Y38.65 Z-0.7 I0.0062 J-0.0108
G2 X30.4938 Y38.6392 Z-0.7333 I-0.0125 J0.0
G2 Y38.6608 Z-0.7667 I0.0063 J0.0108
G2 X30.5125 Y38.65 Z-0.8 I0.0062 J-0.0108
G2 X30.4938 Y38.6392 Z-0.8333 I-0.0125 J0.0
G2 Y38.6608 Z-0.8667 I0.0063 J0.0108
G2 X30.5125 Y38.65 Z-0.9 I0.0062 J-0.0108
G2 X30.4938 Y38.6392 Z-0.9333 I-0.0125 J0.0
G2 Y38.6608 Z-0.9667 I0.0063 J0.0108
G2 X30.5125 Y38.65 Z-1.0 I0.0062 J-0.0108
G2 X30.4938 Y38.6392 Z-1.0333 I-0.0125 J0.0
G2 Y38.6608 Z-1.0667 I0.0063 J0.0108
G2 X30.5125 Y38.65 Z-1.1 I0.0062 J-0.0108
G2 X30.4938 Y38.6392 Z-1.1333 I-0.0125 J0.0
G2 Y38.6608 Z-1.1667 I0.0063 J0.0108
G2 X30.5125 Y38.65 Z-1.2 I0.0062 J-0.0108
G2 X30.4938 Y38.6392 Z-1.2333 I-0.0125 J0.0
G2 Y38.6608 Z-1.2667 I0.0063 J0.0108
G2 X30.5125 Y38.65 Z-1.3 I0.0062 J-0.0108
G2 X30.4938 Y38.6392 Z-1.3333 I-0.0125 J0.0
G2 Y38.6608 Z-1.3667 I0.0063 J0.0108
G2 X30.5125 Y38.65 Z-1.4 I0.0062 J-0.0108
G2 X30.4938 Y38.6392 Z-1.4333 I-0.0125 J0.0
G2 Y38.6608 Z-1.4667 I0.0063 J0.0108
G2 X30.5125 Y38.65 Z-1.5 I0.0062 J-0.0108
G2 X30.4938 Y38.6392 Z-1.5333 I-0.0125 J0.0
G2 Y38.6608 Z-1.5667 I0.0063 J0.0108
G2 X30.5125 Y38.65 Z-1.6 I0.0062 J-0.0108
G2 X30.4938 Y38.6392 Z-1.6333 I-0.0125 J0.0
G2 Y38.6608 Z-1.6667 I0.0063 J0.0108
G2 X30.5125 Y38.65 Z-1.7 I0.0062 J-0.0108
G2 X30.4938 Y38.6392 Z-1.7333 I-0.0125 J0.0
G2 Y38.6608 Z-1.7667 I0.0063 J0.0108
G2 X30.5125 Y38.65 Z-1.8 I0.0062 J-0.0108
G2 X30.4938 Y38.6392 Z-1.8333 I-0.0125 J0.0
G2 Y38.6608 Z-1.8667 I0.0063 J0.0108
G2 X30.5125 Y38.65 Z-1.9 I0.0062 J-0.0108
G2 X30.4938 Y38.6392 Z-1.9333 I-0.0125 J0.0
G2 Y38.6608 Z-1.9667 I0.0063 J0.0108
G2 X30.5125 Y38.65 Z-2.0 I0.0062 J-0.0108
G2 X30.4938 Y38.6392 Z-2.0333 I-0.0125 J0.0
G2 Y38.6608 Z-2.0667 I0.0063 J0.0108
G2 X30.5125 Y38.65 Z-2.1 I0.0062 J-0.0108
G2 X30.4938 Y38.6392 Z-2.1333 I-0.0125 J0.0
G2 Y38.6608 Z-2.1667 I0.0063 J0.0108
G2 X30.5125 Y38.65 Z-2.2 I0.0062 J-0.0108
G2 X30.4938 Y38.6392 Z-2.2333 I-0.0125 J0.0
G2 Y38.6608 Z-2.2667 I0.0063 J0.0108
G2 X30.5125 Y38.65 Z-2.3 I0.0062 J-0.0108
G2 X30.4938 Y38.6392 Z-2.3333 I-0.0125 J0.0
G2 Y38.6608 Z-2.3667 I0.0063 J0.0108
G2 X30.5125 Y38.65 Z-2.4 I0.0062 J-0.0108
G2 X30.4938 Y38.6392 Z-2.4333 I-0.0125 J0.0
G2 Y38.6608 Z-2.4667 I0.0063 J0.0108
G2 X30.5125 Y38.65 Z-2.5 I0.0062 J-0.0108
G2 X30.4938 Y38.6392 Z-2.5333 I-0.0125 J0.0
G2 Y38.6608 Z-2.5667 I0.0063 J0.0108
G2 X30.5125 Y38.65 Z-2.6 I0.0062 J-0.0108
G2 X30.4938 Y38.6392 Z-2.6333 I-0.0125 J0.0
G2 Y38.6608 Z-2.6667 I0.0063 J0.0108
G2 X30.5125 Y38.65 Z-2.7 I0.0062 J-0.0108
G2 X30.4938 Y38.6392 Z-2.7333 I-0.0125 J0.0
G2 Y38.6608 Z-2.7667 I0.0063 J0.0108
G2 X30.5125 Y38.65 Z-2.8 I0.0062 J-0.0108
G2 X30.4938 Y38.6392 Z-2.8333 I-0.0125 J0.0
G2 Y38.6608 Z-2.8667 I0.0063 J0.0108
G2 X30.5125 Y38.65 Z-2.9 I0.0062 J-0.0108
G2 X30.4938 Y38.6392 Z-2.9333 I-0.0125 J0.0
G2 Y38.6608 Z-2.9667 I0.0063 J0.0108
G2 X30.5125 Y38.65 Z-3.0 I0.0062 J-0.0108
G2 X30.4938 Y38.6392 Z-3.0333 I-0.0125 J0.0
G2 Y38.6608 Z-3.0667 I0.0063 J0.0108
G2 X30.5125 Y38.65 Z-3.1 I0.0062 J-0.0108
G2 X30.4938 Y38.6392 Z-3.1333 I-0.0125 J0.0
G2 Y38.6608 Z-3.1667 I0.0063 J0.0108
G2 X30.5125 Y38.65 Z-3.2 I0.0062 J-0.0108
G2 X30.4938 Y38.6392 I-0.0125 J0.0
G2 Y38.6608 I0.0063 J0.0108
G2 X30.5125 Y38.65 I0.0062 J-0.0108
G0 Z3.0
G0 X30.4125 Y20.0
G0 Z0.01
G1 F1000.0 Z0.0
G2 F2000.0 X30.3938 Y19.9892 Z-0.0333 I-0.0125 J0.0
G2 Y20.0108 Z-0.0667 I0.0062 J0.0108
G2 X30.4125 Y20.0 Z-0.1 I0.0063 J-0.0108
G2 X30.3938 Y19.9892 Z-0.1333 I-0.0125 J0.0
G2 Y20.0108 Z-0.1667 I0.0062 J0.0108
G2 X30.4125 Y20.0 Z-0.2 I0.0063 J-0.0108
G2 X30.3938 Y19.9892 Z-0.2333 I-0.0125 J0.0
G2 Y20.0108 Z-0.2667 I0.0062 J0.0108
G2 X30.4125 Y20.0 Z-0.3 I0.0063 J-0.0108
G2 X30.3938 Y19.9892 Z-0.3333 I-0.0125 J0.0
G2 Y20.0108 Z-0.3667 I0.0062 J0.0108
G2 X30.4125 Y20.0 Z-0.4 I0.0063 J-0.0108
G2 X30.3938 Y19.9892 Z-0.4333 I-0.0125 J0.0
G2 Y20.0108 Z-0.4667 I0.0062 J0.0108
G2 X30.4125 Y20.0 Z-0.5 I0.0063 J-0.0108
G2 X30.3938 Y19.9892 Z-0.5333 I-0.0125 J0.0
G2 Y20.0108 Z-0.5667 I0.0062 J0.0108
G2 X30.4125 Y20.0 Z-0.6 I0.0063 J-0.0108
G2 X30.3938 Y19.9892 Z-0.6333 I-0.0125 J0.0
G2 Y20.0108 Z-0.6667 I0.0062 J0.0108
G2 X30.4125 Y20.0 Z-0.7 I0.0063 J-0.0108
G2 X30.3938 Y19.9892 Z-0.7333 I-0.0125 J0.0
G2 Y20.0108 Z-0.7667 I0.0062 J0.0108
G2 X30.4125 Y20.0 Z-0.8 I0.0063 J-0.0108
G2 X30.3938 Y19.9892 Z-0.8333 I-0.0125 J0.0
G2 Y20.0108 Z-0.8667 I0.0062 J0.0108
G2 X30.4125 Y20.0 Z-0.9 I0.0063 J-0.0108
G2 X30.3938 Y19.9892 Z-0.9333 I-0.0125 J0.0
G2 Y20.0108 Z-0.9667 I0.0062 J0.0108
G2 X30.4125 Y20.0 Z-1.0 I0.0063 J-0.0108
G2 X30.3938 Y19.9892 Z-1.0333 I-0.0125 J0.0
G2 Y20.0108 Z-1.0667 I0.0062 J0.0108
G2 X30.4125 Y20.0 Z-1.1 I0.0063 J-0.0108
G2 X30.3938 Y19.9892 Z-1.1333 I-0.0125 J0.0
G2 Y20.0108 Z-1.1667 I0.0062 J0.0108
G2 X30.4125 Y20.0 Z-1.2 I0.0063 J-0.0108
G2 X30.3938 Y19.9892 Z-1.2333 I-0.0125 J0.0
G2 Y20.0108 Z-1.2667 I0.0062 J0.0108
G2 X30.4125 Y20.0 Z-1.3 I0.0063 J-0.0108
G2 X30.3938 Y19.9892 Z-1.3333 I-0.0125 J0.0
G2 Y20.0108 Z-1.3667 I0.0062 J0.0108
G2 X30.4125 Y20.0 Z-1.4 I0.0063 J-0.0108
G2 X30.3938 Y19.9892 Z-1.4333 I-0.0125 J0.0
G2 Y20.0108 Z-1.4667 I0.0062 J0.0108
G2 X30.4125 Y20.0 Z-1.5 I0.0063 J-0.0108
G2 X30.3938 Y19.9892 Z-1.5333 I-0.0125 J0.0
G2 Y20.0108 Z-1.5667 I0.0062 J0.0108
G2 X30.4125 Y20.0 Z-1.6 I0.0063 J-0.0108
G2 X30.3938 Y19.9892 Z-1.6333 I-0.0125 J0.0
G2 Y20.0108 Z-1.6667 I0.0062 J0.0108
G2 X30.4125 Y20.0 Z-1.7 I0.0063 J-0.0108
G2 X30.3938 Y19.9892 Z-1.7333 I-0.0125 J0.0
G2 Y20.0108 Z-1.7667 I0.0062 J0.0108
G2 X30.4125 Y20.0 Z-1.8 I0.0063 J-0.0108
G2 X30.3938 Y19.9892 Z-1.8333 I-0.0125 J0.0
G2 Y20.0108 Z-1.8667 I0.0062 J0.0108
G2 X30.4125 Y20.0 Z-1.9 I0.0063 J-0.0108
G2 X30.3938 Y19.9892 Z-1.9333 I-0.0125 J0.0
G2 Y20.0108 Z-1.9667 I0.0062 J0.0108
G2 X30.4125 Y20.0 Z-2.0 I0.0063 J-0.0108
G2 X30.3938 Y19.9892 Z-2.0333 I-0.0125 J0.0
G2 Y20.0108 Z-2.0667 I0.0062 J0.0108
G2 X30.4125 Y20.0 Z-2.1 I0.0063 J-0.0108
G2 X30.3938 Y19.9892 Z-2.1333 I-0.0125 J0.0
G2 Y20.0108 Z-2.1667 I0.0062 J0.0108
G2 X30.4125 Y20.0 Z-2.2 I0.0063 J-0.0108
G2 X30.3938 Y19.9892 Z-2.2333 I-0.0125 J0.0
G2 Y20.0108 Z-2.2667 I0.0062 J0.0108
G2 X30.4125 Y20.0 Z-2.3 I0.0063 J-0.0108
G2 X30.3938 Y19.9892 Z-2.3333 I-0.0125 J0.0
G2 Y20.0108 Z-2.3667 I0.0062 J0.0108
G2 X30.4125 Y20.0 Z-2.4 I0.0063 J-0.0108
G2 X30.3938 Y19.9892 Z-2.4333 I-0.0125 J0.0
G2 Y20.0108 Z-2.4667 I0.0063 J0.0108
G2 X30.4125 Y20.0 Z-2.5 I0.0062 J-0.0108
G2 X30.3938 Y19.9892 Z-2.5333 I-0.0125 J0.0
G2 Y20.0108 Z-2.5667 I0.0063 J0.0108
G2 X30.4125 Y20.0 Z-2.6 I0.0062 J-0.0108
G2 X30.3938 Y19.9892 Z-2.6333 I-0.0125 J0.0
G2 Y20.0108 Z-2.6667 I0.0063 J0.0108
G2 X30.4125 Y20.0 Z-2.7 I0.0062 J-0.0108
G2 X30.3938 Y19.9892 Z-2.7333 I-0.0125 J0.0
G2 Y20.0108 Z-2.7667 I0.0063 J0.0108
G2 X30.4125 Y20.0 Z-2.8 I0.0062 J-0.0108
G2 X30.3938 Y19.9892 Z-2.8333 I-0.0125 J0.0
G2 Y20.0108 Z-2.8667 I0.0063 J0.0108
G2 X30.4125 Y20.0 Z-2.9 I0.0062 J-0.0108
G2 X30.3938 Y19.9892 Z-2.9333 I-0.0125 J0.0
G2 Y20.0108 Z-2.9667 I0.0063 J0.0108
G2 X30.4125 Y20.0 Z-3.0 I0.0062 J-0.0108
G2 X30.3938 Y19.9892 Z-3.0333 I-0.0125 J0.0
G2 Y20.0108 Z-3.0667 I0.0063 J0.0108
G2 X30.4125 Y20.0 Z-3.1 I0.0062 J-0.0108
G2 X30.3938 Y19.9892 Z-3.1333 I-0.0125 J0.0
G2 Y20.0108 Z-3.1667 I0.0063 J0.0108
G2 X30.4125 Y20.0 Z-3.2 I0.0062 J-0.0108
G2 X30.3938 Y19.9892 I-0.0125 J0.0
G2 Y20.0108 I0.0063 J0.0108
G2 X30.4125 Y20.0 I0.0062 J-0.0108
G0 Z3.0
G0 X10.1625
G0 Z0.01
G1 F1000.0 Z0.0
G2 F2000.0 X10.1438 Y19.9892 Z-0.0333 I-0.0125 J0.0
G2 Y20.0108 Z-0.0667 I0.0062 J0.0108
G2 X10.1625 Y20.0 Z-0.1 I0.0062 J-0.0108
G2 X10.1438 Y19.9892 Z-0.1333 I-0.0125 J0.0
G2 Y20.0108 Z-0.1667 I0.0062 J0.0108
G2 X10.1625 Y20.0 Z-0.2 I0.0062 J-0.0108
G2 X10.1438 Y19.9892 Z-0.2333 I-0.0125 J0.0
G2 Y20.0108 Z-0.2667 I0.0062 J0.0108
G2 X10.1625 Y20.0 Z-0.3 I0.0062 J-0.0108
G2 X10.1438 Y19.9892 Z-0.3333 I-0.0125 J0.0
G2 Y20.0108 Z-0.3667 I0.0062 J0.0108
G2 X10.1625 Y20.0 Z-0.4 I0.0062 J-0.0108
G2 X10.1438 Y19.9892 Z-0.4333 I-0.0125 J0.0
G2 Y20.0108 Z-0.4667 I0.0062 J0.0108
G2 X10.1625 Y20.0 Z-0.5 I0.0062 J-0.0108
G2 X10.1438 Y19.9892 Z-0.5333 I-0.0125 J0.0
G2 Y20.0108 Z-0.5667 I0.0062 J0.0108
G2 X10.1625 Y20.0 Z-0.6 I0.0062 J-0.0108
G2 X10.1438 Y19.9892 Z-0.6333 I-0.0125 J0.0
G2 Y20.0108 Z-0.6667 I0.0062 J0.0108
G2 X10.1625 Y20.0 Z-0.7 I0.0062 J-0.0108
G2 X10.1438 Y19.9892 Z-0.7333 I-0.0125 J0.0
G2 Y20.0108 Z-0.7667 I0.0062 J0.0108
G2 X10.1625 Y20.0 Z-0.8 I0.0062 J-0.0108
G2 X10.1438 Y19.9892 Z-0.8333 I-0.0125 J0.0
G2 Y20.0108 Z-0.8667 I0.0062 J0.0108
G2 X10.1625 Y20.0 Z-0.9 I0.0062 J-0.0108
G2 X10.1438 Y19.9892 Z-0.9333 I-0.0125 J0.0
G2 Y20.0108 Z-0.9667 I0.0062 J0.0108
G2 X10.1625 Y20.0 Z-1.0 I0.0062 J-0.0108
G2 X10.1438 Y19.9892 Z-1.0333 I-0.0125 J0.0
G2 Y20.0108 Z-1.0667 I0.0062 J0.0108
G2 X10.1625 Y20.0 Z-1.1 I0.0062 J-0.0108
G2 X10.1438 Y19.9892 Z-1.1333 I-0.0125 J0.0
G2 Y20.0108 Z-1.1667 I0.0062 J0.0108
G2 X10.1625 Y20.0 Z-1.2 I0.0063 J-0.0108
G2 X10.1438 Y19.9892 Z-1.2333 I-0.0125 J0.0
G2 Y20.0108 Z-1.2667 I0.0062 J0.0108
G2 X10.1625 Y20.0 Z-1.3 I0.0063 J-0.0108
G2 X10.1438 Y19.9892 Z-1.3333 I-0.0125 J0.0
G2 Y20.0108 Z-1.3667 I0.0062 J0.0108
G2 X10.1625 Y20.0 Z-1.4 I0.0063 J-0.0108
G2 X10.1438 Y19.9892 Z-1.4333 I-0.0125 J0.0
G2 Y20.0108 Z-1.4667 I0.0062 J0.0108
G2 X10.1625 Y20.0 Z-1.5 I0.0063 J-0.0108
G2 X10.1438 Y19.9892 Z-1.5333 I-0.0125 J0.0
G2 Y20.0108 Z-1.5667 I0.0062 J0.0108
G2 X10.1625 Y20.0 Z-1.6 I0.0063 J-0.0108
G2 X10.1438 Y19.9892 Z-1.6333 I-0.0125 J0.0
G2 Y20.0108 Z-1.6667 I0.0062 J0.0108
G2 X10.1625 Y20.0 Z-1.7 I0.0063 J-0.0108
G2 X10.1438 Y19.9892 Z-1.7333 I-0.0125 J0.0
G2 Y20.0108 Z-1.7667 I0.0062 J0.0108
G2 X10.1625 Y20.0 Z-1.8 I0.0063 J-0.0108
G2 X10.1438 Y19.9892 Z-1.8333 I-0.0125 J0.0
G2 Y20.0108 Z-1.8667 I0.0062 J0.0108
G2 X10.1625 Y20.0 Z-1.9 I0.0063 J-0.0108
G2 X10.1438 Y19.9892 Z-1.9333 I-0.0125 J0.0
G2 Y20.0108 Z-1.9667 I0.0062 J0.0108
G2 X10.1625 Y20.0 Z-2.0 I0.0063 J-0.0108
G2 X10.1438 Y19.9892 Z-2.0333 I-0.0125 J0.0
G2 Y20.0108 Z-2.0667 I0.0062 J0.0108
G2 X10.1625 Y20.0 Z-2.1 I0.0063 J-0.0108
G2 X10.1438 Y19.9892 Z-2.1333 I-0.0125 J0.0
G2 Y20.0108 Z-2.1667 I0.0062 J0.0108
G2 X10.1625 Y20.0 Z-2.2 I0.0063 J-0.0108
G2 X10.1438 Y19.9892 Z-2.2333 I-0.0125 J0.0
G2 Y20.0108 Z-2.2667 I0.0062 J0.0108
G2 X10.1625 Y20.0 Z-2.3 I0.0062 J-0.0108
G2 X10.1438 Y19.9892 Z-2.3333 I-0.0125 J0.0
G2 Y20.0108 Z-2.3667 I0.0062 J0.0108
G2 X10.1625 Y20.0 Z-2.4 I0.0062 J-0.0108
G2 X10.1438 Y19.9892 Z-2.4333 I-0.0125 J0.0
G2 Y20.0108 Z-2.4667 I0.0062 J0.0108
G2 X10.1625 Y20.0 Z-2.5 I0.0062 J-0.0108
G2 X10.1438 Y19.9892 Z-2.5333 I-0.0125 J0.0
G2 Y20.0108 Z-2.5667 I0.0062 J0.0108
G2 X10.1625 Y20.0 Z-2.6 I0.0062 J-0.0108
G2 X10.1438 Y19.9892 Z-2.6333 I-0.0125 J0.0
G2 Y20.0108 Z-2.6667 I0.0063 J0.0108
G2 X10.1625 Y20.0 Z-2.7 I0.0062 J-0.0108
G2 X10.1438 Y19.9892 Z-2.7333 I-0.0125 J0.0
G2 Y20.0108 Z-2.7667 I0.0063 J0.0108
G2 X10.1625 Y20.0 Z-2.8 I0.0062 J-0.0108
G2 X10.1438 Y19.9892 Z-2.8333 I-0.0125 J0.0
G2 Y20.0108 Z-2.8667 I0.0063 J0.0108
G2 X10.1625 Y20.0 Z-2.9 I0.0062 J-0.0108
G2 X10.1438 Y19.9892 Z-2.9333 I-0.0125 J0.0
G2 Y20.0108 Z-2.9667 I0.0063 J0.0108
G2 X10.1625 Y20.0 Z-3.0 I0.0062 J-0.0108
G2 X10.1438 Y19.9892 Z-3.0333 I-0.0125 J0.0
G2 Y20.0108 Z-3.0667 I0.0063 J0.0108
G2 X10.1625 Y20.0 Z-3.1 I0.0062 J-0.0108
G2 X10.1438 Y19.9892 Z-3.1333 I-0.0125 J0.0
G2 Y20.0108 Z-3.1667 I0.0063 J0.0108
G2 X10.1625 Y20.0 Z-3.2 I0.0062 J-0.0108
G2 X10.1438 Y19.9892 I-0.0125 J0.0
G2 Y20.0108 I0.0063 J0.0108
G2 X10.1625 Y20.0 I0.0062 J-0.0108
G0 Z3.0
G0 X7.5125 Y3.0
G0 Z0.01
G1 F1000.0 Z0.0
G2 F2000.0 X7.4938 Y2.9892 Z-0.0333 I-0.0125 J0.0
G2 Y3.0108 Z-0.0667 I0.0062 J0.0108
G2 X7.5125 Y3.0 Z-0.1 I0.0063 J-0.0108
G2 X7.4938 Y2.9892 Z-0.1333 I-0.0125 J0.0
G2 Y3.0108 Z-0.1667 I0.0062 J0.0108
G2 X7.5125 Y3.0 Z-0.2 I0.0063 J-0.0108
G2 X7.4938 Y2.9892 Z-0.2333 I-0.0125 J0.0
G2 Y3.0108 Z-0.2667 I0.0062 J0.0108
G2 X7.5125 Y3.0 Z-0.3 I0.0063 J-0.0108
G2 X7.4938 Y2.9892 Z-0.3333 I-0.0125 J0.0
G2 Y3.0108 Z-0.3667 I0.0063 J0.0108
G2 X7.5125 Y3.0 Z-0.4 I0.0062 J-0.0108
G2 X7.4938 Y2.9892 Z-0.4333 I-0.0125 J0.0
G2 Y3.0108 Z-0.4667 I0.0063 J0.0108
G2 X7.5125 Y3.0 Z-0.5 I0.0062 J-0.0108
G2 X7.4938 Y2.9892 Z-0.5333 I-0.0125 J0.0
G2 Y3.0108 Z-0.5667 I0.0063 J0.0108
G2 X7.5125 Y3.0 Z-0.6 I0.0062 J-0.0108
G2 X7.4938 Y2.9892 Z-0.6333 I-0.0125 J0.0
G2 Y3.0108 Z-0.6667 I0.0062 J0.0108
G2 X7.5125 Y3.0 Z-0.7 I0.0063 J-0.0108
G2 X7.4938 Y2.9892 Z-0.7333 I-0.0125 J0.0
G2 Y3.0108 Z-0.7667 I0.0062 J0.0108
G2 X7.5125 Y3.0 Z-0.8 I0.0063 J-0.0108
G2 X7.4938 Y2.9892 Z-0.8333 I-0.0125 J0.0
G2 Y3.0108 Z-0.8667 I0.0062 J0.0108
G2 X7.5125 Y3.0 Z-0.9 I0.0063 J-0.0108
G2 X7.4938 Y2.9892 Z-0.9333 I-0.0125 J0.0
G2 Y3.0108 Z-0.9667 I0.0062 J0.0108
G2 X7.5125 Y3.0 Z-1.0 I0.0063 J-0.0108
G2 X7.4938 Y2.9892 Z-1.0333 I-0.0125 J0.0
G2 Y3.0108 Z-1.0667 I0.0062 J0.0108
G2 X7.5125 Y3.0 Z-1.1 I0.0063 J-0.0108
G2 X7.4938 Y2.9892 Z-1.1333 I-0.0125 J0.0
G2 Y3.0108 Z-1.1667 I0.0062 J0.0108
G2 X7.5125 Y3.0 Z-1.2 I0.0063 J-0.0108
G2 X7.4938 Y2.9892 Z-1.2333 I-0.0125 J0.0
G2 Y3.0108 Z-1.2667 I0.0062 J0.0108
G2 X7.5125 Y3.0 Z-1.3 I0.0063 J-0.0108
G2 X7.4938 Y2.9892 Z-1.3333 I-0.0125 J0.0
G2 Y3.0108 Z-1.3667 I0.0062 J0.0108
G2 X7.5125 Y3.0 Z-1.4 I0.0063 J-0.0108
G2 X7.4938 Y2.9892 Z-1.4333 I-0.0125 J0.0
G2 Y3.0108 Z-1.4667 I0.0062 J0.0108
G2 X7.5125 Y3.0 Z-1.5 I0.0063 J-0.0108
G2 X7.4938 Y2.9892 Z-1.5333 I-0.0125 J0.0
G2 Y3.0108 Z-1.5667 I0.0062 J0.0108
G2 X7.5125 Y3.0 Z-1.6 I0.0063 J-0.0108
G2 X7.4938 Y2.9892 Z-1.6333 I-0.0125 J0.0
G2 Y3.0108 Z-1.6667 I0.0062 J0.0108
G2 X7.5125 Y3.0 Z-1.7 I0.0063 J-0.0108
G2 X7.4938 Y2.9892 Z-1.7333 I-0.0125 J0.0
G2 Y3.0108 Z-1.7667 I0.0062 J0.0108
G2 X7.5125 Y3.0 Z-1.8 I0.0063 J-0.0108
G2 X7.4938 Y2.9892 Z-1.8333 I-0.0125 J0.0
G2 Y3.0108 Z-1.8667 I0.0062 J0.0108
G2 X7.5125 Y3.0 Z-1.9 I0.0063 J-0.0108
G2 X7.4938 Y2.9892 Z-1.9333 I-0.0125 J0.0
G2 Y3.0108 Z-1.9667 I0.0062 J0.0108
G2 X7.5125 Y3.0 Z-2.0 I0.0063 J-0.0108
G2 X7.4938 Y2.9892 Z-2.0333 I-0.0125 J0.0
G2 Y3.0108 Z-2.0667 I0.0062 J0.0108
G2 X7.5125 Y3.0 Z-2.1 I0.0063 J-0.0108
G2 X7.4938 Y2.9892 Z-2.1333 I-0.0125 J0.0
G2 Y3.0108 Z-2.1667 I0.0062 J0.0108
G2 X7.5125 Y3.0 Z-2.2 I0.0063 J-0.0108
G2 X7.4938 Y2.9892 Z-2.2333 I-0.0125 J0.0
G2 Y3.0108 Z-2.2667 I0.0062 J0.0108
G2 X7.5125 Y3.0 Z-2.3 I0.0063 J-0.0108
G2 X7.4938 Y2.9892 Z-2.3333 I-0.0125 J0.0
G2 Y3.0108 Z-2.3667 I0.0063 J0.0108
G2 X7.5125 Y3.0 Z-2.4 I0.0062 J-0.0108
G2 X7.4938 Y2.9892 Z-2.4333 I-0.0125 J0.0
G2 Y3.0108 Z-2.4667 I0.0063 J0.0108
G2 X7.5125 Y3.0 Z-2.5 I0.0062 J-0.0108
G2 X7.4938 Y2.9892 Z-2.5333 I-0.0125 J0.0
G2 Y3.0108 Z-2.5667 I0.0063 J0.0108
G2 X7.5125 Y3.0 Z-2.6 I0.0062 J-0.0108
G2 X7.4938 Y2.9892 Z-2.6333 I-0.0125 J0.0
G2 Y3.0108 Z-2.6667 I0.0063 J0.0108
G2 X7.5125 Y3.0 Z-2.7 I0.0062 J-0.0108
G2 X7.4938 Y2.9892 Z-2.7333 I-0.0125 J0.0
G2 Y3.0108 Z-2.7667 I0.0063 J0.0108
G2 X7.5125 Y3.0 Z-2.8 I0.0062 J-0.0108
G2 X7.4938 Y2.9892 Z-2.8333 I-0.0125 J0.0
G2 Y3.0108 Z-2.8667 I0.0063 J0.0108
G2 X7.5125 Y3.0 Z-2.9 I0.0062 J-0.0108
G2 X7.4938 Y2.9892 Z-2.9333 I-0.0125 J0.0
G2 Y3.0108 Z-2.9667 I0.0063 J0.0108
G2 X7.5125 Y3.0 Z-3.0 I0.0062 J-0.0108
G2 X7.4938 Y2.9892 Z-3.0333 I-0.0125 J0.0
G2 Y3.0108 Z-3.0667 I0.0063 J0.0108
G2 X7.5125 Y3.0 Z-3.1 I0.0062 J-0.0108
G2 X7.4938 Y2.9892 Z-3.1333 I-0.0125 J0.0
G2 Y3.0108 Z-3.1667 I0.0063 J0.0108
G2 X7.5125 Y3.0 Z-3.2 I0.0062 J-0.0108
G2 X7.4938 Y2.9892 I-0.0125 J0.0
G2 Y3.0108 I0.0063 J0.0108
G2 X7.5125 Y3.0 I0.0062 J-0.0108
G0 Z3.0
G0 X10.5125 Y38.68
G0 Z0.01
G1 F1000.0 Z0.0
G2 F2000.0 X10.4938 Y38.6692 Z-0.0333 I-0.0125 J0.0
G2 Y38.6908 Z-0.0667 I0.0063 J0.0108
G2 X10.5125 Y38.68 Z-0.1 I0.0062 J-0.0108
G2 X10.4938 Y38.6692 Z-0.1333 I-0.0125 J0.0
G2 Y38.6908 Z-0.1667 I0.0063 J0.0108
G2 X10.5125 Y38.68 Z-0.2 I0.0062 J-0.0108
G2 X10.4938 Y38.6692 Z-0.2333 I-0.0125 J0.0
G2 Y38.6908 Z-0.2667 I0.0063 J0.0108
G2 X10.5125 Y38.68 Z-0.3 I0.0062 J-0.0108
G2 X10.4938 Y38.6692 Z-0.3333 I-0.0125 J0.0
G2 Y38.6908 Z-0.3667 I0.0063 J0.0108
G2 X10.5125 Y38.68 Z-0.4 I0.0062 J-0.0108
G2 X10.4938 Y38.6692 Z-0.4333 I-0.0125 J0.0
G2 Y38.6908 Z-0.4667 I0.0063 J0.0108
G2 X10.5125 Y38.68 Z-0.5 I0.0062 J-0.0108
G2 X10.4938 Y38.6692 Z-0.5333 I-0.0125 J0.0
G2 Y38.6908 Z-0.5667 I0.0063 J0.0108
G2 X10.5125 Y38.68 Z-0.6 I0.0062 J-0.0108
G2 X10.4938 Y38.6692 Z-0.6333 I-0.0125 J0.0
G2 Y38.6908 Z-0.6667 I0.0063 J0.0108
G2 X10.5125 Y38.68 Z-0.7 I0.0062 J-0.0108
G2 X10.4938 Y38.6692 Z-0.7333 I-0.0125 J0.0
G2 Y38.6908 Z-0.7667 I0.0063 J0.0108
G2 X10.5125 Y38.68 Z-0.8 I0.0062 J-0.0108
G2 X10.4938 Y38.6692 Z-0.8333 I-0.0125 J0.0
G2 Y38.6908 Z-0.8667 I0.0063 J0.0108
G2 X10.5125 Y38.68 Z-0.9 I0.0062 J-0.0108
G2 X10.4938 Y38.6692 Z-0.9333 I-0.0125 J0.0
G2 Y38.6908 Z-0.9667 I0.0063 J0.0108
G2 X10.5125 Y38.68 Z-1.0 I0.0062 J-0.0108
G2 X10.4938 Y38.6692 Z-1.0333 I-0.0125 J0.0
G2 Y38.6908 Z-1.0667 I0.0063 J0.0108
G2 X10.5125 Y38.68 Z-1.1 I0.0062 J-0.0108
G2 X10.4938 Y38.6692 Z-1.1333 I-0.0125 J0.0
G2 Y38.6908 Z-1.1667 I0.0063 J0.0108
G2 X10.5125 Y38.68 Z-1.2 I0.0062 J-0.0108
G2 X10.4938 Y38.6692 Z-1.2333 I-0.0125 J0.0
G2 Y38.6908 Z-1.2667 I0.0063 J0.0108
G2 X10.5125 Y38.68 Z-1.3 I0.0062 J-0.0108
G2 X10.4938 Y38.6692 Z-1.3333 I-0.0125 J0.0
G2 Y38.6908 Z-1.3667 I0.0063 J0.0108
G2 X10.5125 Y38.68 Z-1.4 I0.0062 J-0.0108
G2 X10.4938 Y38.6692 Z-1.4333 I-0.0125 J0.0
G2 Y38.6908 Z-1.4667 I0.0063 J0.0108
G2 X10.5125 Y38.68 Z-1.5 I0.0062 J-0.0108
G2 X10.4938 Y38.6692 Z-1.5333 I-0.0125 J0.0
G2 Y38.6908 Z-1.5667 I0.0063 J0.0108
G2 X10.5125 Y38.68 Z-1.6 I0.0062 J-0.0108
G2 X10.4938 Y38.6692 Z-1.6333 I-0.0125 J0.0
G2 Y38.6908 Z-1.6667 I0.0063 J0.0108
G2 X10.5125 Y38.68 Z-1.7 I0.0062 J-0.0108
G2 X10.4938 Y38.6692 Z-1.7333 I-0.0125 J0.0
G2 Y38.6908 Z-1.7667 I0.0063 J0.0108
G2 X10.5125 Y38.68 Z-1.8 I0.0062 J-0.0108
G2 X10.4938 Y38.6692 Z-1.8333 I-0.0125 J0.0
G2 Y38.6908 Z-1.8667 I0.0063 J0.0108
G2 X10.5125 Y38.68 Z-1.9 I0.0062 J-0.0108
G2 X10.4938 Y38.6692 Z-1.9333 I-0.0125 J0.0
G2 Y38.6908 Z-1.9667 I0.0063 J0.0108
G2 X10.5125 Y38.68 Z-2.0 I0.0062 J-0.0108
G2 X10.4938 Y38.6692 Z-2.0333 I-0.0125 J0.0
G2 Y38.6908 Z-2.0667 I0.0063 J0.0108
G2 X10.5125 Y38.68 Z-2.1 I0.0062 J-0.0108
G2 X10.4938 Y38.6692 Z-2.1333 I-0.0125 J0.0
G2 Y38.6908 Z-2.1667 I0.0063 J0.0108
G2 X10.5125 Y38.68 Z-2.2 I0.0062 J-0.0108
G2 X10.4938 Y38.6692 Z-2.2333 I-0.0125 J0.0
G2 Y38.6908 Z-2.2667 I0.0063 J0.0108
G2 X10.5125 Y38.68 Z-2.3 I0.0062 J-0.0108
G2 X10.4938 Y38.6692 Z-2.3333 I-0.0125 J0.0
G2 Y38.6908 Z-2.3667 I0.0063 J0.0108
G2 X10.5125 Y38.68 Z-2.4 I0.0062 J-0.0108
G2 X10.4938 Y38.6692 Z-2.4333 I-0.0125 J0.0
G2 Y38.6908 Z-2.4667 I0.0063 J0.0108
G2 X10.5125 Y38.68 Z-2.5 I0.0062 J-0.0108
G2 X10.4938 Y38.6692 Z-2.5333 I-0.0125 J0.0
G2 Y38.6908 Z-2.5667 I0.0063 J0.0108
G2 X10.5125 Y38.68 Z-2.6 I0.0062 J-0.0108
G2 X10.4938 Y38.6692 Z-2.6333 I-0.0125 J0.0
G2 Y38.6908 Z-2.6667 I0.0063 J0.0108
G2 X10.5125 Y38.68 Z-2.7 I0.0062 J-0.0108
G2 X10.4938 Y38.6692 Z-2.7333 I-0.0125 J0.0
G2 Y38.6908 Z-2.7667 I0.0063 J0.0108
G2 X10.5125 Y38.68 Z-2.8 I0.0062 J-0.0108
G2 X10.4938 Y38.6692 Z-2.8333 I-0.0125 J0.0
G2 Y38.6908 Z-2.8667 I0.0063 J0.0108
G2 X10.5125 Y38.68 Z-2.9 I0.0062 J-0.0108
G2 X10.4938 Y38.6692 Z-2.9333 I-0.0125 J0.0
G2 Y38.6908 Z-2.9667 I0.0063 J0.0108
G2 X10.5125 Y38.68 Z-3.0 I0.0062 J-0.0108
G2 X10.4938 Y38.6692 Z-3.0333 I-0.0125 J0.0
G2 Y38.6908 Z-3.0667 I0.0063 J0.0108
G2 X10.5125 Y38.68 Z-3.1 I0.0062 J-0.0108
G2 X10.4938 Y38.6692 Z-3.1333 I-0.0125 J0.0
G2 Y38.6908 Z-3.1667 I0.0063 J0.0108
G2 X10.5125 Y38.68 Z-3.2 I0.0062 J-0.0108
G2 X10.4938 Y38.6692 I-0.0125 J0.0
G2 Y38.6908 I0.0063 J0.0108
G2 X10.5125 Y38.68 I0.0062 J-0.0108
G0 Z3.0
G0 X44.3225 Y3.0
G0 Z0.01
G1 F1000.0 Z0.0
G2 F2000.0 X44.3037 Y2.9892 Z-0.0333 I-0.0125 J0.0
G2 Y3.0108 Z-0.0667 I0.0063 J0.0108
G2 X44.3225 Y3.0 Z-0.1 I0.0063 J-0.0108
G2 X44.3037 Y2.9892 Z-0.1333 I-0.0125 J0.0
G2 Y3.0108 Z-0.1667 I0.0063 J0.0108
G2 X44.3225 Y3.0 Z-0.2 I0.0063 J-0.0108
G2 X44.3037 Y2.9892 Z-0.2333 I-0.0125 J0.0
G2 Y3.0108 Z-0.2667 I0.0063 J0.0108
G2 X44.3225 Y3.0 Z-0.3 I0.0063 J-0.0108
G2 X44.3037 Y2.9892 Z-0.3333 I-0.0125 J0.0
G2 Y3.0108 Z-0.3667 I0.0063 J0.0108
G2 X44.3225 Y3.0 Z-0.4 I0.0063 J-0.0108
G2 X44.3037 Y2.9892 Z-0.4333 I-0.0125 J0.0
G2 Y3.0108 Z-0.4667 I0.0063 J0.0108
G2 X44.3225 Y3.0 Z-0.5 I0.0063 J-0.0108
G2 X44.3037 Y2.9892 Z-0.5333 I-0.0125 J0.0
G2 Y3.0108 Z-0.5667 I0.0063 J0.0108
G2 X44.3225 Y3.0 Z-0.6 I0.0063 J-0.0108
G2 X44.3037 Y2.9892 Z-0.6333 I-0.0125 J0.0
G2 Y3.0108 Z-0.6667 I0.0063 J0.0108
G2 X44.3225 Y3.0 Z-0.7 I0.0063 J-0.0108
G2 X44.3037 Y2.9892 Z-0.7333 I-0.0125 J0.0
G2 Y3.0108 Z-0.7667 I0.0063 J0.0108
G2 X44.3225 Y3.0 Z-0.8 I0.0063 J-0.0108
G2 X44.3037 Y2.9892 Z-0.8333 I-0.0125 J0.0
G2 Y3.0108 Z-0.8667 I0.0063 J0.0108
G2 X44.3225 Y3.0 Z-0.9 I0.0063 J-0.0108
G2 X44.3037 Y2.9892 Z-0.9333 I-0.0125 J0.0
G2 Y3.0108 Z-0.9667 I0.0063 J0.0108
G2 X44.3225 Y3.0 Z-1.0 I0.0063 J-0.0108
G2 X44.3037 Y2.9892 Z-1.0333 I-0.0125 J0.0
G2 Y3.0108 Z-1.0667 I0.0063 J0.0108
G2 X44.3225 Y3.0 Z-1.1 I0.0063 J-0.0108
G2 X44.3037 Y2.9892 Z-1.1333 I-0.0125 J0.0
G2 Y3.0108 Z-1.1667 I0.0063 J0.0108
G2 X44.3225 Y3.0 Z-1.2 I0.0063 J-0.0108
G2 X44.3037 Y2.9892 Z-1.2333 I-0.0125 J0.0
G2 Y3.0108 Z-1.2667 I0.0063 J0.0108
G2 X44.3225 Y3.0 Z-1.3 I0.0063 J-0.0108
G2 X44.3037 Y2.9892 Z-1.3333 I-0.0125 J0.0
G2 Y3.0108 Z-1.3667 I0.0063 J0.0108
G2 X44.3225 Y3.0 Z-1.4 I0.0063 J-0.0108
G2 X44.3037 Y2.9892 Z-1.4333 I-0.0125 J0.0
G2 Y3.0108 Z-1.4667 I0.0063 J0.0108
G2 X44.3225 Y3.0 Z-1.5 I0.0063 J-0.0108
G2 X44.3037 Y2.9892 Z-1.5333 I-0.0125 J0.0
G2 Y3.0108 Z-1.5667 I0.0063 J0.0108
G2 X44.3225 Y3.0 Z-1.6 I0.0063 J-0.0108
G2 X44.3037 Y2.9892 Z-1.6333 I-0.0125 J0.0
G2 Y3.0108 Z-1.6667 I0.0063 J0.0108
G2 X44.3225 Y3.0 Z-1.7 I0.0063 J-0.0108
G2 X44.3037 Y2.9892 Z-1.7333 I-0.0125 J0.0
G2 Y3.0108 Z-1.7667 I0.0063 J0.0108
G2 X44.3225 Y3.0 Z-1.8 I0.0063 J-0.0108
G2 X44.3037 Y2.9892 Z-1.8333 I-0.0125 J0.0
G2 Y3.0108 Z-1.8667 I0.0063 J0.0108
G2 X44.3225 Y3.0 Z-1.9 I0.0063 J-0.0108
G2 X44.3037 Y2.9892 Z-1.9333 I-0.0125 J0.0
G2 Y3.0108 Z-1.9667 I0.0063 J0.0108
G2 X44.3225 Y3.0 Z-2.0 I0.0063 J-0.0108
G2 X44.3037 Y2.9892 Z-2.0333 I-0.0125 J0.0
G2 Y3.0108 Z-2.0667 I0.0063 J0.0108
G2 X44.3225 Y3.0 Z-2.1 I0.0063 J-0.0108
G2 X44.3037 Y2.9892 Z-2.1333 I-0.0125 J0.0
G2 Y3.0108 Z-2.1667 I0.0063 J0.0108
G2 X44.3225 Y3.0 Z-2.2 I0.0063 J-0.0108
G2 X44.3037 Y2.9892 Z-2.2333 I-0.0125 J0.0
G2 Y3.0108 Z-2.2667 I0.0063 J0.0108
G2 X44.3225 Y3.0 Z-2.3 I0.0063 J-0.0108
G2 X44.3037 Y2.9892 Z-2.3333 I-0.0125 J0.0
G2 Y3.0108 Z-2.3667 I0.0063 J0.0108
G2 X44.3225 Y3.0 Z-2.4 I0.0063 J-0.0108
G2 X44.3037 Y2.9892 Z-2.4333 I-0.0125 J0.0
G2 Y3.0108 Z-2.4667 I0.0063 J0.0108
G2 X44.3225 Y3.0 Z-2.5 I0.0063 J-0.0108
G2 X44.3037 Y2.9892 Z-2.5333 I-0.0125 J0.0
G2 Y3.0108 Z-2.5667 I0.0063 J0.0108
G2 X44.3225 Y3.0 Z-2.6 I0.0063 J-0.0108
G2 X44.3037 Y2.9892 Z-2.6333 I-0.0125 J0.0
G2 Y3.0108 Z-2.6667 I0.0063 J0.0108
G2 X44.3225 Y3.0 Z-2.7 I0.0063 J-0.0108
G2 X44.3037 Y2.9892 Z-2.7333 I-0.0125 J0.0
G2 Y3.0108 Z-2.7667 I0.0063 J0.0108
G2 X44.3225 Y3.0 Z-2.8 I0.0063 J-0.0108
G2 X44.3037 Y2.9892 Z-2.8333 I-0.0125 J0.0
G2 Y3.0108 Z-2.8667 I0.0063 J0.0108
G2 X44.3225 Y3.0 Z-2.9 I0.0063 J-0.0108
G2 X44.3037 Y2.9892 Z-2.9333 I-0.0125 J0.0
G2 Y3.0108 Z-2.9667 I0.0063 J0.0108
G2 X44.3225 Y3.0 Z-3.0 I0.0062 J-0.0108
G2 X44.3037 Y2.9892 Z-3.0333 I-0.0125 J0.0
G2 Y3.0108 Z-3.0667 I0.0063 J0.0108
G2 X44.3225 Y3.0 Z-3.1 I0.0062 J-0.0108
G2 X44.3037 Y2.9892 Z-3.1333 I-0.0125 J0.0
G2 Y3.0108 Z-3.1667 I0.0063 J0.0108
G2 X44.3225 Y3.0 Z-3.2 I0.0062 J-0.0108
G2 X44.3037 Y2.9892 I-0.0125 J0.0
G2 Y3.0108 I0.0063 J0.0108
G2 X44.3225 Y3.0 I0.0062 J-0.0108
G0 Z3.0
G0 Y125.5
G0 Z0.01
G1 F1000.0 Z0.0
G2 F2000.0 X44.3037 Y125.4892 Z-0.0333 I-0.0125 J0.0
G2 Y125.5108 Z-0.0667 I0.0062 J0.0108
G2 X44.3225 Y125.5 Z-0.1 I0.0063 J-0.0108
G2 X44.3037 Y125.4892 Z-0.1333 I-0.0125 J0.0
G2 Y125.5108 Z-0.1667 I0.0062 J0.0108
G2 X44.3225 Y125.5 Z-0.2 I0.0063 J-0.0108
G2 X44.3037 Y125.4892 Z-0.2333 I-0.0125 J0.0
G2 Y125.5108 Z-0.2667 I0.0062 J0.0108
G2 X44.3225 Y125.5 Z-0.3 I0.0063 J-0.0108
G2 X44.3037 Y125.4892 Z-0.3333 I-0.0125 J0.0
G2 Y125.5108 Z-0.3667 I0.0062 J0.0108
G2 X44.3225 Y125.5 Z-0.4 I0.0063 J-0.0108
G2 X44.3037 Y125.4892 Z-0.4333 I-0.0125 J0.0
G2 Y125.5108 Z-0.4667 I0.0062 J0.0108
G2 X44.3225 Y125.5 Z-0.5 I0.0063 J-0.0108
G2 X44.3037 Y125.4892 Z-0.5333 I-0.0125 J0.0
G2 Y125.5108 Z-0.5667 I0.0062 J0.0108
G2 X44.3225 Y125.5 Z-0.6 I0.0063 J-0.0108
G2 X44.3037 Y125.4892 Z-0.6333 I-0.0125 J0.0
G2 Y125.5108 Z-0.6667 I0.0062 J0.0108
G2 X44.3225 Y125.5 Z-0.7 I0.0063 J-0.0108
G2 X44.3037 Y125.4892 Z-0.7333 I-0.0125 J0.0
G2 Y125.5108 Z-0.7667 I0.0062 J0.0108
G2 X44.3225 Y125.5 Z-0.8 I0.0063 J-0.0108
G2 X44.3037 Y125.4892 Z-0.8333 I-0.0125 J0.0
G2 Y125.5108 Z-0.8667 I0.0062 J0.0108
G2 X44.3225 Y125.5 Z-0.9 I0.0063 J-0.0108
G2 X44.3037 Y125.4892 Z-0.9333 I-0.0125 J0.0
G2 Y125.5108 Z-0.9667 I0.0062 J0.0108
G2 X44.3225 Y125.5 Z-1.0 I0.0063 J-0.0108
G2 X44.3037 Y125.4892 Z-1.0333 I-0.0125 J0.0
G2 Y125.5108 Z-1.0667 I0.0062 J0.0108
G2 X44.3225 Y125.5 Z-1.1 I0.0063 J-0.0108
G2 X44.3037 Y125.4892 Z-1.1333 I-0.0125 J0.0
G2 Y125.5108 Z-1.1667 I0.0062 J0.0108
G2 X44.3225 Y125.5 Z-1.2 I0.0063 J-0.0108
G2 X44.3037 Y125.4892 Z-1.2333 I-0.0125 J0.0
G2 Y125.5108 Z-1.2667 I0.0062 J0.0108
G2 X44.3225 Y125.5 Z-1.3 I0.0063 J-0.0108
G2 X44.3037 Y125.4892 Z-1.3333 I-0.0125 J0.0
G2 Y125.5108 Z-1.3667 I0.0062 J0.0108
G2 X44.3225 Y125.5 Z-1.4 I0.0063 J-0.0108
G2 X44.3037 Y125.4892 Z-1.4333 I-0.0125 J0.0
G2 Y125.5108 Z-1.4667 I0.0062 J0.0108
G2 X44.3225 Y125.5 Z-1.5 I0.0063 J-0.0108
G2 X44.3037 Y125.4892 Z-1.5333 I-0.0125 J0.0
G2 Y125.5108 Z-1.5667 I0.0062 J0.0108
G2 X44.3225 Y125.5 Z-1.6 I0.0063 J-0.0108
G2 X44.3037 Y125.4892 Z-1.6333 I-0.0125 J0.0
G2 Y125.5108 Z-1.6667 I0.0062 J0.0108
G2 X44.3225 Y125.5 Z-1.7 I0.0063 J-0.0108
G2 X44.3037 Y125.4892 Z-1.7333 I-0.0125 J0.0
G2 Y125.5108 Z-1.7667 I0.0062 J0.0108
G2 X44.3225 Y125.5 Z-1.8 I0.0063 J-0.0108
G2 X44.3037 Y125.4892 Z-1.8333 I-0.0125 J0.0
G2 Y125.5108 Z-1.8667 I0.0062 J0.0108
G2 X44.3225 Y125.5 Z-1.9 I0.0063 J-0.0108
G2 X44.3037 Y125.4892 Z-1.9333 I-0.0125 J0.0
G2 Y125.5108 Z-1.9667 I0.0062 J0.0108
G2 X44.3225 Y125.5 Z-2.0 I0.0063 J-0.0108
G2 X44.3037 Y125.4892 Z-2.0333 I-0.0125 J0.0
G2 Y125.5108 Z-2.0667 I0.0062 J0.0108
G2 X44.3225 Y125.5 Z-2.1 I0.0063 J-0.0108
G2 X44.3037 Y125.4892 Z-2.1333 I-0.0125 J0.0
G2 Y125.5108 Z-2.1667 I0.0062 J0.0108
G2 X44.3225 Y125.5 Z-2.2 I0.0063 J-0.0108
G2 X44.3037 Y125.4892 Z-2.2333 I-0.0125 J0.0
G2 Y125.5108 Z-2.2667 I0.0062 J0.0108
G2 X44.3225 Y125.5 Z-2.3 I0.0063 J-0.0108
G2 X44.3037 Y125.4892 Z-2.3333 I-0.0125 J0.0
G2 Y125.5108 Z-2.3667 I0.0062 J0.0108
G2 X44.3225 Y125.5 Z-2.4 I0.0063 J-0.0108
G2 X44.3037 Y125.4892 Z-2.4333 I-0.0125 J0.0
G2 Y125.5108 Z-2.4667 I0.0062 J0.0108
G2 X44.3225 Y125.5 Z-2.5 I0.0063 J-0.0108
G2 X44.3037 Y125.4892 Z-2.5333 I-0.0125 J0.0
G2 Y125.5108 Z-2.5667 I0.0062 J0.0108
G2 X44.3225 Y125.5 Z-2.6 I0.0063 J-0.0108
G2 X44.3037 Y125.4892 Z-2.6333 I-0.0125 J0.0
G2 Y125.5108 Z-2.6667 I0.0062 J0.0108
G2 X44.3225 Y125.5 Z-2.7 I0.0063 J-0.0108
G2 X44.3037 Y125.4892 Z-2.7333 I-0.0125 J0.0
G2 Y125.5108 Z-2.7667 I0.0062 J0.0108
G2 X44.3225 Y125.5 Z-2.8 I0.0063 J-0.0108
G2 X44.3037 Y125.4892 Z-2.8333 I-0.0125 J0.0
G2 Y125.5108 Z-2.8667 I0.0062 J0.0108
G2 X44.3225 Y125.5 Z-2.9 I0.0063 J-0.0108
G2 X44.3037 Y125.4892 Z-2.9333 I-0.0125 J0.0
G2 Y125.5108 Z-2.9667 I0.0063 J0.0108
G2 X44.3225 Y125.5 Z-3.0 I0.0063 J-0.0108
G2 X44.3037 Y125.4892 Z-3.0333 I-0.0125 J0.0
G2 Y125.5108 Z-3.0667 I0.0063 J0.0108
G2 X44.3225 Y125.5 Z-3.1 I0.0063 J-0.0108
G2 X44.3037 Y125.4892 Z-3.1333 I-0.0125 J0.0
G2 Y125.5108 Z-3.1667 I0.0063 J0.0108
G2 X44.3225 Y125.5 Z-3.2 I0.0063 J-0.0108
G2 X44.3037 Y125.4892 I-0.0125 J0.0
G2 Y125.5108 I0.0063 J0.0108
G2 X44.3225 Y125.5 I0.0062 J-0.0108
( Profile1 )
S1000
G0 Z3.0
G0 X53.3975 Y0.0
G0 Z0.01
G1 F1000.0 Z-0.1
G1 F2000.0 Y128.5
G3 X51.81 Y130.0875 I-1.5875 J0.0
G1 X0.0
G3 X-1.5875 Y128.5 I0.0 J-1.5875
G1 Y0.0
G3 X0.0 Y-1.5875 I1.5875 J0.0
G1 X51.81
G3 X53.3975 Y0.0 I0.0 J1.5875
G1 F1000.0 Z-0.2
G1 F2000.0 Y128.5
G3 X51.81 Y130.0875 I-1.5875 J0.0
G1 X0.0
G3 X-1.5875 Y128.5 I0.0 J-1.5875
G1 Y0.0
G3 X0.0 Y-1.5875 I1.5875 J0.0
G1 X51.81
G3 X53.3975 Y0.0 I0.0 J1.5875
G1 F1000.0 Z-0.3
G1 F2000.0 Y128.5
G3 X51.81 Y130.0875 I-1.5875 J0.0
G1 X0.0
G3 X-1.5875 Y128.5 I0.0 J-1.5875
G1 Y0.0
G3 X0.0 Y-1.5875 I1.5875 J0.0
G1 X51.81
G3 X53.3975 Y0.0 I0.0 J1.5875
G1 F1000.0 Z-0.4
G1 F2000.0 Y128.5
G3 X51.81 Y130.0875 I-1.5875 J0.0
G1 X0.0
G3 X-1.5875 Y128.5 I0.0 J-1.5875
G1 Y0.0
G3 X0.0 Y-1.5875 I1.5875 J0.0
G1 X51.81
G3 X53.3975 Y0.0 I0.0 J1.5875
G1 F1000.0 Z-0.5
G1 F2000.0 Y128.5
G3 X51.81 Y130.0875 I-1.5875 J0.0
G1 X0.0
G3 X-1.5875 Y128.5 I0.0 J-1.5875
G1 Y0.0
G3 X0.0 Y-1.5875 I1.5875 J0.0
G1 X51.81
G3 X53.3975 Y0.0 I0.0 J1.5875
G1 F1000.0 Z-0.6
G1 F2000.0 Y128.5
G3 X51.81 Y130.0875 I-1.5875 J0.0
G1 X0.0
G3 X-1.5875 Y128.5 I0.0 J-1.5875
G1 Y0.0
G3 X0.0 Y-1.5875 I1.5875 J0.0
G1 X51.81
G3 X53.3975 Y0.0 I0.0 J1.5875
G1 F1000.0 Z-0.7
G1 F2000.0 Y128.5
G3 X51.81 Y130.0875 I-1.5875 J0.0
G1 X0.0
G3 X-1.5875 Y128.5 I0.0 J-1.5875
G1 Y0.0
G3 X0.0 Y-1.5875 I1.5875 J0.0
G1 X51.81
G3 X53.3975 Y0.0 I0.0 J1.5875
G1 F1000.0 Z-0.8
G1 F2000.0 Y128.5
G3 X51.81 Y130.0875 I-1.5875 J0.0
G1 X0.0
G3 X-1.5875 Y128.5 I0.0 J-1.5875
G1 Y0.0
G3 X0.0 Y-1.5875 I1.5875 J0.0
G1 X51.81
G3 X53.3975 Y0.0 I0.0 J1.5875
G1 F1000.0 Z-0.9
G1 F2000.0 Y128.5
G3 X51.81 Y130.0875 I-1.5875 J0.0
G1 X0.0
G3 X-1.5875 Y128.5 I0.0 J-1.5875
G1 Y0.0
G3 X0.0 Y-1.5875 I1.5875 J0.0
G1 X51.81
G3 X53.3975 Y0.0 I0.0 J1.5875
G1 F1000.0 Z-1.0
G1 F2000.0 Y128.5
G3 X51.81 Y130.0875 I-1.5875 J0.0
G1 X0.0
G3 X-1.5875 Y128.5 I0.0 J-1.5875
G1 Y0.0
G3 X0.0 Y-1.5875 I1.5875 J0.0
G1 X51.81
G3 X53.3975 Y0.0 I0.0 J1.5875
G1 F1000.0 Z-1.1
G1 F2000.0 Y128.5
G3 X51.81 Y130.0875 I-1.5875 J0.0
G1 X0.0
G3 X-1.5875 Y128.5 I0.0 J-1.5875
G1 Y0.0
G3 X0.0 Y-1.5875 I1.5875 J0.0
G1 X51.81
G3 X53.3975 Y0.0 I0.0 J1.5875
G1 F1000.0 Z-1.2
G1 F2000.0 Y128.5
G3 X51.81 Y130.0875 I-1.5875 J0.0
G1 X0.0
G3 X-1.5875 Y128.5 I0.0 J-1.5875
G1 Y0.0
G3 X0.0 Y-1.5875 I1.5875 J0.0
G1 X51.81
G3 X53.3975 Y0.0 I0.0 J1.5875
G1 F1000.0 Z-1.3
G1 F2000.0 Y42.49
G1 Y43.49 Z-1.2
G1 Y46.665
G1 Y47.665 Z-1.3
G1 Y128.5
G3 X51.81 Y130.0875 I-1.5875 J0.0
G1 X47.665
G1 X46.665 Z-1.2
G1 X43.49
G1 X42.49 Z-1.3
G1 X0.0
G3 X-1.5875 Y128.5 I0.0 J-1.5875
G1 Y86.01
G1 Y85.01 Z-1.2
G1 Y81.835
G1 Y80.835 Z-1.3
G1 Y0.0
G3 X0.0 Y-1.5875 I1.5875 J0.0
G1 X4.145
G1 X5.145 Z-1.2
G1 X8.32
G1 X9.32 Z-1.3
G1 X51.81
G3 X53.3975 Y0.0 I0.0 J1.5875
G1 F1000.0 Z-1.4
G1 F2000.0 Y42.49
G1 Y43.49 Z-1.2
G1 Y46.665
G1 Y47.665 Z-1.4
G1 Y128.5
G3 X51.81 Y130.0875 I-1.5875 J0.0
G1 X47.665
G1 X46.665 Z-1.2
G1 X43.49
G1 X42.49 Z-1.4
G1 X0.0
G3 X-1.5875 Y128.5 I0.0 J-1.5875
G1 Y86.01
G1 Y85.01 Z-1.2
G1 Y81.835
G1 Y80.835 Z-1.4
G1 Y0.0
G3 X0.0 Y-1.5875 I1.5875 J0.0
G1 X4.145
G1 X5.145 Z-1.2
G1 X8.32
G1 X9.32 Z-1.4
G1 X51.81
G3 X53.3975 Y0.0 I0.0 J1.5875
G1 F1000.0 Z-1.5
G1 F2000.0 Y42.49
G1 Y43.49 Z-1.2
G1 Y46.665
G1 Y47.665 Z-1.5
G1 Y128.5
G3 X51.81 Y130.0875 I-1.5875 J0.0
G1 X47.665
G1 X46.665 Z-1.2
G1 X43.49
G1 X42.49 Z-1.5
G1 X0.0
G3 X-1.5875 Y128.5 I0.0 J-1.5875
G1 Y86.01
G1 Y85.01 Z-1.2
G1 Y81.835
G1 Y80.835 Z-1.5
G1 Y0.0
G3 X0.0 Y-1.5875 I1.5875 J0.0
G1 X4.145
G1 X5.145 Z-1.2
G1 X8.32
G1 X9.32 Z-1.5
G1 X51.81
G3 X53.3975 Y0.0 I0.0 J1.5875
G1 F1000.0 Z-1.6
G1 F2000.0 Y42.49
G1 Y43.49 Z-1.2
G1 Y46.665
G1 Y47.665 Z-1.6
G1 Y128.5
G3 X51.81 Y130.0875 I-1.5875 J0.0
G1 X47.665
G1 X46.665 Z-1.2
G1 X43.49
G1 X42.49 Z-1.6
G1 X0.0
G3 X-1.5875 Y128.5 I0.0 J-1.5875
G1 Y86.01
G1 Y85.01 Z-1.2
G1 Y81.835
G1 Y80.835 Z-1.6
G1 Y0.0
G3 X0.0 Y-1.5875 I1.5875 J0.0
G1 X4.145
G1 X5.145 Z-1.2
G1 X8.32
G1 X9.32 Z-1.6
G1 X51.81
G3 X53.3975 Y0.0 I0.0 J1.5875
G1 F1000.0 Z-1.7
G1 F2000.0 Y42.49
G1 Y43.49 Z-1.2
G1 Y46.665
G1 Y47.665 Z-1.7
G1 Y128.5
G3 X51.81 Y130.0875 I-1.5875 J0.0
G1 X47.665
G1 X46.665 Z-1.2
G1 X43.49
G1 X42.49 Z-1.7
G1 X0.0
G3 X-1.5875 Y128.5 I0.0 J-1.5875
G1 Y86.01
G1 Y85.01 Z-1.2
G1 Y81.835
G1 Y80.835 Z-1.7
G1 Y0.0
G3 X0.0 Y-1.5875 I1.5875 J0.0
G1 X4.145
G1 X5.145 Z-1.2
G1 X8.32
G1 X9.32 Z-1.7
G1 X51.81
G3 X53.3975 Y0.0 I0.0 J1.5875
G1 F1000.0 Z-1.8
G1 F2000.0 Y42.49
G1 Y43.49 Z-1.2
G1 Y46.665
G1 Y47.665 Z-1.8
G1 Y128.5
G3 X51.81 Y130.0875 I-1.5875 J0.0
G1 X47.665
G1 X46.665 Z-1.2
G1 X43.49
G1 X42.49 Z-1.8
G1 X0.0
G3 X-1.5875 Y128.5 I0.0 J-1.5875
G1 Y86.01
G1 Y85.01 Z-1.2
G1 Y81.835
G1 Y80.835 Z-1.8
G1 Y0.0
G3 X0.0 Y-1.5875 I1.5875 J0.0
G1 X4.145
G1 X5.145 Z-1.2
G1 X8.32
G1 X9.32 Z-1.8
G1 X51.81
G3 X53.3975 Y0.0 I0.0 J1.5875
G1 F1000.0 Z-1.9
G1 F2000.0 Y42.49
G1 Y43.49 Z-1.2
G1 Y46.665
G1 Y47.665 Z-1.9
G1 Y128.5
G3 X51.81 Y130.0875 I-1.5875 J0.0
G1 X47.665
G1 X46.665 Z-1.2
G1 X43.49
G1 X42.49 Z-1.9
G1 X0.0
G3 X-1.5875 Y128.5 I0.0 J-1.5875
G1 Y86.01
G1 Y85.01 Z-1.2
G1 Y81.835
G1 Y80.835 Z-1.9
G1 Y0.0
G3 X0.0 Y-1.5875 I1.5875 J0.0
G1 X4.145
G1 X5.145 Z-1.2
G1 X8.32
G1 X9.32 Z-1.9
G1 X51.81
G3 X53.3975 Y0.0 I0.0 J1.5875
G1 F1000.0 Z-2.0
G1 F2000.0 Y42.49
G1 Y43.49 Z-1.2
G1 Y46.665
G1 Y47.665 Z-2.0
G1 Y128.5
G3 X51.81 Y130.0875 I-1.5875 J0.0
G1 X47.665
G1 X46.665 Z-1.2
G1 X43.49
G1 X42.49 Z-2.0
G1 X0.0
G3 X-1.5875 Y128.5 I0.0 J-1.5875
G1 Y86.01
G1 Y85.01 Z-1.2
G1 Y81.835
G1 Y80.835 Z-2.0
G1 Y0.0
G3 X0.0 Y-1.5875 I1.5875 J0.0
G1 X4.145
G1 X5.145 Z-1.2
G1 X8.32
G1 X9.32 Z-2.0
G1 X51.81
G3 X53.3975 Y0.0 I0.0 J1.5875
G1 F1000.0 Z-2.1
G1 F2000.0 Y42.49
G1 Y43.49 Z-1.2
G1 Y46.665
G1 Y47.665 Z-2.1
G1 Y128.5
G3 X51.81 Y130.0875 I-1.5875 J0.0
G1 X47.665
G1 X46.665 Z-1.2
G1 X43.49
G1 X42.49 Z-2.1
G1 X0.0
G3 X-1.5875 Y128.5 I0.0 J-1.5875
G1 Y86.01
G1 Y85.01 Z-1.2
G1 Y81.835
G1 Y80.835 Z-2.1
G1 Y0.0
G3 X0.0 Y-1.5875 I1.5875 J0.0
G1 X4.145
G1 X5.145 Z-1.2
G1 X8.32
G1 X9.32 Z-2.1
G1 X51.81
G3 X53.3975 Y0.0 I0.0 J1.5875
G1 F1000.0 Z-2.2
G1 F2000.0 Y42.49
G1 Y43.49 Z-1.2
G1 Y46.665
G1 Y47.665 Z-2.2
G1 Y128.5
G3 X51.81 Y130.0875 I-1.5875 J0.0
G1 X47.665
G1 X46.665 Z-1.2
G1 X43.49
G1 X42.49 Z-2.2
G1 X0.0
G3 X-1.5875 Y128.5 I0.0 J-1.5875
G1 Y86.01
G1 Y85.01 Z-1.2
G1 Y81.835
G1 Y80.835 Z-2.2
G1 Y0.0
G3 X0.0 Y-1.5875 I1.5875 J0.0
G1 X4.145
G1 X5.145 Z-1.2
G1 X8.32
G1 X9.32 Z-2.2
G1 X51.81
G3 X53.3975 Y0.0 I0.0 J1.5875
G1 F1000.0 Z-2.3
G1 F2000.0 Y42.49
G1 Y43.49 Z-1.2
G1 Y46.665
G1 Y47.665 Z-2.3
G1 Y128.5
G3 X51.81 Y130.0875 I-1.5875 J0.0
G1 X47.665
G1 X46.665 Z-1.2
G1 X43.49
G1 X42.49 Z-2.3
G1 X0.0
G3 X-1.5875 Y128.5 I0.0 J-1.5875
G1 Y86.01
G1 Y85.01 Z-1.2
G1 Y81.835
G1 Y80.835 Z-2.3
G1 Y0.0
G3 X0.0 Y-1.5875 I1.5875 J0.0
G1 X4.145
G1 X5.145 Z-1.2
G1 X8.32
G1 X9.32 Z-2.3
G1 X51.81
G3 X53.3975 Y0.0 I0.0 J1.5875
G1 F1000.0 Z-2.4
G1 F2000.0 Y42.49
G1 Y43.49 Z-1.2
G1 Y46.665
G1 Y47.665 Z-2.4
G1 Y128.5
G3 X51.81 Y130.0875 I-1.5875 J0.0
G1 X47.665
G1 X46.665 Z-1.2
G1 X43.49
G1 X42.49 Z-2.4
G1 X0.0
G3 X-1.5875 Y128.5 I0.0 J-1.5875
G1 Y86.01
G1 Y85.01 Z-1.2
G1 Y81.835
G1 Y80.835 Z-2.4
G1 Y0.0
G3 X0.0 Y-1.5875 I1.5875 J0.0
G1 X4.145
G1 X5.145 Z-1.2
G1 X8.32
G1 X9.32 Z-2.4
G1 X51.81
G3 X53.3975 Y0.0 I0.0 J1.5875
G1 F1000.0 Z-2.5
G1 F2000.0 Y42.49
G1 Y43.49 Z-1.2
G1 Y46.665
G1 Y47.665 Z-2.5
G1 Y128.5
G3 X51.81 Y130.0875 I-1.5875 J0.0
G1 X47.665
G1 X46.665 Z-1.2
G1 X43.49
G1 X42.49 Z-2.5
G1 X0.0
G3 X-1.5875 Y128.5 I0.0 J-1.5875
G1 Y86.01
G1 Y85.01 Z-1.2
G1 Y81.835
G1 Y80.835 Z-2.5
G1 Y0.0
G3 X0.0 Y-1.5875 I1.5875 J0.0
G1 X4.145
G1 X5.145 Z-1.2
G1 X8.32
G1 X9.32 Z-2.5
G1 X51.81
G3 X53.3975 Y0.0 I0.0 J1.5875
G1 F1000.0 Z-2.6
G1 F2000.0 Y42.49
G1 Y43.49 Z-1.2
G1 Y46.665
G1 Y47.665 Z-2.6
G1 Y128.5
G3 X51.81 Y130.0875 I-1.5875 J0.0
G1 X47.665
G1 X46.665 Z-1.2
G1 X43.49
G1 X42.49 Z-2.6
G1 X0.0
G3 X-1.5875 Y128.5 I0.0 J-1.5875
G1 Y86.01
G1 Y85.01 Z-1.2
G1 Y81.835
G1 Y80.835 Z-2.6
G1 Y0.0
G3 X0.0 Y-1.5875 I1.5875 J0.0
G1 X4.145
G1 X5.145 Z-1.2
G1 X8.32
G1 X9.32 Z-2.6
G1 X51.81
G3 X53.3975 Y0.0 I0.0 J1.5875
G1 F1000.0 Z-2.7
G1 F2000.0 Y42.49
G1 Y43.49 Z-1.2
G1 Y46.665
G1 Y47.665 Z-2.7
G1 Y128.5
G3 X51.81 Y130.0875 I-1.5875 J0.0
G1 X47.665
G1 X46.665 Z-1.2
G1 X43.49
G1 X42.49 Z-2.7
G1 X0.0
G3 X-1.5875 Y128.5 I0.0 J-1.5875
G1 Y86.01
G1 Y85.01 Z-1.2
G1 Y81.835
G1 Y80.835 Z-2.7
G1 Y0.0
G3 X0.0 Y-1.5875 I1.5875 J0.0
G1 X4.145
G1 X5.145 Z-1.2
G1 X8.32
G1 X9.32 Z-2.7
G1 X51.81
G3 X53.3975 Y0.0 I0.0 J1.5875
G1 F1000.0 Z-2.8
G1 F2000.0 Y42.49
G1 Y43.49 Z-1.2
G1 Y46.665
G1 Y47.665 Z-2.8
G1 Y128.5
G3 X51.81 Y130.0875 I-1.5875 J0.0
G1 X47.665
G1 X46.665 Z-1.2
G1 X43.49
G1 X42.49 Z-2.8
G1 X0.0
G3 X-1.5875 Y128.5 I0.0 J-1.5875
G1 Y86.01
G1 Y85.01 Z-1.2
G1 Y81.835
G1 Y80.835 Z-2.8
G1 Y0.0
G3 X0.0 Y-1.5875 I1.5875 J0.0
G1 X4.145
G1 X5.145 Z-1.2
G1 X8.32
G1 X9.32 Z-2.8
G1 X51.81
G3 X53.3975 Y0.0 I0.0 J1.5875
G1 F1000.0 Z-2.9
G1 F2000.0 Y42.49
G1 Y43.49 Z-1.2
G1 Y46.665
G1 Y47.665 Z-2.9
G1 Y128.5
G3 X51.81 Y130.0875 I-1.5875 J0.0
G1 X47.665
G1 X46.665 Z-1.2
G1 X43.49
G1 X42.49 Z-2.9
G1 X0.0
G3 X-1.5875 Y128.5 I0.0 J-1.5875
G1 Y86.01
G1 Y85.01 Z-1.2
G1 Y81.835
G1 Y80.835 Z-2.9
G1 Y0.0
G3 X0.0 Y-1.5875 I1.5875 J0.0
G1 X4.145
G1 X5.145 Z-1.2
G1 X8.32
G1 X9.32 Z-2.9
G1 X51.81
G3 X53.3975 Y0.0 I0.0 J1.5875
G1 F1000.0 Z-3.0
G1 F2000.0 Y42.49
G1 Y43.49 Z-1.2
G1 Y46.665
G1 Y47.665 Z-3.0
G1 Y128.5
G3 X51.81 Y130.0875 I-1.5875 J0.0
G1 X47.665
G1 X46.665 Z-1.2
G1 X43.49
G1 X42.49 Z-3.0
G1 X0.0
G3 X-1.5875 Y128.5 I0.0 J-1.5875
G1 Y86.01
G1 Y85.01 Z-1.2
G1 Y81.835
G1 Y80.835 Z-3.0
G1 Y0.0
G3 X0.0 Y-1.5875 I1.5875 J0.0
G1 X4.145
G1 X5.145 Z-1.2
G1 X8.32
G1 X9.32 Z-3.0
G1 X51.81
G3 X53.3975 Y0.0 I0.0 J1.5875
G1 F1000.0 Z-3.1
G1 F2000.0 Y42.49
G1 Y43.49 Z-1.2
G1 Y46.665
G1 Y47.665 Z-3.1
G1 Y128.5
G3 X51.81 Y130.0875 I-1.5875 J0.0
G1 X47.665
G1 X46.665 Z-1.2
G1 X43.49
G1 X42.49 Z-3.1
G1 X0.0
G3 X-1.5875 Y128.5 I0.0 J-1.5875
G1 Y86.01
G1 Y85.01 Z-1.2
G1 Y81.835
G1 Y80.835 Z-3.1
G1 Y0.0
G3 X0.0 Y-1.5875 I1.5875 J0.0
G1 X4.145
G1 X5.145 Z-1.2
G1 X8.32
G1 X9.32 Z-3.1
G1 X51.81
G3 X53.3975 Y0.0 I0.0 J1.5875
G1 F1000.0 Z-3.2
G1 F2000.0 Y42.49
G1 Y43.49 Z-1.2
G1 Y46.665
G1 Y47.665 Z-3.2
G1 Y128.5
G3 X51.81 Y130.0875 I-1.5875 J0.0
G1 X47.665
G1 X46.665 Z-1.2
G1 X43.49
G1 X42.49 Z-3.2
G1 X0.0
G3 X-1.5875 Y128.5 I0.0 J-1.5875
G1 Y86.01
G1 Y85.01 Z-1.2
G1 Y81.835
G1 Y80.835 Z-3.2
G1 Y0.0
G3 X0.0 Y-1.5875 I1.5875 J0.0
G1 X4.145
G1 X5.145 Z-1.2
G1 X8.32
G1 X9.32 Z-3.2
G1 X51.81
G3 X53.3975 Y0.0 I0.0 J1.5875
G0 Z3.0
M5
M30
