( Made using CamBam - http://www.cambam.co.uk )
( 4chan_mixer_panel 11/30/2015 8:32:31 PM )
( T3 : 3.175 )
G21 G90 G64 G40
G0 Z3.0
( T3 : 3.175 )
T3 M6
( holes )
G17
M3 S1000
G0 X44.6446 Y125.4643
G0 Z3.0
G0 X44.6571 Y125.4643
G1 F1000.0 Z0.0
G2 F2000.0 X44.6383 Y125.4535 Z-0.0333 I-0.0125 J0.0
G2 Y125.4752 Z-0.0667 I0.0062 J0.0108
G2 X44.6571 Y125.4643 Z-0.1 I0.0063 J-0.0108
G2 X44.6383 Y125.4535 Z-0.1333 I-0.0125 J0.0
G2 Y125.4752 Z-0.1667 I0.0062 J0.0108
G2 X44.6571 Y125.4643 Z-0.2 I0.0063 J-0.0108
G2 X44.6383 Y125.4535 Z-0.2333 I-0.0125 J0.0
G2 Y125.4752 Z-0.2667 I0.0062 J0.0108
G2 X44.6571 Y125.4643 Z-0.3 I0.0063 J-0.0108
G2 X44.6383 Y125.4535 Z-0.3333 I-0.0125 J0.0
G2 Y125.4752 Z-0.3667 I0.0062 J0.0108
G2 X44.6571 Y125.4643 Z-0.4 I0.0063 J-0.0108
G2 X44.6383 Y125.4535 Z-0.4333 I-0.0125 J0.0
G2 Y125.4752 Z-0.4667 I0.0062 J0.0108
G2 X44.6571 Y125.4643 Z-0.5 I0.0063 J-0.0108
G2 X44.6383 Y125.4535 Z-0.5333 I-0.0125 J0.0
G2 Y125.4752 Z-0.5667 I0.0062 J0.0108
G2 X44.6571 Y125.4643 Z-0.6 I0.0063 J-0.0108
G2 X44.6383 Y125.4535 Z-0.6333 I-0.0125 J0.0
G2 Y125.4752 Z-0.6667 I0.0062 J0.0108
G2 X44.6571 Y125.4643 Z-0.7 I0.0063 J-0.0108
G2 X44.6383 Y125.4535 Z-0.7333 I-0.0125 J0.0
G2 Y125.4752 Z-0.7667 I0.0062 J0.0108
G2 X44.6571 Y125.4643 Z-0.8 I0.0063 J-0.0108
G2 X44.6383 Y125.4535 Z-0.8333 I-0.0125 J0.0
G2 Y125.4752 Z-0.8667 I0.0062 J0.0108
G2 X44.6571 Y125.4643 Z-0.9 I0.0063 J-0.0108
G2 X44.6383 Y125.4535 Z-0.9333 I-0.0125 J0.0
G2 Y125.4752 Z-0.9667 I0.0062 J0.0108
G2 X44.6571 Y125.4643 Z-1.0 I0.0063 J-0.0108
G2 X44.6383 Y125.4535 Z-1.0333 I-0.0125 J0.0
G2 Y125.4752 Z-1.0667 I0.0062 J0.0108
G2 X44.6571 Y125.4643 Z-1.1 I0.0063 J-0.0108
G2 X44.6383 Y125.4535 Z-1.1333 I-0.0125 J0.0
G2 Y125.4752 Z-1.1667 I0.0062 J0.0108
G2 X44.6571 Y125.4643 Z-1.2 I0.0063 J-0.0108
G2 X44.6383 Y125.4535 Z-1.2333 I-0.0125 J0.0
G2 Y125.4752 Z-1.2667 I0.0062 J0.0108
G2 X44.6571 Y125.4643 Z-1.3 I0.0063 J-0.0108
G2 X44.6383 Y125.4535 Z-1.3333 I-0.0125 J0.0
G2 Y125.4752 Z-1.3667 I0.0062 J0.0108
G2 X44.6571 Y125.4643 Z-1.4 I0.0063 J-0.0108
G2 X44.6383 Y125.4535 Z-1.4333 I-0.0125 J0.0
G2 Y125.4752 Z-1.4667 I0.0062 J0.0108
G2 X44.6571 Y125.4643 Z-1.5 I0.0063 J-0.0108
G2 X44.6383 Y125.4535 Z-1.5333 I-0.0125 J0.0
G2 Y125.4752 Z-1.5667 I0.0062 J0.0108
G2 X44.6571 Y125.4643 Z-1.6 I0.0063 J-0.0108
G2 X44.6383 Y125.4535 Z-1.6333 I-0.0125 J0.0
G2 Y125.4752 Z-1.6667 I0.0062 J0.0108
G2 X44.6571 Y125.4643 Z-1.7 I0.0063 J-0.0108
G2 X44.6383 Y125.4535 Z-1.7333 I-0.0125 J0.0
G2 Y125.4752 Z-1.7667 I0.0062 J0.0108
G2 X44.6571 Y125.4643 Z-1.8 I0.0063 J-0.0108
G2 X44.6383 Y125.4535 Z-1.8333 I-0.0125 J0.0
G2 Y125.4752 Z-1.8667 I0.0062 J0.0108
G2 X44.6571 Y125.4643 Z-1.9 I0.0063 J-0.0108
G2 X44.6383 Y125.4535 Z-1.9333 I-0.0125 J0.0
G2 Y125.4752 Z-1.9667 I0.0062 J0.0108
G2 X44.6571 Y125.4643 Z-2.0 I0.0063 J-0.0108
G2 X44.6383 Y125.4535 Z-2.0333 I-0.0125 J0.0
G2 Y125.4752 Z-2.0667 I0.0062 J0.0108
G2 X44.6571 Y125.4643 Z-2.1 I0.0063 J-0.0108
G2 X44.6383 Y125.4535 Z-2.1333 I-0.0125 J0.0
G2 Y125.4752 Z-2.1667 I0.0062 J0.0108
G2 X44.6571 Y125.4643 Z-2.2 I0.0063 J-0.0108
G2 X44.6383 Y125.4535 Z-2.2333 I-0.0125 J0.0
G2 Y125.4752 Z-2.2667 I0.0062 J0.0108
G2 X44.6571 Y125.4643 Z-2.3 I0.0063 J-0.0108
G2 X44.6383 Y125.4535 Z-2.3333 I-0.0125 J0.0
G2 Y125.4752 Z-2.3667 I0.0062 J0.0108
G2 X44.6571 Y125.4643 Z-2.4 I0.0063 J-0.0108
G2 X44.6383 Y125.4535 Z-2.4333 I-0.0125 J0.0
G2 Y125.4752 Z-2.4667 I0.0062 J0.0108
G2 X44.6571 Y125.4643 Z-2.5 I0.0063 J-0.0108
G2 X44.6383 Y125.4535 Z-2.5333 I-0.0125 J0.0
G2 Y125.4752 Z-2.5667 I0.0062 J0.0108
G2 X44.6571 Y125.4643 Z-2.6 I0.0063 J-0.0108
G2 X44.6383 Y125.4535 Z-2.6333 I-0.0125 J0.0
G2 Y125.4752 Z-2.6667 I0.0062 J0.0108
G2 X44.6571 Y125.4643 Z-2.7 I0.0063 J-0.0108
G2 X44.6383 Y125.4535 Z-2.7333 I-0.0125 J0.0
G2 Y125.4752 Z-2.7667 I0.0062 J0.0108
G2 X44.6571 Y125.4643 Z-2.8 I0.0063 J-0.0108
G2 X44.6383 Y125.4535 Z-2.8333 I-0.0125 J0.0
G2 Y125.4752 Z-2.8667 I0.0062 J0.0108
G2 X44.6571 Y125.4643 Z-2.9 I0.0063 J-0.0108
G2 X44.6383 Y125.4535 Z-2.9333 I-0.0125 J0.0
G2 Y125.4752 Z-2.9667 I0.0063 J0.0108
G2 X44.6571 Y125.4643 Z-3.0 I0.0063 J-0.0108
G2 X44.6383 Y125.4535 Z-3.0333 I-0.0125 J0.0
G2 Y125.4752 Z-3.0667 I0.0063 J0.0108
G2 X44.6571 Y125.4643 Z-3.1 I0.0063 J-0.0108
G2 X44.6383 Y125.4535 Z-3.1333 I-0.0125 J0.0
G2 Y125.4752 Z-3.1667 I0.0063 J0.0108
G2 X44.6571 Y125.4643 Z-3.2 I0.0063 J-0.0108
G2 X44.6383 Y125.4535 I-0.0125 J0.0
G2 Y125.4752 I0.0063 J0.0108
G2 X44.6571 Y125.4643 I0.0062 J-0.0108
G0 Z3.0
G0 X30.8591 Y102.1259
G1 F1000.0 Z0.0
G2 F2000.0 X30.8404 Y102.1151 Z-0.0333 I-0.0125 J0.0
G2 Y102.1368 Z-0.0667 I0.0062 J0.0108
G2 X30.8591 Y102.1259 Z-0.1 I0.0063 J-0.0108
G2 X30.8404 Y102.1151 Z-0.1333 I-0.0125 J0.0
G2 Y102.1368 Z-0.1667 I0.0062 J0.0108
G2 X30.8591 Y102.1259 Z-0.2 I0.0063 J-0.0108
G2 X30.8404 Y102.1151 Z-0.2333 I-0.0125 J0.0
G2 Y102.1368 Z-0.2667 I0.0062 J0.0108
G2 X30.8591 Y102.1259 Z-0.3 I0.0063 J-0.0108
G2 X30.8404 Y102.1151 Z-0.3333 I-0.0125 J0.0
G2 Y102.1368 Z-0.3667 I0.0062 J0.0108
G2 X30.8591 Y102.1259 Z-0.4 I0.0063 J-0.0108
G2 X30.8404 Y102.1151 Z-0.4333 I-0.0125 J0.0
G2 Y102.1368 Z-0.4667 I0.0062 J0.0108
G2 X30.8591 Y102.1259 Z-0.5 I0.0063 J-0.0108
G2 X30.8404 Y102.1151 Z-0.5333 I-0.0125 J0.0
G2 Y102.1368 Z-0.5667 I0.0062 J0.0108
G2 X30.8591 Y102.1259 Z-0.6 I0.0063 J-0.0108
G2 X30.8404 Y102.1151 Z-0.6333 I-0.0125 J0.0
G2 Y102.1368 Z-0.6667 I0.0062 J0.0108
G2 X30.8591 Y102.1259 Z-0.7 I0.0063 J-0.0108
G2 X30.8404 Y102.1151 Z-0.7333 I-0.0125 J0.0
G2 Y102.1368 Z-0.7667 I0.0062 J0.0108
G2 X30.8591 Y102.1259 Z-0.8 I0.0063 J-0.0108
G2 X30.8404 Y102.1151 Z-0.8333 I-0.0125 J0.0
G2 Y102.1368 Z-0.8667 I0.0062 J0.0108
G2 X30.8591 Y102.1259 Z-0.9 I0.0063 J-0.0108
G2 X30.8404 Y102.1151 Z-0.9333 I-0.0125 J0.0
G2 Y102.1368 Z-0.9667 I0.0062 J0.0108
G2 X30.8591 Y102.1259 Z-1.0 I0.0063 J-0.0108
G2 X30.8404 Y102.1151 Z-1.0333 I-0.0125 J0.0
G2 Y102.1368 Z-1.0667 I0.0062 J0.0108
G2 X30.8591 Y102.1259 Z-1.1 I0.0063 J-0.0108
G2 X30.8404 Y102.1151 Z-1.1333 I-0.0125 J0.0
G2 Y102.1368 Z-1.1667 I0.0062 J0.0108
G2 X30.8591 Y102.1259 Z-1.2 I0.0063 J-0.0108
G2 X30.8404 Y102.1151 Z-1.2333 I-0.0125 J0.0
G2 Y102.1368 Z-1.2667 I0.0062 J0.0108
G2 X30.8591 Y102.1259 Z-1.3 I0.0063 J-0.0108
G2 X30.8404 Y102.1151 Z-1.3333 I-0.0125 J0.0
G2 Y102.1368 Z-1.3667 I0.0062 J0.0108
G2 X30.8591 Y102.1259 Z-1.4 I0.0063 J-0.0108
G2 X30.8404 Y102.1151 Z-1.4333 I-0.0125 J0.0
G2 Y102.1368 Z-1.4667 I0.0062 J0.0108
G2 X30.8591 Y102.1259 Z-1.5 I0.0063 J-0.0108
G2 X30.8404 Y102.1151 Z-1.5333 I-0.0125 J0.0
G2 Y102.1368 Z-1.5667 I0.0062 J0.0108
G2 X30.8591 Y102.1259 Z-1.6 I0.0063 J-0.0108
G2 X30.8404 Y102.1151 Z-1.6333 I-0.0125 J0.0
G2 Y102.1368 Z-1.6667 I0.0062 J0.0108
G2 X30.8591 Y102.1259 Z-1.7 I0.0063 J-0.0108
G2 X30.8404 Y102.1151 Z-1.7333 I-0.0125 J0.0
G2 Y102.1368 Z-1.7667 I0.0062 J0.0108
G2 X30.8591 Y102.1259 Z-1.8 I0.0063 J-0.0108
G2 X30.8404 Y102.1151 Z-1.8333 I-0.0125 J0.0
G2 Y102.1368 Z-1.8667 I0.0062 J0.0108
G2 X30.8591 Y102.1259 Z-1.9 I0.0063 J-0.0108
G2 X30.8404 Y102.1151 Z-1.9333 I-0.0125 J0.0
G2 Y102.1368 Z-1.9667 I0.0062 J0.0108
G2 X30.8591 Y102.1259 Z-2.0 I0.0063 J-0.0108
G2 X30.8404 Y102.1151 Z-2.0333 I-0.0125 J0.0
G2 Y102.1368 Z-2.0667 I0.0062 J0.0108
G2 X30.8591 Y102.1259 Z-2.1 I0.0063 J-0.0108
G2 X30.8404 Y102.1151 Z-2.1333 I-0.0125 J0.0
G2 Y102.1368 Z-2.1667 I0.0062 J0.0108
G2 X30.8591 Y102.1259 Z-2.2 I0.0063 J-0.0108
G2 X30.8404 Y102.1151 Z-2.2333 I-0.0125 J0.0
G2 Y102.1368 Z-2.2667 I0.0062 J0.0108
G2 X30.8591 Y102.1259 Z-2.3 I0.0063 J-0.0108
G2 X30.8404 Y102.1151 Z-2.3333 I-0.0125 J0.0
G2 Y102.1368 Z-2.3667 I0.0062 J0.0108
G2 X30.8591 Y102.1259 Z-2.4 I0.0063 J-0.0108
G2 X30.8404 Y102.1151 Z-2.4333 I-0.0125 J0.0
G2 Y102.1368 Z-2.4667 I0.0062 J0.0108
G2 X30.8591 Y102.1259 Z-2.5 I0.0063 J-0.0108
G2 X30.8404 Y102.1151 Z-2.5333 I-0.0125 J0.0
G2 Y102.1368 Z-2.5667 I0.0062 J0.0108
G2 X30.8591 Y102.1259 Z-2.6 I0.0063 J-0.0108
G2 X30.8404 Y102.1151 Z-2.6333 I-0.0125 J0.0
G2 Y102.1368 Z-2.6667 I0.0062 J0.0108
G2 X30.8591 Y102.1259 Z-2.7 I0.0063 J-0.0108
G2 X30.8404 Y102.1151 Z-2.7333 I-0.0125 J0.0
G2 Y102.1368 Z-2.7667 I0.0062 J0.0108
G2 X30.8591 Y102.1259 Z-2.8 I0.0063 J-0.0108
G2 X30.8404 Y102.1151 Z-2.8333 I-0.0125 J0.0
G2 Y102.1368 Z-2.8667 I0.0062 J0.0108
G2 X30.8591 Y102.1259 Z-2.9 I0.0063 J-0.0108
G2 X30.8404 Y102.1151 Z-2.9333 I-0.0125 J0.0
G2 Y102.1368 Z-2.9667 I0.0062 J0.0108
G2 X30.8591 Y102.1259 Z-3.0 I0.0063 J-0.0108
G2 X30.8404 Y102.1151 Z-3.0333 I-0.0125 J0.0
G2 Y102.1368 Z-3.0667 I0.0062 J0.0108
G2 X30.8591 Y102.1259 Z-3.1 I0.0063 J-0.0108
G2 X30.8404 Y102.1151 Z-3.1333 I-0.0125 J0.0
G2 Y102.1368 Z-3.1667 I0.0062 J0.0108
G2 X30.8591 Y102.1259 Z-3.2 I0.0063 J-0.0108
G2 X30.8404 Y102.1151 I-0.0125 J0.0
G2 Y102.1368 I0.0063 J0.0108
G2 X30.8591 Y102.1259 I0.0062 J-0.0108
G0 Z3.0
G0 X30.836 Y82.9343
G1 F1000.0 Z0.0
G2 F2000.0 X30.8173 Y82.9234 Z-0.0333 I-0.0125 J0.0
G2 Y82.9451 Z-0.0667 I0.0062 J0.0108
G2 X30.836 Y82.9343 Z-0.1 I0.0063 J-0.0108
G2 X30.8173 Y82.9234 Z-0.1333 I-0.0125 J0.0
G2 Y82.9451 Z-0.1667 I0.0062 J0.0108
G2 X30.836 Y82.9343 Z-0.2 I0.0063 J-0.0108
G2 X30.8173 Y82.9234 Z-0.2333 I-0.0125 J0.0
G2 Y82.9451 Z-0.2667 I0.0062 J0.0108
G2 X30.836 Y82.9343 Z-0.3 I0.0063 J-0.0108
G2 X30.8173 Y82.9234 Z-0.3333 I-0.0125 J0.0
G2 Y82.9451 Z-0.3667 I0.0062 J0.0108
G2 X30.836 Y82.9343 Z-0.4 I0.0063 J-0.0108
G2 X30.8173 Y82.9234 Z-0.4333 I-0.0125 J0.0
G2 Y82.9451 Z-0.4667 I0.0062 J0.0108
G2 X30.836 Y82.9343 Z-0.5 I0.0063 J-0.0108
G2 X30.8173 Y82.9234 Z-0.5333 I-0.0125 J0.0
G2 Y82.9451 Z-0.5667 I0.0062 J0.0108
G2 X30.836 Y82.9343 Z-0.6 I0.0063 J-0.0108
G2 X30.8173 Y82.9234 Z-0.6333 I-0.0125 J0.0
G2 Y82.9451 Z-0.6667 I0.0062 J0.0108
G2 X30.836 Y82.9343 Z-0.7 I0.0063 J-0.0108
G2 X30.8173 Y82.9234 Z-0.7333 I-0.0125 J0.0
G2 Y82.9451 Z-0.7667 I0.0062 J0.0108
G2 X30.836 Y82.9343 Z-0.8 I0.0063 J-0.0108
G2 X30.8173 Y82.9234 Z-0.8333 I-0.0125 J0.0
G2 Y82.9451 Z-0.8667 I0.0062 J0.0108
G2 X30.836 Y82.9343 Z-0.9 I0.0063 J-0.0108
G2 X30.8173 Y82.9234 Z-0.9333 I-0.0125 J0.0
G2 Y82.9451 Z-0.9667 I0.0062 J0.0108
G2 X30.836 Y82.9343 Z-1.0 I0.0063 J-0.0108
G2 X30.8173 Y82.9234 Z-1.0333 I-0.0125 J0.0
G2 Y82.9451 Z-1.0667 I0.0062 J0.0108
G2 X30.836 Y82.9343 Z-1.1 I0.0063 J-0.0108
G2 X30.8173 Y82.9234 Z-1.1333 I-0.0125 J0.0
G2 Y82.9451 Z-1.1667 I0.0062 J0.0108
G2 X30.836 Y82.9343 Z-1.2 I0.0063 J-0.0108
G2 X30.8173 Y82.9234 Z-1.2333 I-0.0125 J0.0
G2 Y82.9451 Z-1.2667 I0.0062 J0.0108
G2 X30.836 Y82.9343 Z-1.3 I0.0063 J-0.0108
G2 X30.8173 Y82.9234 Z-1.3333 I-0.0125 J0.0
G2 Y82.9451 Z-1.3667 I0.0062 J0.0108
G2 X30.836 Y82.9343 Z-1.4 I0.0063 J-0.0108
G2 X30.8173 Y82.9234 Z-1.4333 I-0.0125 J0.0
G2 Y82.9451 Z-1.4667 I0.0062 J0.0108
G2 X30.836 Y82.9343 Z-1.5 I0.0063 J-0.0108
G2 X30.8173 Y82.9234 Z-1.5333 I-0.0125 J0.0
G2 Y82.9451 Z-1.5667 I0.0062 J0.0108
G2 X30.836 Y82.9343 Z-1.6 I0.0063 J-0.0108
G2 X30.8173 Y82.9234 Z-1.6333 I-0.0125 J0.0
G2 Y82.9451 Z-1.6667 I0.0062 J0.0108
G2 X30.836 Y82.9343 Z-1.7 I0.0063 J-0.0108
G2 X30.8173 Y82.9234 Z-1.7333 I-0.0125 J0.0
G2 Y82.9451 Z-1.7667 I0.0062 J0.0108
G2 X30.836 Y82.9343 Z-1.8 I0.0063 J-0.0108
G2 X30.8173 Y82.9234 Z-1.8333 I-0.0125 J0.0
G2 Y82.9451 Z-1.8667 I0.0062 J0.0108
G2 X30.836 Y82.9343 Z-1.9 I0.0063 J-0.0108
G2 X30.8173 Y82.9234 Z-1.9333 I-0.0125 J0.0
G2 Y82.9451 Z-1.9667 I0.0062 J0.0108
G2 X30.836 Y82.9343 Z-2.0 I0.0063 J-0.0108
G2 X30.8173 Y82.9234 Z-2.0333 I-0.0125 J0.0
G2 Y82.9451 Z-2.0667 I0.0062 J0.0108
G2 X30.836 Y82.9343 Z-2.1 I0.0063 J-0.0108
G2 X30.8173 Y82.9234 Z-2.1333 I-0.0125 J0.0
G2 Y82.9451 Z-2.1667 I0.0062 J0.0108
G2 X30.836 Y82.9343 Z-2.2 I0.0063 J-0.0108
G2 X30.8173 Y82.9234 Z-2.2333 I-0.0125 J0.0
G2 Y82.9451 Z-2.2667 I0.0062 J0.0108
G2 X30.836 Y82.9343 Z-2.3 I0.0063 J-0.0108
G2 X30.8173 Y82.9234 Z-2.3333 I-0.0125 J0.0
G2 Y82.9451 Z-2.3667 I0.0062 J0.0108
G2 X30.836 Y82.9343 Z-2.4 I0.0063 J-0.0108
G2 X30.8173 Y82.9234 Z-2.4333 I-0.0125 J0.0
G2 Y82.9451 Z-2.4667 I0.0062 J0.0108
G2 X30.836 Y82.9343 Z-2.5 I0.0063 J-0.0108
G2 X30.8173 Y82.9234 Z-2.5333 I-0.0125 J0.0
G2 Y82.9451 Z-2.5667 I0.0062 J0.0108
G2 X30.836 Y82.9343 Z-2.6 I0.0063 J-0.0108
G2 X30.8173 Y82.9234 Z-2.6333 I-0.0125 J0.0
G2 Y82.9451 Z-2.6667 I0.0062 J0.0108
G2 X30.836 Y82.9343 Z-2.7 I0.0063 J-0.0108
G2 X30.8173 Y82.9234 Z-2.7333 I-0.0125 J0.0
G2 Y82.9451 Z-2.7667 I0.0062 J0.0108
G2 X30.836 Y82.9343 Z-2.8 I0.0063 J-0.0108
G2 X30.8173 Y82.9234 Z-2.8333 I-0.0125 J0.0
G2 Y82.9451 Z-2.8667 I0.0062 J0.0108
G2 X30.836 Y82.9343 Z-2.9 I0.0063 J-0.0108
G2 X30.8173 Y82.9234 Z-2.9333 I-0.0125 J0.0
G2 Y82.9451 Z-2.9667 I0.0062 J0.0108
G2 X30.836 Y82.9343 Z-3.0 I0.0063 J-0.0108
G2 X30.8173 Y82.9234 Z-3.0333 I-0.0125 J0.0
G2 Y82.9451 Z-3.0667 I0.0062 J0.0108
G2 X30.836 Y82.9343 Z-3.1 I0.0063 J-0.0108
G2 X30.8173 Y82.9234 Z-3.1333 I-0.0125 J0.0
G2 Y82.9451 Z-3.1667 I0.0062 J0.0108
G2 X30.836 Y82.9343 Z-3.2 I0.0063 J-0.0108
G2 X30.8173 Y82.9234 I-0.0125 J0.0
G2 Y82.9451 I0.0063 J0.0108
G2 X30.836 Y82.9343 I0.0062 J-0.0108
G0 Z3.0
G0 X30.7824 Y63.6303
G1 F1000.0 Z0.0
G2 F2000.0 X30.7637 Y63.6194 Z-0.0333 I-0.0125 J0.0
G2 Y63.6411 Z-0.0667 I0.0063 J0.0108
G2 X30.7824 Y63.6303 Z-0.1 I0.0062 J-0.0108
G2 X30.7637 Y63.6194 Z-0.1333 I-0.0125 J0.0
G2 Y63.6411 Z-0.1667 I0.0063 J0.0108
G2 X30.7824 Y63.6303 Z-0.2 I0.0062 J-0.0108
G2 X30.7637 Y63.6194 Z-0.2333 I-0.0125 J0.0
G2 Y63.6411 Z-0.2667 I0.0063 J0.0108
G2 X30.7824 Y63.6303 Z-0.3 I0.0062 J-0.0108
G2 X30.7637 Y63.6194 Z-0.3333 I-0.0125 J0.0
G2 Y63.6411 Z-0.3667 I0.0063 J0.0108
G2 X30.7824 Y63.6303 Z-0.4 I0.0062 J-0.0108
G2 X30.7637 Y63.6194 Z-0.4333 I-0.0125 J0.0
G2 Y63.6411 Z-0.4667 I0.0063 J0.0108
G2 X30.7824 Y63.6303 Z-0.5 I0.0062 J-0.0108
G2 X30.7637 Y63.6194 Z-0.5333 I-0.0125 J0.0
G2 Y63.6411 Z-0.5667 I0.0063 J0.0108
G2 X30.7824 Y63.6303 Z-0.6 I0.0062 J-0.0108
G2 X30.7637 Y63.6194 Z-0.6333 I-0.0125 J0.0
G2 Y63.6411 Z-0.6667 I0.0063 J0.0108
G2 X30.7824 Y63.6303 Z-0.7 I0.0062 J-0.0108
G2 X30.7637 Y63.6194 Z-0.7333 I-0.0125 J0.0
G2 Y63.6411 Z-0.7667 I0.0063 J0.0108
G2 X30.7824 Y63.6303 Z-0.8 I0.0062 J-0.0108
G2 X30.7637 Y63.6194 Z-0.8333 I-0.0125 J0.0
G2 Y63.6411 Z-0.8667 I0.0063 J0.0108
G2 X30.7824 Y63.6303 Z-0.9 I0.0062 J-0.0108
G2 X30.7637 Y63.6194 Z-0.9333 I-0.0125 J0.0
G2 Y63.6411 Z-0.9667 I0.0063 J0.0108
G2 X30.7824 Y63.6303 Z-1.0 I0.0062 J-0.0108
G2 X30.7637 Y63.6194 Z-1.0333 I-0.0125 J0.0
G2 Y63.6411 Z-1.0667 I0.0063 J0.0108
G2 X30.7824 Y63.6303 Z-1.1 I0.0062 J-0.0108
G2 X30.7637 Y63.6194 Z-1.1333 I-0.0125 J0.0
G2 Y63.6411 Z-1.1667 I0.0063 J0.0108
G2 X30.7824 Y63.6303 Z-1.2 I0.0062 J-0.0108
G2 X30.7637 Y63.6194 Z-1.2333 I-0.0125 J0.0
G2 Y63.6411 Z-1.2667 I0.0063 J0.0108
G2 X30.7824 Y63.6303 Z-1.3 I0.0062 J-0.0108
G2 X30.7637 Y63.6194 Z-1.3333 I-0.0125 J0.0
G2 Y63.6411 Z-1.3667 I0.0063 J0.0108
G2 X30.7824 Y63.6303 Z-1.4 I0.0062 J-0.0108
G2 X30.7637 Y63.6194 Z-1.4333 I-0.0125 J0.0
G2 Y63.6411 Z-1.4667 I0.0063 J0.0108
G2 X30.7824 Y63.6303 Z-1.5 I0.0062 J-0.0108
G2 X30.7637 Y63.6194 Z-1.5333 I-0.0125 J0.0
G2 Y63.6411 Z-1.5667 I0.0063 J0.0108
G2 X30.7824 Y63.6303 Z-1.6 I0.0062 J-0.0108
G2 X30.7637 Y63.6194 Z-1.6333 I-0.0125 J0.0
G2 Y63.6411 Z-1.6667 I0.0063 J0.0108
G2 X30.7824 Y63.6303 Z-1.7 I0.0062 J-0.0108
G2 X30.7637 Y63.6194 Z-1.7333 I-0.0125 J0.0
G2 Y63.6411 Z-1.7667 I0.0063 J0.0108
G2 X30.7824 Y63.6303 Z-1.8 I0.0062 J-0.0108
G2 X30.7637 Y63.6194 Z-1.8333 I-0.0125 J0.0
G2 Y63.6411 Z-1.8667 I0.0063 J0.0108
G2 X30.7824 Y63.6303 Z-1.9 I0.0062 J-0.0108
G2 X30.7637 Y63.6194 Z-1.9333 I-0.0125 J0.0
G2 Y63.6411 Z-1.9667 I0.0063 J0.0108
G2 X30.7824 Y63.6303 Z-2.0 I0.0062 J-0.0108
G2 X30.7637 Y63.6194 Z-2.0333 I-0.0125 J0.0
G2 Y63.6411 Z-2.0667 I0.0063 J0.0108
G2 X30.7824 Y63.6303 Z-2.1 I0.0062 J-0.0108
G2 X30.7637 Y63.6194 Z-2.1333 I-0.0125 J0.0
G2 Y63.6411 Z-2.1667 I0.0063 J0.0108
G2 X30.7824 Y63.6303 Z-2.2 I0.0062 J-0.0108
G2 X30.7637 Y63.6194 Z-2.2333 I-0.0125 J0.0
G2 Y63.6411 Z-2.2667 I0.0063 J0.0108
G2 X30.7824 Y63.6303 Z-2.3 I0.0062 J-0.0108
G2 X30.7637 Y63.6194 Z-2.3333 I-0.0125 J0.0
G2 Y63.6411 Z-2.3667 I0.0063 J0.0108
G2 X30.7824 Y63.6303 Z-2.4 I0.0062 J-0.0108
G2 X30.7637 Y63.6194 Z-2.4333 I-0.0125 J0.0
G2 Y63.6411 Z-2.4667 I0.0063 J0.0108
G2 X30.7824 Y63.6303 Z-2.5 I0.0062 J-0.0108
G2 X30.7637 Y63.6194 Z-2.5333 I-0.0125 J0.0
G2 Y63.6411 Z-2.5667 I0.0063 J0.0108
G2 X30.7824 Y63.6303 Z-2.6 I0.0062 J-0.0108
G2 X30.7637 Y63.6194 Z-2.6333 I-0.0125 J0.0
G2 Y63.6411 Z-2.6667 I0.0063 J0.0108
G2 X30.7824 Y63.6303 Z-2.7 I0.0062 J-0.0108
G2 X30.7637 Y63.6194 Z-2.7333 I-0.0125 J0.0
G2 Y63.6411 Z-2.7667 I0.0063 J0.0108
G2 X30.7824 Y63.6303 Z-2.8 I0.0062 J-0.0108
G2 X30.7637 Y63.6194 Z-2.8333 I-0.0125 J0.0
G2 Y63.6411 Z-2.8667 I0.0063 J0.0108
G2 X30.7824 Y63.6303 Z-2.9 I0.0062 J-0.0108
G2 X30.7637 Y63.6194 Z-2.9333 I-0.0125 J0.0
G2 Y63.6411 Z-2.9667 I0.0063 J0.0108
G2 X30.7824 Y63.6303 Z-3.0 I0.0062 J-0.0108
G2 X30.7637 Y63.6194 Z-3.0333 I-0.0125 J0.0
G2 Y63.6411 Z-3.0667 I0.0063 J0.0108
G2 X30.7824 Y63.6303 Z-3.1 I0.0062 J-0.0108
G2 X30.7637 Y63.6194 Z-3.1333 I-0.0125 J0.0
G2 Y63.6411 Z-3.1667 I0.0063 J0.0108
G2 X30.7824 Y63.6303 Z-3.2 I0.0062 J-0.0108
G2 X30.7637 Y63.6194 I-0.0125 J0.0
G2 Y63.6411 I0.0063 J0.0108
G2 X30.7824 Y63.6303 I0.0062 J-0.0108
G0 Z3.0
G0 X30.836 Y44.2698
G1 F1000.0 Z0.0
G2 F2000.0 X30.8173 Y44.259 Z-0.0333 I-0.0125 J0.0
G2 Y44.2806 Z-0.0667 I0.0063 J0.0108
G2 X30.836 Y44.2698 Z-0.1 I0.0062 J-0.0108
G2 X30.8173 Y44.259 Z-0.1333 I-0.0125 J0.0
G2 Y44.2806 Z-0.1667 I0.0063 J0.0108
G2 X30.836 Y44.2698 Z-0.2 I0.0062 J-0.0108
G2 X30.8173 Y44.259 Z-0.2333 I-0.0125 J0.0
G2 Y44.2806 Z-0.2667 I0.0063 J0.0108
G2 X30.836 Y44.2698 Z-0.3 I0.0062 J-0.0108
G2 X30.8173 Y44.259 Z-0.3333 I-0.0125 J0.0
G2 Y44.2806 Z-0.3667 I0.0063 J0.0108
G2 X30.836 Y44.2698 Z-0.4 I0.0062 J-0.0108
G2 X30.8173 Y44.259 Z-0.4333 I-0.0125 J0.0
G2 Y44.2806 Z-0.4667 I0.0063 J0.0108
G2 X30.836 Y44.2698 Z-0.5 I0.0062 J-0.0108
G2 X30.8173 Y44.259 Z-0.5333 I-0.0125 J0.0
G2 Y44.2806 Z-0.5667 I0.0063 J0.0108
G2 X30.836 Y44.2698 Z-0.6 I0.0062 J-0.0108
G2 X30.8173 Y44.259 Z-0.6333 I-0.0125 J0.0
G2 Y44.2806 Z-0.6667 I0.0063 J0.0108
G2 X30.836 Y44.2698 Z-0.7 I0.0062 J-0.0108
G2 X30.8173 Y44.259 Z-0.7333 I-0.0125 J0.0
G2 Y44.2806 Z-0.7667 I0.0063 J0.0108
G2 X30.836 Y44.2698 Z-0.8 I0.0062 J-0.0108
G2 X30.8173 Y44.259 Z-0.8333 I-0.0125 J0.0
G2 Y44.2806 Z-0.8667 I0.0063 J0.0108
G2 X30.836 Y44.2698 Z-0.9 I0.0062 J-0.0108
G2 X30.8173 Y44.259 Z-0.9333 I-0.0125 J0.0
G2 Y44.2806 Z-0.9667 I0.0063 J0.0108
G2 X30.836 Y44.2698 Z-1.0 I0.0062 J-0.0108
G2 X30.8173 Y44.259 Z-1.0333 I-0.0125 J0.0
G2 Y44.2806 Z-1.0667 I0.0063 J0.0108
G2 X30.836 Y44.2698 Z-1.1 I0.0062 J-0.0108
G2 X30.8173 Y44.259 Z-1.1333 I-0.0125 J0.0
G2 Y44.2806 Z-1.1667 I0.0063 J0.0108
G2 X30.836 Y44.2698 Z-1.2 I0.0062 J-0.0108
G2 X30.8173 Y44.259 Z-1.2333 I-0.0125 J0.0
G2 Y44.2806 Z-1.2667 I0.0063 J0.0108
G2 X30.836 Y44.2698 Z-1.3 I0.0062 J-0.0108
G2 X30.8173 Y44.259 Z-1.3333 I-0.0125 J0.0
G2 Y44.2806 Z-1.3667 I0.0063 J0.0108
G2 X30.836 Y44.2698 Z-1.4 I0.0062 J-0.0108
G2 X30.8173 Y44.259 Z-1.4333 I-0.0125 J0.0
G2 Y44.2806 Z-1.4667 I0.0063 J0.0108
G2 X30.836 Y44.2698 Z-1.5 I0.0062 J-0.0108
G2 X30.8173 Y44.259 Z-1.5333 I-0.0125 J0.0
G2 Y44.2806 Z-1.5667 I0.0063 J0.0108
G2 X30.836 Y44.2698 Z-1.6 I0.0062 J-0.0108
G2 X30.8173 Y44.259 Z-1.6333 I-0.0125 J0.0
G2 Y44.2806 Z-1.6667 I0.0063 J0.0108
G2 X30.836 Y44.2698 Z-1.7 I0.0062 J-0.0108
G2 X30.8173 Y44.259 Z-1.7333 I-0.0125 J0.0
G2 Y44.2806 Z-1.7667 I0.0063 J0.0108
G2 X30.836 Y44.2698 Z-1.8 I0.0062 J-0.0108
G2 X30.8173 Y44.259 Z-1.8333 I-0.0125 J0.0
G2 Y44.2806 Z-1.8667 I0.0063 J0.0108
G2 X30.836 Y44.2698 Z-1.9 I0.0062 J-0.0108
G2 X30.8173 Y44.259 Z-1.9333 I-0.0125 J0.0
G2 Y44.2806 Z-1.9667 I0.0063 J0.0108
G2 X30.836 Y44.2698 Z-2.0 I0.0062 J-0.0108
G2 X30.8173 Y44.259 Z-2.0333 I-0.0125 J0.0
G2 Y44.2806 Z-2.0667 I0.0063 J0.0108
G2 X30.836 Y44.2698 Z-2.1 I0.0062 J-0.0108
G2 X30.8173 Y44.259 Z-2.1333 I-0.0125 J0.0
G2 Y44.2806 Z-2.1667 I0.0063 J0.0108
G2 X30.836 Y44.2698 Z-2.2 I0.0062 J-0.0108
G2 X30.8173 Y44.259 Z-2.2333 I-0.0125 J0.0
G2 Y44.2806 Z-2.2667 I0.0063 J0.0108
G2 X30.836 Y44.2698 Z-2.3 I0.0062 J-0.0108
G2 X30.8173 Y44.259 Z-2.3333 I-0.0125 J0.0
G2 Y44.2806 Z-2.3667 I0.0063 J0.0108
G2 X30.836 Y44.2698 Z-2.4 I0.0062 J-0.0108
G2 X30.8173 Y44.259 Z-2.4333 I-0.0125 J0.0
G2 Y44.2806 Z-2.4667 I0.0063 J0.0108
G2 X30.836 Y44.2698 Z-2.5 I0.0062 J-0.0108
G2 X30.8173 Y44.259 Z-2.5333 I-0.0125 J0.0
G2 Y44.2806 Z-2.5667 I0.0063 J0.0108
G2 X30.836 Y44.2698 Z-2.6 I0.0062 J-0.0108
G2 X30.8173 Y44.259 Z-2.6333 I-0.0125 J0.0
G2 Y44.2806 Z-2.6667 I0.0063 J0.0108
G2 X30.836 Y44.2698 Z-2.7 I0.0062 J-0.0108
G2 X30.8173 Y44.259 Z-2.7333 I-0.0125 J0.0
G2 Y44.2806 Z-2.7667 I0.0063 J0.0108
G2 X30.836 Y44.2698 Z-2.8 I0.0062 J-0.0108
G2 X30.8173 Y44.259 Z-2.8333 I-0.0125 J0.0
G2 Y44.2806 Z-2.8667 I0.0063 J0.0108
G2 X30.836 Y44.2698 Z-2.9 I0.0062 J-0.0108
G2 X30.8173 Y44.259 Z-2.9333 I-0.0125 J0.0
G2 Y44.2806 Z-2.9667 I0.0063 J0.0108
G2 X30.836 Y44.2698 Z-3.0 I0.0062 J-0.0108
G2 X30.8173 Y44.259 Z-3.0333 I-0.0125 J0.0
G2 Y44.2806 Z-3.0667 I0.0063 J0.0108
G2 X30.836 Y44.2698 Z-3.1 I0.0062 J-0.0108
G2 X30.8173 Y44.259 Z-3.1333 I-0.0125 J0.0
G2 Y44.2806 Z-3.1667 I0.0063 J0.0108
G2 X30.836 Y44.2698 Z-3.2 I0.0062 J-0.0108
G2 X30.8173 Y44.259 I-0.0125 J0.0
G2 Y44.2806 I0.0063 J0.0108
G2 X30.836 Y44.2698 I0.0062 J-0.0108
G0 Z3.0
G0 X10.8751 Y44.3514
G1 F1000.0 Z0.0
G2 F2000.0 X10.8564 Y44.3405 Z-0.0333 I-0.0125 J0.0
G2 Y44.3622 Z-0.0667 I0.0063 J0.0108
G2 X10.8751 Y44.3514 Z-0.1 I0.0062 J-0.0108
G2 X10.8564 Y44.3405 Z-0.1333 I-0.0125 J0.0
G2 Y44.3622 Z-0.1667 I0.0063 J0.0108
G2 X10.8751 Y44.3514 Z-0.2 I0.0062 J-0.0108
G2 X10.8564 Y44.3405 Z-0.2333 I-0.0125 J0.0
G2 Y44.3622 Z-0.2667 I0.0063 J0.0108
G2 X10.8751 Y44.3514 Z-0.3 I0.0062 J-0.0108
G2 X10.8564 Y44.3405 Z-0.3333 I-0.0125 J0.0
G2 Y44.3622 Z-0.3667 I0.0063 J0.0108
G2 X10.8751 Y44.3514 Z-0.4 I0.0062 J-0.0108
G2 X10.8564 Y44.3405 Z-0.4333 I-0.0125 J0.0
G2 Y44.3622 Z-0.4667 I0.0063 J0.0108
G2 X10.8751 Y44.3514 Z-0.5 I0.0062 J-0.0108
G2 X10.8564 Y44.3405 Z-0.5333 I-0.0125 J0.0
G2 Y44.3622 Z-0.5667 I0.0063 J0.0108
G2 X10.8751 Y44.3514 Z-0.6 I0.0062 J-0.0108
G2 X10.8564 Y44.3405 Z-0.6333 I-0.0125 J0.0
G2 Y44.3622 Z-0.6667 I0.0063 J0.0108
G2 X10.8751 Y44.3514 Z-0.7 I0.0062 J-0.0108
G2 X10.8564 Y44.3405 Z-0.7333 I-0.0125 J0.0
G2 Y44.3622 Z-0.7667 I0.0063 J0.0108
G2 X10.8751 Y44.3514 Z-0.8 I0.0062 J-0.0108
G2 X10.8564 Y44.3405 Z-0.8333 I-0.0125 J0.0
G2 Y44.3622 Z-0.8667 I0.0063 J0.0108
G2 X10.8751 Y44.3514 Z-0.9 I0.0062 J-0.0108
G2 X10.8564 Y44.3405 Z-0.9333 I-0.0125 J0.0
G2 Y44.3622 Z-0.9667 I0.0063 J0.0108
G2 X10.8751 Y44.3514 Z-1.0 I0.0062 J-0.0108
G2 X10.8564 Y44.3405 Z-1.0333 I-0.0125 J0.0
G2 Y44.3622 Z-1.0667 I0.0063 J0.0108
G2 X10.8751 Y44.3514 Z-1.1 I0.0062 J-0.0108
G2 X10.8564 Y44.3405 Z-1.1333 I-0.0125 J0.0
G2 Y44.3622 Z-1.1667 I0.0063 J0.0108
G2 X10.8751 Y44.3514 Z-1.2 I0.0062 J-0.0108
G2 X10.8564 Y44.3405 Z-1.2333 I-0.0125 J0.0
G2 Y44.3622 Z-1.2667 I0.0063 J0.0108
G2 X10.8751 Y44.3514 Z-1.3 I0.0062 J-0.0108
G2 X10.8564 Y44.3405 Z-1.3333 I-0.0125 J0.0
G2 Y44.3622 Z-1.3667 I0.0063 J0.0108
G2 X10.8751 Y44.3514 Z-1.4 I0.0062 J-0.0108
G2 X10.8564 Y44.3405 Z-1.4333 I-0.0125 J0.0
G2 Y44.3622 Z-1.4667 I0.0063 J0.0108
G2 X10.8751 Y44.3514 Z-1.5 I0.0062 J-0.0108
G2 X10.8564 Y44.3405 Z-1.5333 I-0.0125 J0.0
G2 Y44.3622 Z-1.5667 I0.0063 J0.0108
G2 X10.8751 Y44.3514 Z-1.6 I0.0062 J-0.0108
G2 X10.8564 Y44.3405 Z-1.6333 I-0.0125 J0.0
G2 Y44.3622 Z-1.6667 I0.0063 J0.0108
G2 X10.8751 Y44.3514 Z-1.7 I0.0062 J-0.0108
G2 X10.8564 Y44.3405 Z-1.7333 I-0.0125 J0.0
G2 Y44.3622 Z-1.7667 I0.0063 J0.0108
G2 X10.8751 Y44.3514 Z-1.8 I0.0062 J-0.0108
G2 X10.8564 Y44.3405 Z-1.8333 I-0.0125 J0.0
G2 Y44.3622 Z-1.8667 I0.0063 J0.0108
G2 X10.8751 Y44.3514 Z-1.9 I0.0062 J-0.0108
G2 X10.8564 Y44.3405 Z-1.9333 I-0.0125 J0.0
G2 Y44.3622 Z-1.9667 I0.0063 J0.0108
G2 X10.8751 Y44.3514 Z-2.0 I0.0062 J-0.0108
G2 X10.8564 Y44.3405 Z-2.0333 I-0.0125 J0.0
G2 Y44.3622 Z-2.0667 I0.0063 J0.0108
G2 X10.8751 Y44.3514 Z-2.1 I0.0062 J-0.0108
G2 X10.8564 Y44.3405 Z-2.1333 I-0.0125 J0.0
G2 Y44.3622 Z-2.1667 I0.0063 J0.0108
G2 X10.8751 Y44.3514 Z-2.2 I0.0062 J-0.0108
G2 X10.8564 Y44.3405 Z-2.2333 I-0.0125 J0.0
G2 Y44.3622 Z-2.2667 I0.0063 J0.0108
G2 X10.8751 Y44.3514 Z-2.3 I0.0062 J-0.0108
G2 X10.8564 Y44.3405 Z-2.3333 I-0.0125 J0.0
G2 Y44.3622 Z-2.3667 I0.0063 J0.0108
G2 X10.8751 Y44.3514 Z-2.4 I0.0062 J-0.0108
G2 X10.8564 Y44.3405 Z-2.4333 I-0.0125 J0.0
G2 Y44.3622 Z-2.4667 I0.0063 J0.0108
G2 X10.8751 Y44.3514 Z-2.5 I0.0062 J-0.0108
G2 X10.8564 Y44.3405 Z-2.5333 I-0.0125 J0.0
G2 Y44.3622 Z-2.5667 I0.0063 J0.0108
G2 X10.8751 Y44.3514 Z-2.6 I0.0062 J-0.0108
G2 X10.8564 Y44.3405 Z-2.6333 I-0.0125 J0.0
G2 Y44.3622 Z-2.6667 I0.0063 J0.0108
G2 X10.8751 Y44.3514 Z-2.7 I0.0062 J-0.0108
G2 X10.8564 Y44.3405 Z-2.7333 I-0.0125 J0.0
G2 Y44.3622 Z-2.7667 I0.0063 J0.0108
G2 X10.8751 Y44.3514 Z-2.8 I0.0062 J-0.0108
G2 X10.8564 Y44.3405 Z-2.8333 I-0.0125 J0.0
G2 Y44.3622 Z-2.8667 I0.0063 J0.0108
G2 X10.8751 Y44.3514 Z-2.9 I0.0062 J-0.0108
G2 X10.8564 Y44.3405 Z-2.9333 I-0.0125 J0.0
G2 Y44.3622 Z-2.9667 I0.0063 J0.0108
G2 X10.8751 Y44.3514 Z-3.0 I0.0062 J-0.0108
G2 X10.8564 Y44.3405 Z-3.0333 I-0.0125 J0.0
G2 Y44.3622 Z-3.0667 I0.0063 J0.0108
G2 X10.8751 Y44.3514 Z-3.1 I0.0062 J-0.0108
G2 X10.8564 Y44.3405 Z-3.1333 I-0.0125 J0.0
G2 Y44.3622 Z-3.1667 I0.0063 J0.0108
G2 X10.8751 Y44.3514 Z-3.2 I0.0062 J-0.0108
G2 X10.8564 Y44.3405 I-0.0125 J0.0
G2 Y44.3622 I0.0063 J0.0108
G2 X10.8751 Y44.3514 I0.0062 J-0.0108
G0 Z3.0
G0 X10.8034 Y63.7264
G1 F1000.0 Z0.0
G2 F2000.0 X10.7847 Y63.7156 Z-0.0333 I-0.0125 J0.0
G2 Y63.7373 Z-0.0667 I0.0063 J0.0108
G2 X10.8034 Y63.7264 Z-0.1 I0.0062 J-0.0108
G2 X10.7847 Y63.7156 Z-0.1333 I-0.0125 J0.0
G2 Y63.7373 Z-0.1667 I0.0063 J0.0108
G2 X10.8034 Y63.7264 Z-0.2 I0.0062 J-0.0108
G2 X10.7847 Y63.7156 Z-0.2333 I-0.0125 J0.0
G2 Y63.7373 Z-0.2667 I0.0063 J0.0108
G2 X10.8034 Y63.7264 Z-0.3 I0.0062 J-0.0108
G2 X10.7847 Y63.7156 Z-0.3333 I-0.0125 J0.0
G2 Y63.7373 Z-0.3667 I0.0063 J0.0108
G2 X10.8034 Y63.7264 Z-0.4 I0.0062 J-0.0108
G2 X10.7847 Y63.7156 Z-0.4333 I-0.0125 J0.0
G2 Y63.7373 Z-0.4667 I0.0063 J0.0108
G2 X10.8034 Y63.7264 Z-0.5 I0.0062 J-0.0108
G2 X10.7847 Y63.7156 Z-0.5333 I-0.0125 J0.0
G2 Y63.7373 Z-0.5667 I0.0063 J0.0108
G2 X10.8034 Y63.7264 Z-0.6 I0.0062 J-0.0108
G2 X10.7847 Y63.7156 Z-0.6333 I-0.0125 J0.0
G2 Y63.7373 Z-0.6667 I0.0063 J0.0108
G2 X10.8034 Y63.7264 Z-0.7 I0.0062 J-0.0108
G2 X10.7847 Y63.7156 Z-0.7333 I-0.0125 J0.0
G2 Y63.7373 Z-0.7667 I0.0063 J0.0108
G2 X10.8034 Y63.7264 Z-0.8 I0.0062 J-0.0108
G2 X10.7847 Y63.7156 Z-0.8333 I-0.0125 J0.0
G2 Y63.7373 Z-0.8667 I0.0063 J0.0108
G2 X10.8034 Y63.7264 Z-0.9 I0.0062 J-0.0108
G2 X10.7847 Y63.7156 Z-0.9333 I-0.0125 J0.0
G2 Y63.7373 Z-0.9667 I0.0063 J0.0108
G2 X10.8034 Y63.7264 Z-1.0 I0.0062 J-0.0108
G2 X10.7847 Y63.7156 Z-1.0333 I-0.0125 J0.0
G2 Y63.7373 Z-1.0667 I0.0063 J0.0108
G2 X10.8034 Y63.7264 Z-1.1 I0.0062 J-0.0108
G2 X10.7847 Y63.7156 Z-1.1333 I-0.0125 J0.0
G2 Y63.7373 Z-1.1667 I0.0063 J0.0108
G2 X10.8034 Y63.7264 Z-1.2 I0.0062 J-0.0108
G2 X10.7847 Y63.7156 Z-1.2333 I-0.0125 J0.0
G2 Y63.7373 Z-1.2667 I0.0063 J0.0108
G2 X10.8034 Y63.7264 Z-1.3 I0.0062 J-0.0108
G2 X10.7847 Y63.7156 Z-1.3333 I-0.0125 J0.0
G2 Y63.7373 Z-1.3667 I0.0063 J0.0108
G2 X10.8034 Y63.7264 Z-1.4 I0.0062 J-0.0108
G2 X10.7847 Y63.7156 Z-1.4333 I-0.0125 J0.0
G2 Y63.7373 Z-1.4667 I0.0063 J0.0108
G2 X10.8034 Y63.7264 Z-1.5 I0.0062 J-0.0108
G2 X10.7847 Y63.7156 Z-1.5333 I-0.0125 J0.0
G2 Y63.7373 Z-1.5667 I0.0063 J0.0108
G2 X10.8034 Y63.7264 Z-1.6 I0.0062 J-0.0108
G2 X10.7847 Y63.7156 Z-1.6333 I-0.0125 J0.0
G2 Y63.7373 Z-1.6667 I0.0063 J0.0108
G2 X10.8034 Y63.7264 Z-1.7 I0.0062 J-0.0108
G2 X10.7847 Y63.7156 Z-1.7333 I-0.0125 J0.0
G2 Y63.7373 Z-1.7667 I0.0063 J0.0108
G2 X10.8034 Y63.7264 Z-1.8 I0.0062 J-0.0108
G2 X10.7847 Y63.7156 Z-1.8333 I-0.0125 J0.0
G2 Y63.7373 Z-1.8667 I0.0063 J0.0108
G2 X10.8034 Y63.7264 Z-1.9 I0.0062 J-0.0108
G2 X10.7847 Y63.7156 Z-1.9333 I-0.0125 J0.0
G2 Y63.7373 Z-1.9667 I0.0063 J0.0108
G2 X10.8034 Y63.7264 Z-2.0 I0.0062 J-0.0108
G2 X10.7847 Y63.7156 Z-2.0333 I-0.0125 J0.0
G2 Y63.7373 Z-2.0667 I0.0063 J0.0108
G2 X10.8034 Y63.7264 Z-2.1 I0.0062 J-0.0108
G2 X10.7847 Y63.7156 Z-2.1333 I-0.0125 J0.0
G2 Y63.7373 Z-2.1667 I0.0063 J0.0108
G2 X10.8034 Y63.7264 Z-2.2 I0.0062 J-0.0108
G2 X10.7847 Y63.7156 Z-2.2333 I-0.0125 J0.0
G2 Y63.7373 Z-2.2667 I0.0063 J0.0108
G2 X10.8034 Y63.7264 Z-2.3 I0.0062 J-0.0108
G2 X10.7847 Y63.7156 Z-2.3333 I-0.0125 J0.0
G2 Y63.7373 Z-2.3667 I0.0063 J0.0108
G2 X10.8034 Y63.7264 Z-2.4 I0.0062 J-0.0108
G2 X10.7847 Y63.7156 Z-2.4333 I-0.0125 J0.0
G2 Y63.7373 Z-2.4667 I0.0063 J0.0108
G2 X10.8034 Y63.7264 Z-2.5 I0.0062 J-0.0108
G2 X10.7847 Y63.7156 Z-2.5333 I-0.0125 J0.0
G2 Y63.7373 Z-2.5667 I0.0063 J0.0108
G2 X10.8034 Y63.7264 Z-2.6 I0.0062 J-0.0108
G2 X10.7847 Y63.7156 Z-2.6333 I-0.0125 J0.0
G2 Y63.7373 Z-2.6667 I0.0063 J0.0108
G2 X10.8034 Y63.7264 Z-2.7 I0.0062 J-0.0108
G2 X10.7847 Y63.7156 Z-2.7333 I-0.0125 J0.0
G2 Y63.7373 Z-2.7667 I0.0063 J0.0108
G2 X10.8034 Y63.7264 Z-2.8 I0.0062 J-0.0108
G2 X10.7847 Y63.7156 Z-2.8333 I-0.0125 J0.0
G2 Y63.7373 Z-2.8667 I0.0063 J0.0108
G2 X10.8034 Y63.7264 Z-2.9 I0.0062 J-0.0108
G2 X10.7847 Y63.7156 Z-2.9333 I-0.0125 J0.0
G2 Y63.7373 Z-2.9667 I0.0063 J0.0108
G2 X10.8034 Y63.7264 Z-3.0 I0.0062 J-0.0108
G2 X10.7847 Y63.7156 Z-3.0333 I-0.0125 J0.0
G2 Y63.7373 Z-3.0667 I0.0063 J0.0108
G2 X10.8034 Y63.7264 Z-3.1 I0.0062 J-0.0108
G2 X10.7847 Y63.7156 Z-3.1333 I-0.0125 J0.0
G2 Y63.7373 Z-3.1667 I0.0063 J0.0108
G2 X10.8034 Y63.7264 Z-3.2 I0.0062 J-0.0108
G2 X10.7847 Y63.7156 I-0.0125 J0.0
G2 Y63.7373 I0.0063 J0.0108
G2 X10.8034 Y63.7264 I0.0062 J-0.0108
G0 Z3.0
G0 X10.8626 Y83.0816
G1 F1000.0 Z0.0
G2 F2000.0 X10.8438 Y83.0708 Z-0.0333 I-0.0125 J0.0
G2 Y83.0924 Z-0.0667 I0.0062 J0.0108
G2 X10.8626 Y83.0816 Z-0.1 I0.0063 J-0.0108
G2 X10.8438 Y83.0708 Z-0.1333 I-0.0125 J0.0
G2 Y83.0924 Z-0.1667 I0.0062 J0.0108
G2 X10.8626 Y83.0816 Z-0.2 I0.0063 J-0.0108
G2 X10.8438 Y83.0708 Z-0.2333 I-0.0125 J0.0
G2 Y83.0924 Z-0.2667 I0.0062 J0.0108
G2 X10.8626 Y83.0816 Z-0.3 I0.0063 J-0.0108
G2 X10.8438 Y83.0708 Z-0.3333 I-0.0125 J0.0
G2 Y83.0924 Z-0.3667 I0.0062 J0.0108
G2 X10.8626 Y83.0816 Z-0.4 I0.0063 J-0.0108
G2 X10.8438 Y83.0708 Z-0.4333 I-0.0125 J0.0
G2 Y83.0924 Z-0.4667 I0.0062 J0.0108
G2 X10.8626 Y83.0816 Z-0.5 I0.0063 J-0.0108
G2 X10.8438 Y83.0708 Z-0.5333 I-0.0125 J0.0
G2 Y83.0924 Z-0.5667 I0.0062 J0.0108
G2 X10.8626 Y83.0816 Z-0.6 I0.0063 J-0.0108
G2 X10.8438 Y83.0708 Z-0.6333 I-0.0125 J0.0
G2 Y83.0924 Z-0.6667 I0.0062 J0.0108
G2 X10.8626 Y83.0816 Z-0.7 I0.0063 J-0.0108
G2 X10.8438 Y83.0708 Z-0.7333 I-0.0125 J0.0
G2 Y83.0924 Z-0.7667 I0.0062 J0.0108
G2 X10.8626 Y83.0816 Z-0.8 I0.0063 J-0.0108
G2 X10.8438 Y83.0708 Z-0.8333 I-0.0125 J0.0
G2 Y83.0924 Z-0.8667 I0.0062 J0.0108
G2 X10.8626 Y83.0816 Z-0.9 I0.0063 J-0.0108
G2 X10.8438 Y83.0708 Z-0.9333 I-0.0125 J0.0
G2 Y83.0924 Z-0.9667 I0.0062 J0.0108
G2 X10.8626 Y83.0816 Z-1.0 I0.0063 J-0.0108
G2 X10.8438 Y83.0708 Z-1.0333 I-0.0125 J0.0
G2 Y83.0924 Z-1.0667 I0.0062 J0.0108
G2 X10.8626 Y83.0816 Z-1.1 I0.0063 J-0.0108
G2 X10.8438 Y83.0708 Z-1.1333 I-0.0125 J0.0
G2 Y83.0924 Z-1.1667 I0.0062 J0.0108
G2 X10.8626 Y83.0816 Z-1.2 I0.0063 J-0.0108
G2 X10.8438 Y83.0708 Z-1.2333 I-0.0125 J0.0
G2 Y83.0924 Z-1.2667 I0.0062 J0.0108
G2 X10.8626 Y83.0816 Z-1.3 I0.0063 J-0.0108
G2 X10.8438 Y83.0708 Z-1.3333 I-0.0125 J0.0
G2 Y83.0924 Z-1.3667 I0.0062 J0.0108
G2 X10.8626 Y83.0816 Z-1.4 I0.0063 J-0.0108
G2 X10.8438 Y83.0708 Z-1.4333 I-0.0125 J0.0
G2 Y83.0924 Z-1.4667 I0.0062 J0.0108
G2 X10.8626 Y83.0816 Z-1.5 I0.0063 J-0.0108
G2 X10.8438 Y83.0708 Z-1.5333 I-0.0125 J0.0
G2 Y83.0924 Z-1.5667 I0.0062 J0.0108
G2 X10.8626 Y83.0816 Z-1.6 I0.0063 J-0.0108
G2 X10.8438 Y83.0708 Z-1.6333 I-0.0125 J0.0
G2 Y83.0924 Z-1.6667 I0.0062 J0.0108
G2 X10.8626 Y83.0816 Z-1.7 I0.0063 J-0.0108
G2 X10.8438 Y83.0708 Z-1.7333 I-0.0125 J0.0
G2 Y83.0924 Z-1.7667 I0.0062 J0.0108
G2 X10.8626 Y83.0816 Z-1.8 I0.0063 J-0.0108
G2 X10.8438 Y83.0708 Z-1.8333 I-0.0125 J0.0
G2 Y83.0924 Z-1.8667 I0.0062 J0.0108
G2 X10.8626 Y83.0816 Z-1.9 I0.0063 J-0.0108
G2 X10.8438 Y83.0708 Z-1.9333 I-0.0125 J0.0
G2 Y83.0924 Z-1.9667 I0.0062 J0.0108
G2 X10.8626 Y83.0816 Z-2.0 I0.0063 J-0.0108
G2 X10.8438 Y83.0708 Z-2.0333 I-0.0125 J0.0
G2 Y83.0924 Z-2.0667 I0.0062 J0.0108
G2 X10.8626 Y83.0816 Z-2.1 I0.0063 J-0.0108
G2 X10.8438 Y83.0708 Z-2.1333 I-0.0125 J0.0
G2 Y83.0924 Z-2.1667 I0.0062 J0.0108
G2 X10.8626 Y83.0816 Z-2.2 I0.0063 J-0.0108
G2 X10.8438 Y83.0708 Z-2.2333 I-0.0125 J0.0
G2 Y83.0924 Z-2.2667 I0.0062 J0.0108
G2 X10.8626 Y83.0816 Z-2.3 I0.0063 J-0.0108
G2 X10.8438 Y83.0708 Z-2.3333 I-0.0125 J0.0
G2 Y83.0924 Z-2.3667 I0.0062 J0.0108
G2 X10.8626 Y83.0816 Z-2.4 I0.0063 J-0.0108
G2 X10.8438 Y83.0708 Z-2.4333 I-0.0125 J0.0
G2 Y83.0924 Z-2.4667 I0.0062 J0.0108
G2 X10.8626 Y83.0816 Z-2.5 I0.0063 J-0.0108
G2 X10.8438 Y83.0708 Z-2.5333 I-0.0125 J0.0
G2 Y83.0924 Z-2.5667 I0.0062 J0.0108
G2 X10.8626 Y83.0816 Z-2.6 I0.0063 J-0.0108
G2 X10.8438 Y83.0708 Z-2.6333 I-0.0125 J0.0
G2 Y83.0924 Z-2.6667 I0.0062 J0.0108
G2 X10.8626 Y83.0816 Z-2.7 I0.0063 J-0.0108
G2 X10.8438 Y83.0708 Z-2.7333 I-0.0125 J0.0
G2 Y83.0924 Z-2.7667 I0.0062 J0.0108
G2 X10.8626 Y83.0816 Z-2.8 I0.0063 J-0.0108
G2 X10.8438 Y83.0708 Z-2.8333 I-0.0125 J0.0
G2 Y83.0924 Z-2.8667 I0.0062 J0.0108
G2 X10.8626 Y83.0816 Z-2.9 I0.0063 J-0.0108
G2 X10.8438 Y83.0708 Z-2.9333 I-0.0125 J0.0
G2 Y83.0924 Z-2.9667 I0.0062 J0.0108
G2 X10.8626 Y83.0816 Z-3.0 I0.0063 J-0.0108
G2 X10.8438 Y83.0708 Z-3.0333 I-0.0125 J0.0
G2 Y83.0924 Z-3.0667 I0.0062 J0.0108
G2 X10.8626 Y83.0816 Z-3.1 I0.0063 J-0.0108
G2 X10.8438 Y83.0708 Z-3.1333 I-0.0125 J0.0
G2 Y83.0924 Z-3.1667 I0.0063 J0.0108
G2 X10.8626 Y83.0816 Z-3.2 I0.0062 J-0.0108
G2 X10.8438 Y83.0708 I-0.0125 J0.0
G2 Y83.0924 I0.0063 J0.0108
G2 X10.8626 Y83.0816 I0.0062 J-0.0108
G0 Z3.0
G0 Y102.1134
G1 F1000.0 Z0.0
G2 F2000.0 X10.8438 Y102.1026 Z-0.0333 I-0.0125 J0.0
G2 Y102.1242 Z-0.0667 I0.0062 J0.0108
G2 X10.8626 Y102.1134 Z-0.1 I0.0063 J-0.0108
G2 X10.8438 Y102.1026 Z-0.1333 I-0.0125 J0.0
G2 Y102.1242 Z-0.1667 I0.0062 J0.0108
G2 X10.8626 Y102.1134 Z-0.2 I0.0063 J-0.0108
G2 X10.8438 Y102.1026 Z-0.2333 I-0.0125 J0.0
G2 Y102.1242 Z-0.2667 I0.0062 J0.0108
G2 X10.8626 Y102.1134 Z-0.3 I0.0063 J-0.0108
G2 X10.8438 Y102.1026 Z-0.3333 I-0.0125 J0.0
G2 Y102.1242 Z-0.3667 I0.0062 J0.0108
G2 X10.8626 Y102.1134 Z-0.4 I0.0063 J-0.0108
G2 X10.8438 Y102.1026 Z-0.4333 I-0.0125 J0.0
G2 Y102.1242 Z-0.4667 I0.0062 J0.0108
G2 X10.8626 Y102.1134 Z-0.5 I0.0063 J-0.0108
G2 X10.8438 Y102.1026 Z-0.5333 I-0.0125 J0.0
G2 Y102.1242 Z-0.5667 I0.0062 J0.0108
G2 X10.8626 Y102.1134 Z-0.6 I0.0063 J-0.0108
G2 X10.8438 Y102.1026 Z-0.6333 I-0.0125 J0.0
G2 Y102.1242 Z-0.6667 I0.0062 J0.0108
G2 X10.8626 Y102.1134 Z-0.7 I0.0063 J-0.0108
G2 X10.8438 Y102.1026 Z-0.7333 I-0.0125 J0.0
G2 Y102.1242 Z-0.7667 I0.0062 J0.0108
G2 X10.8626 Y102.1134 Z-0.8 I0.0063 J-0.0108
G2 X10.8438 Y102.1026 Z-0.8333 I-0.0125 J0.0
G2 Y102.1242 Z-0.8667 I0.0062 J0.0108
G2 X10.8626 Y102.1134 Z-0.9 I0.0063 J-0.0108
G2 X10.8438 Y102.1026 Z-0.9333 I-0.0125 J0.0
G2 Y102.1242 Z-0.9667 I0.0062 J0.0108
G2 X10.8626 Y102.1134 Z-1.0 I0.0063 J-0.0108
G2 X10.8438 Y102.1026 Z-1.0333 I-0.0125 J0.0
G2 Y102.1242 Z-1.0667 I0.0062 J0.0108
G2 X10.8626 Y102.1134 Z-1.1 I0.0063 J-0.0108
G2 X10.8438 Y102.1026 Z-1.1333 I-0.0125 J0.0
G2 Y102.1242 Z-1.1667 I0.0062 J0.0108
G2 X10.8626 Y102.1134 Z-1.2 I0.0063 J-0.0108
G2 X10.8438 Y102.1026 Z-1.2333 I-0.0125 J0.0
G2 Y102.1242 Z-1.2667 I0.0062 J0.0108
G2 X10.8626 Y102.1134 Z-1.3 I0.0063 J-0.0108
G2 X10.8438 Y102.1026 Z-1.3333 I-0.0125 J0.0
G2 Y102.1242 Z-1.3667 I0.0062 J0.0108
G2 X10.8626 Y102.1134 Z-1.4 I0.0063 J-0.0108
G2 X10.8438 Y102.1026 Z-1.4333 I-0.0125 J0.0
G2 Y102.1242 Z-1.4667 I0.0062 J0.0108
G2 X10.8626 Y102.1134 Z-1.5 I0.0063 J-0.0108
G2 X10.8438 Y102.1026 Z-1.5333 I-0.0125 J0.0
G2 Y102.1242 Z-1.5667 I0.0062 J0.0108
G2 X10.8626 Y102.1134 Z-1.6 I0.0063 J-0.0108
G2 X10.8438 Y102.1026 Z-1.6333 I-0.0125 J0.0
G2 Y102.1242 Z-1.6667 I0.0062 J0.0108
G2 X10.8626 Y102.1134 Z-1.7 I0.0063 J-0.0108
G2 X10.8438 Y102.1026 Z-1.7333 I-0.0125 J0.0
G2 Y102.1242 Z-1.7667 I0.0062 J0.0108
G2 X10.8626 Y102.1134 Z-1.8 I0.0063 J-0.0108
G2 X10.8438 Y102.1026 Z-1.8333 I-0.0125 J0.0
G2 Y102.1242 Z-1.8667 I0.0062 J0.0108
G2 X10.8626 Y102.1134 Z-1.9 I0.0063 J-0.0108
G2 X10.8438 Y102.1026 Z-1.9333 I-0.0125 J0.0
G2 Y102.1242 Z-1.9667 I0.0062 J0.0108
G2 X10.8626 Y102.1134 Z-2.0 I0.0063 J-0.0108
G2 X10.8438 Y102.1026 Z-2.0333 I-0.0125 J0.0
G2 Y102.1242 Z-2.0667 I0.0062 J0.0108
G2 X10.8626 Y102.1134 Z-2.1 I0.0063 J-0.0108
G2 X10.8438 Y102.1026 Z-2.1333 I-0.0125 J0.0
G2 Y102.1242 Z-2.1667 I0.0062 J0.0108
G2 X10.8626 Y102.1134 Z-2.2 I0.0063 J-0.0108
G2 X10.8438 Y102.1026 Z-2.2333 I-0.0125 J0.0
G2 Y102.1242 Z-2.2667 I0.0062 J0.0108
G2 X10.8626 Y102.1134 Z-2.3 I0.0063 J-0.0108
G2 X10.8438 Y102.1026 Z-2.3333 I-0.0125 J0.0
G2 Y102.1242 Z-2.3667 I0.0062 J0.0108
G2 X10.8626 Y102.1134 Z-2.4 I0.0063 J-0.0108
G2 X10.8438 Y102.1026 Z-2.4333 I-0.0125 J0.0
G2 Y102.1242 Z-2.4667 I0.0062 J0.0108
G2 X10.8626 Y102.1134 Z-2.5 I0.0063 J-0.0108
G2 X10.8438 Y102.1026 Z-2.5333 I-0.0125 J0.0
G2 Y102.1242 Z-2.5667 I0.0062 J0.0108
G2 X10.8626 Y102.1134 Z-2.6 I0.0063 J-0.0108
G2 X10.8438 Y102.1026 Z-2.6333 I-0.0125 J0.0
G2 Y102.1242 Z-2.6667 I0.0062 J0.0108
G2 X10.8626 Y102.1134 Z-2.7 I0.0063 J-0.0108
G2 X10.8438 Y102.1026 Z-2.7333 I-0.0125 J0.0
G2 Y102.1242 Z-2.7667 I0.0062 J0.0108
G2 X10.8626 Y102.1134 Z-2.8 I0.0063 J-0.0108
G2 X10.8438 Y102.1026 Z-2.8333 I-0.0125 J0.0
G2 Y102.1242 Z-2.8667 I0.0062 J0.0108
G2 X10.8626 Y102.1134 Z-2.9 I0.0063 J-0.0108
G2 X10.8438 Y102.1026 Z-2.9333 I-0.0125 J0.0
G2 Y102.1242 Z-2.9667 I0.0062 J0.0108
G2 X10.8626 Y102.1134 Z-3.0 I0.0063 J-0.0108
G2 X10.8438 Y102.1026 Z-3.0333 I-0.0125 J0.0
G2 Y102.1242 Z-3.0667 I0.0062 J0.0108
G2 X10.8626 Y102.1134 Z-3.1 I0.0063 J-0.0108
G2 X10.8438 Y102.1026 Z-3.1333 I-0.0125 J0.0
G2 Y102.1242 Z-3.1667 I0.0063 J0.0108
G2 X10.8626 Y102.1134 Z-3.2 I0.0062 J-0.0108
G2 X10.8438 Y102.1026 I-0.0125 J0.0
G2 Y102.1242 I0.0063 J0.0108
G2 X10.8626 Y102.1134 I0.0062 J-0.0108
G0 Z3.0
G0 X10.4232 Y20.0006
G1 F1000.0 Z0.0
G2 F2000.0 X10.4044 Y19.9898 Z-0.0333 I-0.0125 J0.0
G2 Y20.0114 Z-0.0667 I0.0062 J0.0108
G2 X10.4232 Y20.0006 Z-0.1 I0.0063 J-0.0108
G2 X10.4044 Y19.9898 Z-0.1333 I-0.0125 J0.0
G2 Y20.0114 Z-0.1667 I0.0062 J0.0108
G2 X10.4232 Y20.0006 Z-0.2 I0.0063 J-0.0108
G2 X10.4044 Y19.9898 Z-0.2333 I-0.0125 J0.0
G2 Y20.0114 Z-0.2667 I0.0062 J0.0108
G2 X10.4232 Y20.0006 Z-0.3 I0.0063 J-0.0108
G2 X10.4044 Y19.9898 Z-0.3333 I-0.0125 J0.0
G2 Y20.0114 Z-0.3667 I0.0062 J0.0108
G2 X10.4232 Y20.0006 Z-0.4 I0.0063 J-0.0108
G2 X10.4044 Y19.9898 Z-0.4333 I-0.0125 J0.0
G2 Y20.0114 Z-0.4667 I0.0062 J0.0108
G2 X10.4232 Y20.0006 Z-0.5 I0.0063 J-0.0108
G2 X10.4044 Y19.9898 Z-0.5333 I-0.0125 J0.0
G2 Y20.0114 Z-0.5667 I0.0062 J0.0108
G2 X10.4232 Y20.0006 Z-0.6 I0.0063 J-0.0108
G2 X10.4044 Y19.9898 Z-0.6333 I-0.0125 J0.0
G2 Y20.0114 Z-0.6667 I0.0062 J0.0108
G2 X10.4232 Y20.0006 Z-0.7 I0.0063 J-0.0108
G2 X10.4044 Y19.9898 Z-0.7333 I-0.0125 J0.0
G2 Y20.0114 Z-0.7667 I0.0062 J0.0108
G2 X10.4232 Y20.0006 Z-0.8 I0.0063 J-0.0108
G2 X10.4044 Y19.9898 Z-0.8333 I-0.0125 J0.0
G2 Y20.0114 Z-0.8667 I0.0062 J0.0108
G2 X10.4232 Y20.0006 Z-0.9 I0.0063 J-0.0108
G2 X10.4044 Y19.9898 Z-0.9333 I-0.0125 J0.0
G2 Y20.0114 Z-0.9667 I0.0062 J0.0108
G2 X10.4232 Y20.0006 Z-1.0 I0.0063 J-0.0108
G2 X10.4044 Y19.9898 Z-1.0333 I-0.0125 J0.0
G2 Y20.0114 Z-1.0667 I0.0062 J0.0108
G2 X10.4232 Y20.0006 Z-1.1 I0.0063 J-0.0108
G2 X10.4044 Y19.9898 Z-1.1333 I-0.0125 J0.0
G2 Y20.0114 Z-1.1667 I0.0062 J0.0108
G2 X10.4232 Y20.0006 Z-1.2 I0.0063 J-0.0108
G2 X10.4044 Y19.9898 Z-1.2333 I-0.0125 J0.0
G2 Y20.0114 Z-1.2667 I0.0062 J0.0108
G2 X10.4232 Y20.0006 Z-1.3 I0.0063 J-0.0108
G2 X10.4044 Y19.9898 Z-1.3333 I-0.0125 J0.0
G2 Y20.0114 Z-1.3667 I0.0062 J0.0108
G2 X10.4232 Y20.0006 Z-1.4 I0.0063 J-0.0108
G2 X10.4044 Y19.9898 Z-1.4333 I-0.0125 J0.0
G2 Y20.0114 Z-1.4667 I0.0062 J0.0108
G2 X10.4232 Y20.0006 Z-1.5 I0.0063 J-0.0108
G2 X10.4044 Y19.9898 Z-1.5333 I-0.0125 J0.0
G2 Y20.0114 Z-1.5667 I0.0062 J0.0108
G2 X10.4232 Y20.0006 Z-1.6 I0.0063 J-0.0108
G2 X10.4044 Y19.9898 Z-1.6333 I-0.0125 J0.0
G2 Y20.0114 Z-1.6667 I0.0062 J0.0108
G2 X10.4232 Y20.0006 Z-1.7 I0.0063 J-0.0108
G2 X10.4044 Y19.9898 Z-1.7333 I-0.0125 J0.0
G2 Y20.0114 Z-1.7667 I0.0062 J0.0108
G2 X10.4232 Y20.0006 Z-1.8 I0.0063 J-0.0108
G2 X10.4044 Y19.9898 Z-1.8333 I-0.0125 J0.0
G2 Y20.0114 Z-1.8667 I0.0062 J0.0108
G2 X10.4232 Y20.0006 Z-1.9 I0.0063 J-0.0108
G2 X10.4044 Y19.9898 Z-1.9333 I-0.0125 J0.0
G2 Y20.0114 Z-1.9667 I0.0062 J0.0108
G2 X10.4232 Y20.0006 Z-2.0 I0.0063 J-0.0108
G2 X10.4044 Y19.9898 Z-2.0333 I-0.0125 J0.0
G2 Y20.0114 Z-2.0667 I0.0062 J0.0108
G2 X10.4232 Y20.0006 Z-2.1 I0.0063 J-0.0108
G2 X10.4044 Y19.9898 Z-2.1333 I-0.0125 J0.0
G2 Y20.0114 Z-2.1667 I0.0062 J0.0108
G2 X10.4232 Y20.0006 Z-2.2 I0.0063 J-0.0108
G2 X10.4044 Y19.9898 Z-2.2333 I-0.0125 J0.0
G2 Y20.0114 Z-2.2667 I0.0062 J0.0108
G2 X10.4232 Y20.0006 Z-2.3 I0.0063 J-0.0108
G2 X10.4044 Y19.9898 Z-2.3333 I-0.0125 J0.0
G2 Y20.0114 Z-2.3667 I0.0062 J0.0108
G2 X10.4232 Y20.0006 Z-2.4 I0.0063 J-0.0108
G2 X10.4044 Y19.9898 Z-2.4333 I-0.0125 J0.0
G2 Y20.0114 Z-2.4667 I0.0062 J0.0108
G2 X10.4232 Y20.0006 Z-2.5 I0.0063 J-0.0108
G2 X10.4044 Y19.9898 Z-2.5333 I-0.0125 J0.0
G2 Y20.0114 Z-2.5667 I0.0062 J0.0108
G2 X10.4232 Y20.0006 Z-2.6 I0.0063 J-0.0108
G2 X10.4044 Y19.9898 Z-2.6333 I-0.0125 J0.0
G2 Y20.0114 Z-2.6667 I0.0063 J0.0108
G2 X10.4232 Y20.0006 Z-2.7 I0.0062 J-0.0108
G2 X10.4044 Y19.9898 Z-2.7333 I-0.0125 J0.0
G2 Y20.0114 Z-2.7667 I0.0063 J0.0108
G2 X10.4232 Y20.0006 Z-2.8 I0.0062 J-0.0108
G2 X10.4044 Y19.9898 Z-2.8333 I-0.0125 J0.0
G2 Y20.0114 Z-2.8667 I0.0063 J0.0108
G2 X10.4232 Y20.0006 Z-2.9 I0.0062 J-0.0108
G2 X10.4044 Y19.9898 Z-2.9333 I-0.0125 J0.0
G2 Y20.0114 Z-2.9667 I0.0063 J0.0108
G2 X10.4232 Y20.0006 Z-3.0 I0.0062 J-0.0108
G2 X10.4044 Y19.9898 Z-3.0333 I-0.0125 J0.0
G2 Y20.0114 Z-3.0667 I0.0063 J0.0108
G2 X10.4232 Y20.0006 Z-3.1 I0.0062 J-0.0108
G2 X10.4044 Y19.9898 Z-3.1333 I-0.0125 J0.0
G2 Y20.0114 Z-3.1667 I0.0063 J0.0108
G2 X10.4232 Y20.0006 Z-3.2 I0.0062 J-0.0108
G2 X10.4044 Y19.9898 I-0.0125 J0.0
G2 Y20.0114 I0.0063 J0.0108
G2 X10.4232 Y20.0006 I0.0062 J-0.0108
G0 Z3.0
G0 X7.8521 Y3.0208
G1 F1000.0 Z0.0
G2 F2000.0 X7.8334 Y3.01 Z-0.0333 I-0.0125 J0.0
G2 Y3.0316 Z-0.0667 I0.0062 J0.0108
G2 X7.8521 Y3.0208 Z-0.1 I0.0063 J-0.0108
G2 X7.8334 Y3.01 Z-0.1333 I-0.0125 J0.0
G2 Y3.0316 Z-0.1667 I0.0062 J0.0108
G2 X7.8521 Y3.0208 Z-0.2 I0.0063 J-0.0108
G2 X7.8334 Y3.01 Z-0.2333 I-0.0125 J0.0
G2 Y3.0316 Z-0.2667 I0.0062 J0.0108
G2 X7.8521 Y3.0208 Z-0.3 I0.0063 J-0.0108
G2 X7.8334 Y3.01 Z-0.3333 I-0.0125 J0.0
G2 Y3.0316 Z-0.3667 I0.0063 J0.0108
G2 X7.8521 Y3.0208 Z-0.4 I0.0062 J-0.0108
G2 X7.8334 Y3.01 Z-0.4333 I-0.0125 J0.0
G2 Y3.0316 Z-0.4667 I0.0063 J0.0108
G2 X7.8521 Y3.0208 Z-0.5 I0.0062 J-0.0108
G2 X7.8334 Y3.01 Z-0.5333 I-0.0125 J0.0
G2 Y3.0316 Z-0.5667 I0.0063 J0.0108
G2 X7.8521 Y3.0208 Z-0.6 I0.0062 J-0.0108
G2 X7.8334 Y3.01 Z-0.6333 I-0.0125 J0.0
G2 Y3.0316 Z-0.6667 I0.0062 J0.0108
G2 X7.8521 Y3.0208 Z-0.7 I0.0063 J-0.0108
G2 X7.8334 Y3.01 Z-0.7333 I-0.0125 J0.0
G2 Y3.0316 Z-0.7667 I0.0062 J0.0108
G2 X7.8521 Y3.0208 Z-0.8 I0.0063 J-0.0108
G2 X7.8334 Y3.01 Z-0.8333 I-0.0125 J0.0
G2 Y3.0316 Z-0.8667 I0.0062 J0.0108
G2 X7.8521 Y3.0208 Z-0.9 I0.0063 J-0.0108
G2 X7.8334 Y3.01 Z-0.9333 I-0.0125 J0.0
G2 Y3.0316 Z-0.9667 I0.0062 J0.0108
G2 X7.8521 Y3.0208 Z-1.0 I0.0063 J-0.0108
G2 X7.8334 Y3.01 Z-1.0333 I-0.0125 J0.0
G2 Y3.0316 Z-1.0667 I0.0062 J0.0108
G2 X7.8521 Y3.0208 Z-1.1 I0.0063 J-0.0108
G2 X7.8334 Y3.01 Z-1.1333 I-0.0125 J0.0
G2 Y3.0316 Z-1.1667 I0.0062 J0.0108
G2 X7.8521 Y3.0208 Z-1.2 I0.0063 J-0.0108
G2 X7.8334 Y3.01 Z-1.2333 I-0.0125 J0.0
G2 Y3.0316 Z-1.2667 I0.0062 J0.0108
G2 X7.8521 Y3.0208 Z-1.3 I0.0063 J-0.0108
G2 X7.8334 Y3.01 Z-1.3333 I-0.0125 J0.0
G2 Y3.0316 Z-1.3667 I0.0062 J0.0108
G2 X7.8521 Y3.0208 Z-1.4 I0.0063 J-0.0108
G2 X7.8334 Y3.01 Z-1.4333 I-0.0125 J0.0
G2 Y3.0316 Z-1.4667 I0.0062 J0.0108
G2 X7.8521 Y3.0208 Z-1.5 I0.0063 J-0.0108
G2 X7.8334 Y3.01 Z-1.5333 I-0.0125 J0.0
G2 Y3.0316 Z-1.5667 I0.0062 J0.0108
G2 X7.8521 Y3.0208 Z-1.6 I0.0063 J-0.0108
G2 X7.8334 Y3.01 Z-1.6333 I-0.0125 J0.0
G2 Y3.0316 Z-1.6667 I0.0062 J0.0108
G2 X7.8521 Y3.0208 Z-1.7 I0.0063 J-0.0108
G2 X7.8334 Y3.01 Z-1.7333 I-0.0125 J0.0
G2 Y3.0316 Z-1.7667 I0.0062 J0.0108
G2 X7.8521 Y3.0208 Z-1.8 I0.0063 J-0.0108
G2 X7.8334 Y3.01 Z-1.8333 I-0.0125 J0.0
G2 Y3.0316 Z-1.8667 I0.0062 J0.0108
G2 X7.8521 Y3.0208 Z-1.9 I0.0063 J-0.0108
G2 X7.8334 Y3.01 Z-1.9333 I-0.0125 J0.0
G2 Y3.0316 Z-1.9667 I0.0062 J0.0108
G2 X7.8521 Y3.0208 Z-2.0 I0.0063 J-0.0108
G2 X7.8334 Y3.01 Z-2.0333 I-0.0125 J0.0
G2 Y3.0316 Z-2.0667 I0.0062 J0.0108
G2 X7.8521 Y3.0208 Z-2.1 I0.0063 J-0.0108
G2 X7.8334 Y3.01 Z-2.1333 I-0.0125 J0.0
G2 Y3.0316 Z-2.1667 I0.0062 J0.0108
G2 X7.8521 Y3.0208 Z-2.2 I0.0063 J-0.0108
G2 X7.8334 Y3.01 Z-2.2333 I-0.0125 J0.0
G2 Y3.0316 Z-2.2667 I0.0062 J0.0108
G2 X7.8521 Y3.0208 Z-2.3 I0.0063 J-0.0108
G2 X7.8334 Y3.01 Z-2.3333 I-0.0125 J0.0
G2 Y3.0316 Z-2.3667 I0.0063 J0.0108
G2 X7.8521 Y3.0208 Z-2.4 I0.0062 J-0.0108
G2 X7.8334 Y3.01 Z-2.4333 I-0.0125 J0.0
G2 Y3.0316 Z-2.4667 I0.0063 J0.0108
G2 X7.8521 Y3.0208 Z-2.5 I0.0062 J-0.0108
G2 X7.8334 Y3.01 Z-2.5333 I-0.0125 J0.0
G2 Y3.0316 Z-2.5667 I0.0063 J0.0108
G2 X7.8521 Y3.0208 Z-2.6 I0.0062 J-0.0108
G2 X7.8334 Y3.01 Z-2.6333 I-0.0125 J0.0
G2 Y3.0316 Z-2.6667 I0.0063 J0.0108
G2 X7.8521 Y3.0208 Z-2.7 I0.0062 J-0.0108
G2 X7.8334 Y3.01 Z-2.7333 I-0.0125 J0.0
G2 Y3.0316 Z-2.7667 I0.0063 J0.0108
G2 X7.8521 Y3.0208 Z-2.8 I0.0062 J-0.0108
G2 X7.8334 Y3.01 Z-2.8333 I-0.0125 J0.0
G2 Y3.0316 Z-2.8667 I0.0063 J0.0108
G2 X7.8521 Y3.0208 Z-2.9 I0.0062 J-0.0108
G2 X7.8334 Y3.01 Z-2.9333 I-0.0125 J0.0
G2 Y3.0316 Z-2.9667 I0.0063 J0.0108
G2 X7.8521 Y3.0208 Z-3.0 I0.0062 J-0.0108
G2 X7.8334 Y3.01 Z-3.0333 I-0.0125 J0.0
G2 Y3.0316 Z-3.0667 I0.0063 J0.0108
G2 X7.8521 Y3.0208 Z-3.1 I0.0062 J-0.0108
G2 X7.8334 Y3.01 Z-3.1333 I-0.0125 J0.0
G2 Y3.0316 Z-3.1667 I0.0063 J0.0108
G2 X7.8521 Y3.0208 Z-3.2 I0.0062 J-0.0108
G2 X7.8334 Y3.01 I-0.0125 J0.0
G2 Y3.0316 I0.0063 J0.0108
G2 X7.8521 Y3.0208 I0.0062 J-0.0108
G0 Z3.0
G0 X30.7193 Y19.9669
G1 F1000.0 Z0.0
G2 F2000.0 X30.7006 Y19.9561 Z-0.0333 I-0.0125 J0.0
G2 Y19.9778 Z-0.0667 I0.0062 J0.0108
G2 X30.7193 Y19.9669 Z-0.1 I0.0063 J-0.0108
G2 X30.7006 Y19.9561 Z-0.1333 I-0.0125 J0.0
G2 Y19.9778 Z-0.1667 I0.0062 J0.0108
G2 X30.7193 Y19.9669 Z-0.2 I0.0063 J-0.0108
G2 X30.7006 Y19.9561 Z-0.2333 I-0.0125 J0.0
G2 Y19.9778 Z-0.2667 I0.0062 J0.0108
G2 X30.7193 Y19.9669 Z-0.3 I0.0063 J-0.0108
G2 X30.7006 Y19.9561 Z-0.3333 I-0.0125 J0.0
G2 Y19.9778 Z-0.3667 I0.0062 J0.0108
G2 X30.7193 Y19.9669 Z-0.4 I0.0063 J-0.0108
G2 X30.7006 Y19.9561 Z-0.4333 I-0.0125 J0.0
G2 Y19.9778 Z-0.4667 I0.0062 J0.0108
G2 X30.7193 Y19.9669 Z-0.5 I0.0063 J-0.0108
G2 X30.7006 Y19.9561 Z-0.5333 I-0.0125 J0.0
G2 Y19.9778 Z-0.5667 I0.0062 J0.0108
G2 X30.7193 Y19.9669 Z-0.6 I0.0063 J-0.0108
G2 X30.7006 Y19.9561 Z-0.6333 I-0.0125 J0.0
G2 Y19.9778 Z-0.6667 I0.0062 J0.0108
G2 X30.7193 Y19.9669 Z-0.7 I0.0063 J-0.0108
G2 X30.7006 Y19.9561 Z-0.7333 I-0.0125 J0.0
G2 Y19.9778 Z-0.7667 I0.0062 J0.0108
G2 X30.7193 Y19.9669 Z-0.8 I0.0063 J-0.0108
G2 X30.7006 Y19.9561 Z-0.8333 I-0.0125 J0.0
G2 Y19.9778 Z-0.8667 I0.0062 J0.0108
G2 X30.7193 Y19.9669 Z-0.9 I0.0063 J-0.0108
G2 X30.7006 Y19.9561 Z-0.9333 I-0.0125 J0.0
G2 Y19.9778 Z-0.9667 I0.0062 J0.0108
G2 X30.7193 Y19.9669 Z-1.0 I0.0063 J-0.0108
G2 X30.7006 Y19.9561 Z-1.0333 I-0.0125 J0.0
G2 Y19.9778 Z-1.0667 I0.0062 J0.0108
G2 X30.7193 Y19.9669 Z-1.1 I0.0063 J-0.0108
G2 X30.7006 Y19.9561 Z-1.1333 I-0.0125 J0.0
G2 Y19.9778 Z-1.1667 I0.0062 J0.0108
G2 X30.7193 Y19.9669 Z-1.2 I0.0063 J-0.0108
G2 X30.7006 Y19.9561 Z-1.2333 I-0.0125 J0.0
G2 Y19.9778 Z-1.2667 I0.0062 J0.0108
G2 X30.7193 Y19.9669 Z-1.3 I0.0063 J-0.0108
G2 X30.7006 Y19.9561 Z-1.3333 I-0.0125 J0.0
G2 Y19.9778 Z-1.3667 I0.0062 J0.0108
G2 X30.7193 Y19.9669 Z-1.4 I0.0063 J-0.0108
G2 X30.7006 Y19.9561 Z-1.4333 I-0.0125 J0.0
G2 Y19.9778 Z-1.4667 I0.0062 J0.0108
G2 X30.7193 Y19.9669 Z-1.5 I0.0063 J-0.0108
G2 X30.7006 Y19.9561 Z-1.5333 I-0.0125 J0.0
G2 Y19.9778 Z-1.5667 I0.0062 J0.0108
G2 X30.7193 Y19.9669 Z-1.6 I0.0063 J-0.0108
G2 X30.7006 Y19.9561 Z-1.6333 I-0.0125 J0.0
G2 Y19.9778 Z-1.6667 I0.0062 J0.0108
G2 X30.7193 Y19.9669 Z-1.7 I0.0063 J-0.0108
G2 X30.7006 Y19.9561 Z-1.7333 I-0.0125 J0.0
G2 Y19.9778 Z-1.7667 I0.0062 J0.0108
G2 X30.7193 Y19.9669 Z-1.8 I0.0063 J-0.0108
G2 X30.7006 Y19.9561 Z-1.8333 I-0.0125 J0.0
G2 Y19.9778 Z-1.8667 I0.0062 J0.0108
G2 X30.7193 Y19.9669 Z-1.9 I0.0063 J-0.0108
G2 X30.7006 Y19.9561 Z-1.9333 I-0.0125 J0.0
G2 Y19.9778 Z-1.9667 I0.0062 J0.0108
G2 X30.7193 Y19.9669 Z-2.0 I0.0063 J-0.0108
G2 X30.7006 Y19.9561 Z-2.0333 I-0.0125 J0.0
G2 Y19.9778 Z-2.0667 I0.0062 J0.0108
G2 X30.7193 Y19.9669 Z-2.1 I0.0063 J-0.0108
G2 X30.7006 Y19.9561 Z-2.1333 I-0.0125 J0.0
G2 Y19.9778 Z-2.1667 I0.0062 J0.0108
G2 X30.7193 Y19.9669 Z-2.2 I0.0063 J-0.0108
G2 X30.7006 Y19.9561 Z-2.2333 I-0.0125 J0.0
G2 Y19.9778 Z-2.2667 I0.0062 J0.0108
G2 X30.7193 Y19.9669 Z-2.3 I0.0063 J-0.0108
G2 X30.7006 Y19.9561 Z-2.3333 I-0.0125 J0.0
G2 Y19.9778 Z-2.3667 I0.0062 J0.0108
G2 X30.7193 Y19.9669 Z-2.4 I0.0063 J-0.0108
G2 X30.7006 Y19.9561 Z-2.4333 I-0.0125 J0.0
G2 Y19.9778 Z-2.4667 I0.0063 J0.0108
G2 X30.7193 Y19.9669 Z-2.5 I0.0062 J-0.0108
G2 X30.7006 Y19.9561 Z-2.5333 I-0.0125 J0.0
G2 Y19.9778 Z-2.5667 I0.0063 J0.0108
G2 X30.7193 Y19.9669 Z-2.6 I0.0062 J-0.0108
G2 X30.7006 Y19.9561 Z-2.6333 I-0.0125 J0.0
G2 Y19.9778 Z-2.6667 I0.0063 J0.0108
G2 X30.7193 Y19.9669 Z-2.7 I0.0062 J-0.0108
G2 X30.7006 Y19.9561 Z-2.7333 I-0.0125 J0.0
G2 Y19.9778 Z-2.7667 I0.0063 J0.0108
G2 X30.7193 Y19.9669 Z-2.8 I0.0062 J-0.0108
G2 X30.7006 Y19.9561 Z-2.8333 I-0.0125 J0.0
G2 Y19.9778 Z-2.8667 I0.0063 J0.0108
G2 X30.7193 Y19.9669 Z-2.9 I0.0062 J-0.0108
G2 X30.7006 Y19.9561 Z-2.9333 I-0.0125 J0.0
G2 Y19.9778 Z-2.9667 I0.0063 J0.0108
G2 X30.7193 Y19.9669 Z-3.0 I0.0062 J-0.0108
G2 X30.7006 Y19.9561 Z-3.0333 I-0.0125 J0.0
G2 Y19.9778 Z-3.0667 I0.0063 J0.0108
G2 X30.7193 Y19.9669 Z-3.1 I0.0062 J-0.0108
G2 X30.7006 Y19.9561 Z-3.1333 I-0.0125 J0.0
G2 Y19.9778 Z-3.1667 I0.0063 J0.0108
G2 X30.7193 Y19.9669 Z-3.2 I0.0062 J-0.0108
G2 X30.7006 Y19.9561 I-0.0125 J0.0
G2 Y19.9778 I0.0063 J0.0108
G2 X30.7193 Y19.9669 I0.0062 J-0.0108
( cutout )
S1000
G0 Z3.0
G0 X53.7193 Y0.0144
G1 F1000.0 Z-0.1
G1 F2000.0 Y128.457
G3 X52.1318 Y130.0445 I-1.5875 J0.0
G1 X0.347
G3 X-1.2405 Y128.457 I0.0 J-1.5875
G1 Y0.0144
G3 X0.347 Y-1.5731 I1.5875 J0.0
G1 X52.1318
G3 X53.7193 Y0.0144 I0.0 J1.5875
G1 F1000.0 Z-0.2
G1 F2000.0 Y128.457
G3 X52.1318 Y130.0445 I-1.5875 J0.0
G1 X0.347
G3 X-1.2405 Y128.457 I0.0 J-1.5875
G1 Y0.0144
G3 X0.347 Y-1.5731 I1.5875 J0.0
G1 X52.1318
G3 X53.7193 Y0.0144 I0.0 J1.5875
G1 F1000.0 Z-0.3
G1 F2000.0 Y128.457
G3 X52.1318 Y130.0445 I-1.5875 J0.0
G1 X0.347
G3 X-1.2405 Y128.457 I0.0 J-1.5875
G1 Y0.0144
G3 X0.347 Y-1.5731 I1.5875 J0.0
G1 X52.1318
G3 X53.7193 Y0.0144 I0.0 J1.5875
G1 F1000.0 Z-0.4
G1 F2000.0 Y128.457
G3 X52.1318 Y130.0445 I-1.5875 J0.0
G1 X0.347
G3 X-1.2405 Y128.457 I0.0 J-1.5875
G1 Y0.0144
G3 X0.347 Y-1.5731 I1.5875 J0.0
G1 X52.1318
G3 X53.7193 Y0.0144 I0.0 J1.5875
G1 F1000.0 Z-0.5
G1 F2000.0 Y128.457
G3 X52.1318 Y130.0445 I-1.5875 J0.0
G1 X0.347
G3 X-1.2405 Y128.457 I0.0 J-1.5875
G1 Y0.0144
G3 X0.347 Y-1.5731 I1.5875 J0.0
G1 X52.1318
G3 X53.7193 Y0.0144 I0.0 J1.5875
G1 F1000.0 Z-0.6
G1 F2000.0 Y128.457
G3 X52.1318 Y130.0445 I-1.5875 J0.0
G1 X0.347
G3 X-1.2405 Y128.457 I0.0 J-1.5875
G1 Y0.0144
G3 X0.347 Y-1.5731 I1.5875 J0.0
G1 X52.1318
G3 X53.7193 Y0.0144 I0.0 J1.5875
G1 F1000.0 Z-0.7
G1 F2000.0 Y128.457
G3 X52.1318 Y130.0445 I-1.5875 J0.0
G1 X0.347
G3 X-1.2405 Y128.457 I0.0 J-1.5875
G1 Y0.0144
G3 X0.347 Y-1.5731 I1.5875 J0.0
G1 X52.1318
G3 X53.7193 Y0.0144 I0.0 J1.5875
G1 F1000.0 Z-0.8
G1 F2000.0 Y128.457
G3 X52.1318 Y130.0445 I-1.5875 J0.0
G1 X0.347
G3 X-1.2405 Y128.457 I0.0 J-1.5875
G1 Y0.0144
G3 X0.347 Y-1.5731 I1.5875 J0.0
G1 X52.1318
G3 X53.7193 Y0.0144 I0.0 J1.5875
G1 F1000.0 Z-0.9
G1 F2000.0 Y128.457
G3 X52.1318 Y130.0445 I-1.5875 J0.0
G1 X0.347
G3 X-1.2405 Y128.457 I0.0 J-1.5875
G1 Y0.0144
G3 X0.347 Y-1.5731 I1.5875 J0.0
G1 X52.1318
G3 X53.7193 Y0.0144 I0.0 J1.5875
G1 F1000.0 Z-1.0
G1 F2000.0 Y128.457
G3 X52.1318 Y130.0445 I-1.5875 J0.0
G1 X0.347
G3 X-1.2405 Y128.457 I0.0 J-1.5875
G1 Y0.0144
G3 X0.347 Y-1.5731 I1.5875 J0.0
G1 X52.1318
G3 X53.7193 Y0.0144 I0.0 J1.5875
G1 F1000.0 Z-1.1
G1 F2000.0 Y128.457
G3 X52.1318 Y130.0445 I-1.5875 J0.0
G1 X0.347
G3 X-1.2405 Y128.457 I0.0 J-1.5875
G1 Y0.0144
G3 X0.347 Y-1.5731 I1.5875 J0.0
G1 X52.1318
G3 X53.7193 Y0.0144 I0.0 J1.5875
G1 F1000.0 Z-1.2
G1 F2000.0 Y128.457
G3 X52.1318 Y130.0445 I-1.5875 J0.0
G1 X0.347
G3 X-1.2405 Y128.457 I0.0 J-1.5875
G1 Y0.0144
G3 X0.347 Y-1.5731 I1.5875 J0.0
G1 X52.1318
G3 X53.7193 Y0.0144 I0.0 J1.5875
G1 F1000.0 Z-1.3
G1 F2000.0 Y128.457
G3 X52.1318 Y130.0445 I-1.5875 J0.0
G1 X0.347
G3 X-1.2405 Y128.457 I0.0 J-1.5875
G1 Y0.0144
G3 X0.347 Y-1.5731 I1.5875 J0.0
G1 X52.1318
G3 X53.7193 Y0.0144 I0.0 J1.5875
G1 F1000.0 Z-1.4
G1 F2000.0 Y128.457
G3 X52.1318 Y130.0445 I-1.5875 J0.0
G1 X0.347
G3 X-1.2405 Y128.457 I0.0 J-1.5875
G1 Y0.0144
G3 X0.347 Y-1.5731 I1.5875 J0.0
G1 X52.1318
G3 X53.7193 Y0.0144 I0.0 J1.5875
G1 F1000.0 Z-1.5
G1 F2000.0 Y128.457
G3 X52.1318 Y130.0445 I-1.5875 J0.0
G1 X0.347
G3 X-1.2405 Y128.457 I0.0 J-1.5875
G1 Y0.0144
G3 X0.347 Y-1.5731 I1.5875 J0.0
G1 X52.1318
G3 X53.7193 Y0.0144 I0.0 J1.5875
G1 F1000.0 Z-1.6
G1 F2000.0 Y128.457
G3 X52.1318 Y130.0445 I-1.5875 J0.0
G1 X0.347
G3 X-1.2405 Y128.457 I0.0 J-1.5875
G1 Y0.0144
G3 X0.347 Y-1.5731 I1.5875 J0.0
G1 X52.1318
G3 X53.7193 Y0.0144 I0.0 J1.5875
G1 F1000.0 Z-1.7
G1 F2000.0 Y128.457
G3 X52.1318 Y130.0445 I-1.5875 J0.0
G1 X0.347
G3 X-1.2405 Y128.457 I0.0 J-1.5875
G1 Y0.0144
G3 X0.347 Y-1.5731 I1.5875 J0.0
G1 X52.1318
G3 X53.7193 Y0.0144 I0.0 J1.5875
G1 F1000.0 Z-1.8
G1 F2000.0 Y128.457
G3 X52.1318 Y130.0445 I-1.5875 J0.0
G1 X0.347
G3 X-1.2405 Y128.457 I0.0 J-1.5875
G1 Y0.0144
G3 X0.347 Y-1.5731 I1.5875 J0.0
G1 X52.1318
G3 X53.7193 Y0.0144 I0.0 J1.5875
G1 F1000.0 Z-1.9
G1 F2000.0 Y128.457
G3 X52.1318 Y130.0445 I-1.5875 J0.0
G1 X0.347
G3 X-1.2405 Y128.457 I0.0 J-1.5875
G1 Y0.0144
G3 X0.347 Y-1.5731 I1.5875 J0.0
G1 X52.1318
G3 X53.7193 Y0.0144 I0.0 J1.5875
G1 F1000.0 Z-2.0
G1 F2000.0 Y128.457
G3 X52.1318 Y130.0445 I-1.5875 J0.0
G1 X0.347
G3 X-1.2405 Y128.457 I0.0 J-1.5875
G1 Y0.0144
G3 X0.347 Y-1.5731 I1.5875 J0.0
G1 X52.1318
G3 X53.7193 Y0.0144 I0.0 J1.5875
G1 F1000.0 Z-2.1
G1 F2000.0 Y128.457
G3 X52.1318 Y130.0445 I-1.5875 J0.0
G1 X0.347
G3 X-1.2405 Y128.457 I0.0 J-1.5875
G1 Y0.0144
G3 X0.347 Y-1.5731 I1.5875 J0.0
G1 X52.1318
G3 X53.7193 Y0.0144 I0.0 J1.5875
G1 F1000.0 Z-2.2
G1 F2000.0 Y128.457
G3 X52.1318 Y130.0445 I-1.5875 J0.0
G1 X0.347
G3 X-1.2405 Y128.457 I0.0 J-1.5875
G1 Y0.0144
G3 X0.347 Y-1.5731 I1.5875 J0.0
G1 X52.1318
G3 X53.7193 Y0.0144 I0.0 J1.5875
G1 F1000.0 Z-2.3
G1 F2000.0 Y128.457
G3 X52.1318 Y130.0445 I-1.5875 J0.0
G1 X0.347
G3 X-1.2405 Y128.457 I0.0 J-1.5875
G1 Y0.0144
G3 X0.347 Y-1.5731 I1.5875 J0.0
G1 X52.1318
G3 X53.7193 Y0.0144 I0.0 J1.5875
G1 F1000.0 Z-2.4
G1 F2000.0 Y128.457
G3 X52.1318 Y130.0445 I-1.5875 J0.0
G1 X0.347
G3 X-1.2405 Y128.457 I0.0 J-1.5875
G1 Y0.0144
G3 X0.347 Y-1.5731 I1.5875 J0.0
G1 X52.1318
G3 X53.7193 Y0.0144 I0.0 J1.5875
G1 F1000.0 Z-2.5
G1 F2000.0 Y128.457
G3 X52.1318 Y130.0445 I-1.5875 J0.0
G1 X0.347
G3 X-1.2405 Y128.457 I0.0 J-1.5875
G1 Y0.0144
G3 X0.347 Y-1.5731 I1.5875 J0.0
G1 X52.1318
G3 X53.7193 Y0.0144 I0.0 J1.5875
G1 F1000.0 Z-2.6
G1 F2000.0 Y128.457
G3 X52.1318 Y130.0445 I-1.5875 J0.0
G1 X0.347
G3 X-1.2405 Y128.457 I0.0 J-1.5875
G1 Y0.0144
G3 X0.347 Y-1.5731 I1.5875 J0.0
G1 X52.1318
G3 X53.7193 Y0.0144 I0.0 J1.5875
G1 F1000.0 Z-2.7
G1 F2000.0 Y128.457
G3 X52.1318 Y130.0445 I-1.5875 J0.0
G1 X0.347
G3 X-1.2405 Y128.457 I0.0 J-1.5875
G1 Y0.0144
G3 X0.347 Y-1.5731 I1.5875 J0.0
G1 X52.1318
G3 X53.7193 Y0.0144 I0.0 J1.5875
G1 F1000.0 Z-2.8
G1 F2000.0 Y128.457
G3 X52.1318 Y130.0445 I-1.5875 J0.0
G1 X0.347
G3 X-1.2405 Y128.457 I0.0 J-1.5875
G1 Y0.0144
G3 X0.347 Y-1.5731 I1.5875 J0.0
G1 X52.1318
G3 X53.7193 Y0.0144 I0.0 J1.5875
G1 F1000.0 Z-2.9
G1 F2000.0 Y128.457
G3 X52.1318 Y130.0445 I-1.5875 J0.0
G1 X0.347
G3 X-1.2405 Y128.457 I0.0 J-1.5875
G1 Y0.0144
G3 X0.347 Y-1.5731 I1.5875 J0.0
G1 X52.1318
G3 X53.7193 Y0.0144 I0.0 J1.5875
G1 F1000.0 Z-3.0
G1 F2000.0 Y128.457
G3 X52.1318 Y130.0445 I-1.5875 J0.0
G1 X0.347
G3 X-1.2405 Y128.457 I0.0 J-1.5875
G1 Y0.0144
G3 X0.347 Y-1.5731 I1.5875 J0.0
G1 X52.1318
G3 X53.7193 Y0.0144 I0.0 J1.5875
G1 F1000.0 Z-3.1
G1 F2000.0 Y128.457
G3 X52.1318 Y130.0445 I-1.5875 J0.0
G1 X0.347
G3 X-1.2405 Y128.457 I0.0 J-1.5875
G1 Y0.0144
G3 X0.347 Y-1.5731 I1.5875 J0.0
G1 X52.1318
G3 X53.7193 Y0.0144 I0.0 J1.5875
G1 F1000.0 Z-3.2
G1 F2000.0 Y128.457
G3 X52.1318 Y130.0445 I-1.5875 J0.0
G1 X0.347
G3 X-1.2405 Y128.457 I0.0 J-1.5875
G1 Y0.0144
G3 X0.347 Y-1.5731 I1.5875 J0.0
G1 X52.1318
G3 X53.7193 Y0.0144 I0.0 J1.5875
G0 Z3.0
M5
M30
