(/Applications/pcbgcode.repo/pcb-gcode.ulp)
(Copyright 2005 - 2012 by John Johnson)
(See readme.txt for licensing terms.)
(This file generated from the board:)
(.../eurorack/4chan_mixer/4chan_mixer.brd)
(Current profile is .../pcbgcode.repo/profiles/mach.pp  )
(This file generated 1/31/15 12:23 PM)
(Settings from pcb-machine.h)
(spindle on time = 0.0000)
(  Tool Size)
(0.0100  )
(spindle speed = 30000.0000)
(tool change at 0.0000  0.0000  3.0000  )
(feed rate xy = F20    )
(feed rate z  = F10    )
(Z Axis Settings)
(  High     Up        Down     Drill)
(1.0000  	0.0500  	-0.0040 	-0.0730 )
(Settings from pcb-defaults.h)
(isolate min = 0.0010)
(isolate max = 0.0100)
(isolate step = 0.0010)
(Generated bottom outlines, bottom drill, )
(Unit of measure: inch)
(Inch Mode)
G20
(Absolute Coordinates)
G90
S30000
G00 Z1.0000  
G00 X0.0000  Y0.0000  
M03
G04 P0.000000
G00 Z0.0500  
G00 X-0.2180 Y2.7367  
G01 Z-0.0040 F10    
G01 X-0.2367 Y2.7180  F20    
G01 X-0.2633 Y2.7180  
G01 X-0.2820 Y2.7367  
G01 X-0.2820 Y2.7633  
G01 X-0.2637 Y2.7815  
G01 X-0.1937 Y3.0224  
G01 X-0.1951 Y3.0243  
G01 X-0.1986 Y3.0312  
G01 X-0.2009 Y3.0385  
G01 X-0.2021 Y3.0461  
G01 X-0.2021 Y3.0539  
G01 X-0.2009 Y3.0615  
G01 X-0.1986 Y3.0688  
G01 X-0.1951 Y3.0757  
G01 X-0.1905 Y3.0819  
G01 X-0.1851 Y3.0874  
G01 X-0.1788 Y3.0919  
G01 X-0.1720 Y3.0954  
G01 X-0.1646 Y3.0978  
G01 X-0.1570 Y3.0990  
G01 X-0.1493 Y3.0990  
G01 X-0.1417 Y3.0978  
G01 X-0.1343 Y3.0954  
G01 X-0.1275 Y3.0919  
G01 X-0.1212 Y3.0874  
G01 X-0.1158 Y3.0819  
G01 X-0.1112 Y3.0757  
G01 X-0.1077 Y3.0688  
G01 X-0.1054 Y3.0615  
G01 X-0.1041 Y3.0539  
G01 X-0.1041 Y3.0461  
G01 X-0.1054 Y3.0385  
G01 X-0.1077 Y3.0312  
G01 X-0.1112 Y3.0243  
G01 X-0.1158 Y3.0181  
G01 X-0.1212 Y3.0126  
G01 X-0.1275 Y3.0081  
G01 X-0.1343 Y3.0046  
G01 X-0.1417 Y3.0022  
G01 X-0.1493 Y3.0010  
G01 X-0.1541 Y3.0010  
G01 X-0.2221 Y2.7673  
G01 X-0.2180 Y2.7633  
G01 X-0.2180 Y2.7367  
G00 Z0.0500  
G00 X-0.4180 Y2.7367  
G01 Z-0.0040 F10    
G01 X-0.4280 Y2.7267  F20    
G01 X-0.4280 Y2.6466  
G01 X-0.4015 Y2.6201  
G01 X-0.4015 Y2.5799  
G01 X-0.4299 Y2.5515  
G01 X-0.4701 Y2.5515  
G01 X-0.4985 Y2.5799  
G01 X-0.4985 Y2.6201  
G01 X-0.4720 Y2.6466  
G01 X-0.4720 Y2.7267  
G01 X-0.4820 Y2.7367  
G01 X-0.4820 Y2.7633  
G01 X-0.4633 Y2.7820  
G01 X-0.4367 Y2.7820  
G01 X-0.4180 Y2.7633  
G01 X-0.4180 Y2.7367  
G00 Z0.0500  
G00 X-0.6299 Y2.6485  
G01 Z-0.0040 F10    
G01 X-0.6015 Y2.6201  F20    
G01 X-0.6015 Y2.5799  
G01 X-0.6299 Y2.5515  
G01 X-0.6701 Y2.5515  
G01 X-0.6966 Y2.5780  
G01 X-0.7767 Y2.5780  
G01 X-0.7867 Y2.5680  
G01 X-0.8133 Y2.5680  
G01 X-0.8320 Y2.5867  
G01 X-0.8320 Y2.6133  
G01 X-0.8133 Y2.6320  
G01 X-0.7867 Y2.6320  
G01 X-0.7767 Y2.6220  
G01 X-0.6966 Y2.6220  
G01 X-0.6701 Y2.6485  
G01 X-0.6299 Y2.6485  
G00 Z0.0500  
G00 X-0.6203 Y2.8401  
G01 Z-0.0040 F10    
G01 X-0.7680 Y2.7445  F20    
G01 X-0.7680 Y2.7367  
G01 X-0.7867 Y2.7180  
G01 X-0.8133 Y2.7180  
G01 X-0.8320 Y2.7367  
G01 X-0.8320 Y2.7633  
G01 X-0.8133 Y2.7820  
G01 X-0.7910 Y2.7820  
G01 X-0.6422 Y2.8783  
G01 X-0.3986 Y3.0436  
G01 X-0.3990 Y3.0461  
G01 X-0.3990 Y3.0539  
G01 X-0.3978 Y3.0615  
G01 X-0.3954 Y3.0688  
G01 X-0.3919 Y3.0757  
G01 X-0.3874 Y3.0819  
G01 X-0.3819 Y3.0874  
G01 X-0.3757 Y3.0919  
G01 X-0.3688 Y3.0954  
G01 X-0.3615 Y3.0978  
G01 X-0.3539 Y3.0990  
G01 X-0.3461 Y3.0990  
G01 X-0.3385 Y3.0978  
G01 X-0.3312 Y3.0954  
G01 X-0.3243 Y3.0919  
G01 X-0.3181 Y3.0874  
G01 X-0.3126 Y3.0819  
G01 X-0.3081 Y3.0757  
G01 X-0.3046 Y3.0688  
G01 X-0.3022 Y3.0615  
G01 X-0.3010 Y3.0539  
G01 X-0.3010 Y3.0461  
G01 X-0.3022 Y3.0385  
G01 X-0.3046 Y3.0312  
G01 X-0.3081 Y3.0243  
G01 X-0.3126 Y3.0181  
G01 X-0.3181 Y3.0126  
G01 X-0.3243 Y3.0081  
G01 X-0.3312 Y3.0046  
G01 X-0.3385 Y3.0022  
G01 X-0.3461 Y3.0010  
G01 X-0.3539 Y3.0010  
G01 X-0.3615 Y3.0022  
G01 X-0.3688 Y3.0046  
G01 X-0.3739 Y3.0072  
G01 X-0.6155 Y2.8433  
G01 X-0.6156 Y2.8431  
G01 X-0.6178 Y2.8417  
G01 X-0.6200 Y2.8402  
G01 X-0.6203 Y2.8401  
G00 Z0.0500  
G00 X-0.5745 Y3.0095  
G01 Z-0.0040 F10    
G01 X-0.8830 Y2.7838  F20    
G01 X-0.8830 Y2.5350  
G01 X-0.8830 Y2.5321  
G01 X-0.8837 Y2.5293  
G01 X-0.8845 Y2.5265  
G01 X-0.8859 Y2.5240  
G01 X-0.8874 Y2.5215  
G01 X-0.8895 Y2.5194  
G01 X-0.8915 Y2.5174  
G01 X-0.8940 Y2.5159  
G01 X-1.0701 Y2.4140  
G01 X-1.0440 Y2.2918  
G01 X-1.0437 Y2.2912  
G01 X-1.0434 Y2.2890  
G01 X-1.0429 Y2.2868  
G01 X-1.0429 Y2.2861  
G01 X-1.0428 Y2.2854  
G01 X-1.0431 Y2.2832  
G01 X-1.0432 Y2.2810  
G01 X-1.0434 Y2.2804  
G01 X-1.0435 Y2.2797  
G01 X-1.0443 Y2.2776  
G01 X-1.0450 Y2.2755  
G01 X-1.0453 Y2.2749  
G01 X-1.0456 Y2.2743  
G01 X-1.0469 Y2.2725  
G01 X-1.0481 Y2.2706  
G01 X-1.0486 Y2.2702  
G01 X-1.0490 Y2.2696  
G01 X-1.0507 Y2.2682  
G01 X-1.0524 Y2.2667  
G01 X-1.0530 Y2.2664  
G01 X-1.4003 Y1.9886  
G01 X-1.4015 Y1.9874  
G01 X-1.4026 Y1.9868  
G01 X-1.4035 Y1.9860  
G01 X-1.4051 Y1.9853  
G01 X-1.4065 Y1.9845  
G01 X-1.4077 Y1.9842  
G01 X-1.4088 Y1.9837  
G01 X-1.4105 Y1.9834  
G01 X-1.4121 Y1.9830  
G01 X-1.4133 Y1.9830  
G01 X-1.4146 Y1.9828  
G01 X-1.4162 Y1.9830  
G01 X-3.0632 Y1.9830  
G01 X-3.0643 Y1.9828  
G01 X-3.0661 Y1.9830  
G01 X-3.0679 Y1.9830  
G01 X-3.0690 Y1.9833  
G01 X-3.0701 Y1.9834  
G01 X-3.0718 Y1.9840  
G01 X-3.0735 Y1.9845  
G01 X-3.0745 Y1.9851  
G01 X-3.0755 Y1.9854  
G01 X-3.0769 Y1.9865  
G01 X-3.0785 Y1.9874  
G01 X-3.0793 Y1.9882  
G01 X-3.0802 Y1.9888  
G01 X-3.0813 Y1.9902  
G01 X-3.0826 Y1.9915  
G01 X-3.0832 Y1.9925  
G01 X-3.1713 Y2.1002  
G01 X-3.1726 Y2.1015  
G01 X-3.1732 Y2.1025  
G01 X-3.1739 Y2.1033  
G01 X-3.1746 Y2.1050  
G01 X-3.1755 Y2.1065  
G01 X-3.1758 Y2.1076  
G01 X-3.1762 Y2.1086  
G01 X-3.1765 Y2.1104  
G01 X-3.1770 Y2.1121  
G01 X-3.1770 Y2.1132  
G01 X-3.1772 Y2.1143  
G01 X-3.1770 Y2.1161  
G01 X-3.1770 Y2.5124  
G01 X-3.1771 Y2.5128  
G01 X-3.1770 Y2.5140  
G01 X-3.1772 Y2.5152  
G01 X-3.1770 Y2.5166  
G01 X-3.1770 Y2.5179  
G01 X-3.1769 Y2.5182  
G01 X-3.1769 Y2.5186  
G01 X-3.1765 Y2.5198  
G01 X-3.1735 Y2.5414  
G01 X-3.2479 Y2.6070  
G01 X-3.2485 Y2.6074  
G01 X-3.2501 Y2.6090  
G01 X-3.2517 Y2.6104  
G01 X-3.2521 Y2.6110  
G01 X-3.2526 Y2.6115  
G01 X-3.2537 Y2.6134  
G01 X-3.2549 Y2.6152  
G01 X-3.2552 Y2.6159  
G01 X-3.2555 Y2.6165  
G01 X-3.2561 Y2.6186  
G01 X-3.2568 Y2.6207  
G01 X-3.2568 Y2.6214  
G01 X-3.2570 Y2.6221  
G01 X-3.2570 Y2.6243  
G01 X-3.2571 Y2.6265  
G01 X-3.2570 Y2.6272  
G01 X-3.2570 Y3.0020  
G01 X-3.2583 Y3.0022  
G01 X-3.2657 Y3.0046  
G01 X-3.2725 Y3.0081  
G01 X-3.2788 Y3.0126  
G01 X-3.2842 Y3.0181  
G01 X-3.2888 Y3.0243  
G01 X-3.2923 Y3.0312  
G01 X-3.2946 Y3.0385  
G01 X-3.2959 Y3.0461  
G01 X-3.2959 Y3.0539  
G01 X-3.2946 Y3.0615  
G01 X-3.2923 Y3.0688  
G01 X-3.2888 Y3.0757  
G01 X-3.2842 Y3.0819  
G01 X-3.2788 Y3.0874  
G01 X-3.2725 Y3.0919  
G01 X-3.2657 Y3.0954  
G01 X-3.2583 Y3.0978  
G01 X-3.2507 Y3.0990  
G01 X-3.2430 Y3.0990  
G01 X-3.2354 Y3.0978  
G01 X-3.2280 Y3.0954  
G01 X-3.2212 Y3.0919  
G01 X-3.2149 Y3.0874  
G01 X-3.2095 Y3.0819  
G01 X-3.2049 Y3.0757  
G01 X-3.2014 Y3.0688  
G01 X-3.1991 Y3.0615  
G01 X-3.1979 Y3.0539  
G01 X-3.1979 Y3.0461  
G01 X-3.1991 Y3.0385  
G01 X-3.2014 Y3.0312  
G01 X-3.2049 Y3.0243  
G01 X-3.2095 Y3.0181  
G01 X-3.2130 Y3.0146  
G01 X-3.2130 Y2.6349  
G01 X-3.1509 Y2.5802  
G01 X-3.0926 Y2.6385  
G01 X-3.0885 Y2.6426  
G01 X-3.0835 Y2.6455  
G01 X-3.0779 Y2.6470  
G01 X-2.5791 Y2.6470  
G01 X-2.3372 Y2.8889  
G01 X-2.3584 Y3.0022  
G01 X-2.3657 Y3.0046  
G01 X-2.3725 Y3.0081  
G01 X-2.3788 Y3.0126  
G01 X-2.3842 Y3.0181  
G01 X-2.3888 Y3.0243  
G01 X-2.3923 Y3.0312  
G01 X-2.3946 Y3.0385  
G01 X-2.3959 Y3.0461  
G01 X-2.3959 Y3.0539  
G01 X-2.3946 Y3.0615  
G01 X-2.3923 Y3.0688  
G01 X-2.3888 Y3.0757  
G01 X-2.3842 Y3.0819  
G01 X-2.3788 Y3.0874  
G01 X-2.3725 Y3.0919  
G01 X-2.3657 Y3.0954  
G01 X-2.3583 Y3.0978  
G01 X-2.3507 Y3.0990  
G01 X-2.3430 Y3.0990  
G01 X-2.3354 Y3.0978  
G01 X-2.3280 Y3.0954  
G01 X-2.3212 Y3.0919  
G01 X-2.3149 Y3.0874  
G01 X-2.3095 Y3.0819  
G01 X-2.3049 Y3.0757  
G01 X-2.3014 Y3.0688  
G01 X-2.2991 Y3.0615  
G01 X-2.2979 Y3.0539  
G01 X-2.2979 Y3.0461  
G01 X-2.2991 Y3.0385  
G01 X-2.3014 Y3.0312  
G01 X-2.3049 Y3.0243  
G01 X-2.3095 Y3.0181  
G01 X-2.3149 Y3.0126  
G01 X-2.3155 Y3.0122  
G01 X-2.2946 Y2.9008  
G01 X-2.1518 Y2.7678  
G01 X-2.1515 Y2.7676  
G01 X-2.1497 Y2.7658  
G01 X-2.1479 Y2.7641  
G01 X-2.1477 Y2.7638  
G01 X-2.1474 Y2.7635  
G01 X-2.1461 Y2.7613  
G01 X-2.1448 Y2.7592  
G01 X-2.1447 Y2.7588  
G01 X-2.1445 Y2.7585  
G01 X-2.1439 Y2.7561  
G01 X-2.1431 Y2.7537  
G01 X-2.1431 Y2.7533  
G01 X-2.1430 Y2.7529  
G01 X-2.1430 Y2.7504  
G01 X-2.1429 Y2.7479  
G01 X-2.1430 Y2.7475  
G01 X-2.1430 Y2.7337  
G01 X-2.0146 Y2.5961  
G01 X-1.8332 Y2.5779  
G01 X-1.7816 Y2.6295  
G01 X-1.7183 Y2.7122  
G01 X-1.7176 Y2.7135  
G01 X-1.7166 Y2.7145  
G01 X-1.7157 Y2.7157  
G01 X-1.7145 Y2.7166  
G01 X-1.6520 Y2.7791  
G01 X-1.6520 Y2.7883  
G01 X-1.6522 Y2.7894  
G01 X-1.6520 Y2.7912  
G01 X-1.6520 Y2.7929  
G01 X-1.6517 Y2.7940  
G01 X-1.6516 Y2.7952  
G01 X-1.6510 Y2.7968  
G01 X-1.6505 Y2.7985  
G01 X-1.6499 Y2.7995  
G01 X-1.6495 Y2.8006  
G01 X-1.6485 Y2.8020  
G01 X-1.6476 Y2.8035  
G01 X-1.6468 Y2.8043  
G01 X-1.4881 Y3.0226  
G01 X-1.4878 Y3.0230  
G01 X-1.4888 Y3.0243  
G01 X-1.4923 Y3.0312  
G01 X-1.4946 Y3.0385  
G01 X-1.4959 Y3.0461  
G01 X-1.4959 Y3.0539  
G01 X-1.4946 Y3.0615  
G01 X-1.4923 Y3.0688  
G01 X-1.4888 Y3.0757  
G01 X-1.4842 Y3.0819  
G01 X-1.4788 Y3.0874  
G01 X-1.4725 Y3.0919  
G01 X-1.4657 Y3.0954  
G01 X-1.4583 Y3.0978  
G01 X-1.4507 Y3.0990  
G01 X-1.4430 Y3.0990  
G01 X-1.4354 Y3.0978  
G01 X-1.4280 Y3.0954  
G01 X-1.4212 Y3.0919  
G01 X-1.4149 Y3.0874  
G01 X-1.4095 Y3.0819  
G01 X-1.4049 Y3.0757  
G01 X-1.4014 Y3.0688  
G01 X-1.3991 Y3.0615  
G01 X-1.3979 Y3.0539  
G01 X-1.3979 Y3.0461  
G01 X-1.3991 Y3.0385  
G01 X-1.4014 Y3.0312  
G01 X-1.4049 Y3.0243  
G01 X-1.4095 Y3.0181  
G01 X-1.4149 Y3.0126  
G01 X-1.4212 Y3.0081  
G01 X-1.4280 Y3.0046  
G01 X-1.4354 Y3.0022  
G01 X-1.4430 Y3.0010  
G01 X-1.4496 Y3.0010  
G01 X-1.4503 Y2.9998  
G01 X-1.4505 Y2.9994  
G01 X-1.4519 Y2.9974  
G01 X-1.4533 Y2.9954  
G01 X-1.4536 Y2.9951  
G01 X-1.6080 Y2.7828  
G01 X-1.6080 Y2.7671  
G01 X-1.6095 Y2.7615  
G01 X-1.6124 Y2.7565  
G01 X-1.6834 Y2.6855  
G01 X-1.7467 Y2.6028  
G01 X-1.7474 Y2.6015  
G01 X-1.7484 Y2.6005  
G01 X-1.7493 Y2.5993  
G01 X-1.7505 Y2.5984  
G01 X-1.8046 Y2.5443  
G01 X-1.8232 Y2.4419  
G01 X-1.8234 Y2.4399  
G01 X-1.8237 Y2.4391  
G01 X-1.8239 Y2.4382  
G01 X-1.8247 Y2.4364  
G01 X-1.8254 Y2.4345  
G01 X-1.8260 Y2.4338  
G01 X-1.8263 Y2.4330  
G01 X-1.8277 Y2.4314  
G01 X-1.8288 Y2.4298  
G01 X-1.8295 Y2.4292  
G01 X-1.8301 Y2.4286  
G01 X-1.8318 Y2.4274  
G01 X-1.8680 Y2.3978  
G01 X-1.8680 Y2.3968  
G01 X-1.8692 Y2.3907  
G01 X-1.8716 Y2.3848  
G01 X-1.8751 Y2.3796  
G01 X-1.8796 Y2.3751  
G01 X-1.8848 Y2.3716  
G01 X-1.8907 Y2.3692  
G01 X-1.8968 Y2.3680  
G01 X-1.9032 Y2.3680  
G01 X-1.9093 Y2.3692  
G01 X-1.9152 Y2.3716  
G01 X-1.9204 Y2.3751  
G01 X-1.9249 Y2.3796  
G01 X-1.9284 Y2.3848  
G01 X-1.9308 Y2.3907  
G01 X-1.9320 Y2.3968  
G01 X-1.9320 Y2.4032  
G01 X-1.9308 Y2.4093  
G01 X-1.9284 Y2.4152  
G01 X-1.9249 Y2.4204  
G01 X-1.9204 Y2.4249  
G01 X-1.9152 Y2.4284  
G01 X-1.9093 Y2.4308  
G01 X-1.9032 Y2.4320  
G01 X-1.8968 Y2.4320  
G01 X-1.8959 Y2.4318  
G01 X-1.8652 Y2.4569  
G01 X-1.8509 Y2.5355  
G01 X-2.0265 Y2.5530  
G01 X-2.0287 Y2.5531  
G01 X-2.0293 Y2.5533  
G01 X-2.0301 Y2.5534  
G01 X-2.0321 Y2.5542  
G01 X-2.0342 Y2.5548  
G01 X-2.0348 Y2.5552  
G01 X-2.0355 Y2.5554  
G01 X-2.0373 Y2.5567  
G01 X-2.0391 Y2.5579  
G01 X-2.0396 Y2.5584  
G01 X-2.0402 Y2.5588  
G01 X-2.0416 Y2.5605  
G01 X-2.1808 Y2.7097  
G01 X-2.1826 Y2.7115  
G01 X-2.1828 Y2.7118  
G01 X-2.1831 Y2.7121  
G01 X-2.1842 Y2.7143  
G01 X-2.1855 Y2.7165  
G01 X-2.1856 Y2.7169  
G01 X-2.1858 Y2.7172  
G01 X-2.1863 Y2.7197  
G01 X-2.1870 Y2.7221  
G01 X-2.1870 Y2.7225  
G01 X-2.1871 Y2.7229  
G01 X-2.1870 Y2.7254  
G01 X-2.1870 Y2.7404  
G01 X-2.3095 Y2.8544  
G01 X-2.5565 Y2.6074  
G01 X-2.5615 Y2.6045  
G01 X-2.5671 Y2.6030  
G01 X-3.0659 Y2.6030  
G01 X-3.1293 Y2.5396  
G01 X-3.1312 Y2.5261  
G01 X-3.0716 Y2.4892  
G01 X-3.0678 Y2.4930  
G01 X-3.0322 Y2.4930  
G01 X-3.0112 Y2.4720  
G01 X-2.9888 Y2.4720  
G01 X-2.9678 Y2.4930  
G01 X-2.9322 Y2.4930  
G01 X-2.9070 Y2.4678  
G01 X-2.9070 Y2.4322  
G01 X-2.9322 Y2.4070  
G01 X-2.9678 Y2.4070  
G01 X-2.9888 Y2.4280  
G01 X-3.0112 Y2.4280  
G01 X-3.0280 Y2.4112  
G01 X-3.0280 Y2.3888  
G01 X-3.0112 Y2.3720  
G01 X-2.9888 Y2.3720  
G01 X-2.9678 Y2.3930  
G01 X-2.9322 Y2.3930  
G01 X-2.9070 Y2.3678  
G01 X-2.9070 Y2.3322  
G01 X-2.9280 Y2.3112  
G01 X-2.9280 Y2.2888  
G01 X-2.9112 Y2.2720  
G01 X-2.7310 Y2.2720  
G01 X-2.7220 Y2.2810  
G01 X-2.7220 Y2.3696  
G01 X-2.7239 Y2.3709  
G01 X-2.7291 Y2.3761  
G01 X-2.7332 Y2.3822  
G01 X-2.7361 Y2.3891  
G01 X-2.7375 Y2.3963  
G01 X-2.7375 Y2.4037  
G01 X-2.7361 Y2.4109  
G01 X-2.7332 Y2.4178  
G01 X-2.7291 Y2.4239  
G01 X-2.7239 Y2.4291  
G01 X-2.7178 Y2.4332  
G01 X-2.7109 Y2.4361  
G01 X-2.7037 Y2.4375  
G01 X-2.6963 Y2.4375  
G01 X-2.6891 Y2.4361  
G01 X-2.6822 Y2.4332  
G01 X-2.6761 Y2.4291  
G01 X-2.6709 Y2.4239  
G01 X-2.6668 Y2.4178  
G01 X-2.6639 Y2.4109  
G01 X-2.6625 Y2.4037  
G01 X-2.6625 Y2.3963  
G01 X-2.6639 Y2.3891  
G01 X-2.6668 Y2.3822  
G01 X-2.6709 Y2.3761  
G01 X-2.6761 Y2.3709  
G01 X-2.6780 Y2.3696  
G01 X-2.6780 Y2.2810  
G01 X-2.6625 Y2.2655  
G01 X-2.6625 Y2.2345  
G01 X-2.6845 Y2.2125  
G01 X-2.7155 Y2.2125  
G01 X-2.7310 Y2.2280  
G01 X-2.9112 Y2.2280  
G01 X-2.9322 Y2.2070  
G01 X-2.9678 Y2.2070  
G01 X-2.9888 Y2.2280  
G01 X-3.0112 Y2.2280  
G01 X-3.0322 Y2.2070  
G01 X-3.0678 Y2.2070  
G01 X-3.0930 Y2.2322  
G01 X-3.0930 Y2.2678  
G01 X-3.0678 Y2.2930  
G01 X-3.0322 Y2.2930  
G01 X-3.0112 Y2.2720  
G01 X-2.9888 Y2.2720  
G01 X-2.9720 Y2.2888  
G01 X-2.9720 Y2.3112  
G01 X-2.9888 Y2.3280  
G01 X-3.0112 Y2.3280  
G01 X-3.0322 Y2.3070  
G01 X-3.0678 Y2.3070  
G01 X-3.0930 Y2.3322  
G01 X-3.0930 Y2.3678  
G01 X-3.0720 Y2.3888  
G01 X-3.0720 Y2.4112  
G01 X-3.0930 Y2.4322  
G01 X-3.0930 Y2.4507  
G01 X-3.1330 Y2.4755  
G01 X-3.1330 Y2.1229  
G01 X-3.0546 Y2.0270  
G01 X-1.4227 Y2.0270  
G01 X-1.0894 Y2.2937  
G01 X-1.1128 Y2.4030  
G01 X-1.4779 Y2.4030  
G01 X-1.4835 Y2.4045  
G01 X-1.4885 Y2.4074  
G01 X-1.4926 Y2.4115  
G01 X-1.5591 Y2.4780  
G01 X-1.5767 Y2.4780  
G01 X-1.5796 Y2.4751  
G01 X-1.5848 Y2.4716  
G01 X-1.5907 Y2.4692  
G01 X-1.5968 Y2.4680  
G01 X-1.6032 Y2.4680  
G01 X-1.6093 Y2.4692  
G01 X-1.6152 Y2.4716  
G01 X-1.6204 Y2.4751  
G01 X-1.6249 Y2.4796  
G01 X-1.6284 Y2.4848  
G01 X-1.6308 Y2.4907  
G01 X-1.6320 Y2.4968  
G01 X-1.6320 Y2.5032  
G01 X-1.6308 Y2.5093  
G01 X-1.6284 Y2.5152  
G01 X-1.6249 Y2.5204  
G01 X-1.6204 Y2.5249  
G01 X-1.6152 Y2.5284  
G01 X-1.6093 Y2.5308  
G01 X-1.6032 Y2.5320  
G01 X-1.5968 Y2.5320  
G01 X-1.5907 Y2.5308  
G01 X-1.5848 Y2.5284  
G01 X-1.5796 Y2.5249  
G01 X-1.5767 Y2.5220  
G01 X-1.5471 Y2.5220  
G01 X-1.5415 Y2.5205  
G01 X-1.5365 Y2.5176  
G01 X-1.4659 Y2.4470  
G01 X-1.1009 Y2.4470  
G01 X-0.9270 Y2.5477  
G01 X-0.9270 Y2.7938  
G01 X-0.9272 Y2.7955  
G01 X-0.9270 Y2.7967  
G01 X-0.9270 Y2.7979  
G01 X-0.9266 Y2.7995  
G01 X-0.9263 Y2.8012  
G01 X-0.9258 Y2.8023  
G01 X-0.9255 Y2.8035  
G01 X-0.9246 Y2.8050  
G01 X-0.9240 Y2.8065  
G01 X-0.9232 Y2.8075  
G01 X-0.9226 Y2.8085  
G01 X-0.9214 Y2.8097  
G01 X-0.9203 Y2.8110  
G01 X-0.9194 Y2.8118  
G01 X-0.9185 Y2.8126  
G01 X-0.9170 Y2.8135  
G01 X-0.5959 Y3.0484  
G01 X-0.5959 Y3.0539  
G01 X-0.5946 Y3.0615  
G01 X-0.5923 Y3.0688  
G01 X-0.5888 Y3.0757  
G01 X-0.5842 Y3.0819  
G01 X-0.5788 Y3.0874  
G01 X-0.5725 Y3.0919  
G01 X-0.5657 Y3.0954  
G01 X-0.5583 Y3.0978  
G01 X-0.5507 Y3.0990  
G01 X-0.5430 Y3.0990  
G01 X-0.5354 Y3.0978  
G01 X-0.5280 Y3.0954  
G01 X-0.5212 Y3.0919  
G01 X-0.5149 Y3.0874  
G01 X-0.5095 Y3.0819  
G01 X-0.5049 Y3.0757  
G01 X-0.5014 Y3.0688  
G01 X-0.4991 Y3.0615  
G01 X-0.4979 Y3.0539  
G01 X-0.4979 Y3.0461  
G01 X-0.4991 Y3.0385  
G01 X-0.5014 Y3.0312  
G01 X-0.5049 Y3.0243  
G01 X-0.5095 Y3.0181  
G01 X-0.5149 Y3.0126  
G01 X-0.5212 Y3.0081  
G01 X-0.5280 Y3.0046  
G01 X-0.5354 Y3.0022  
G01 X-0.5430 Y3.0010  
G01 X-0.5507 Y3.0010  
G01 X-0.5583 Y3.0022  
G01 X-0.5657 Y3.0046  
G01 X-0.5725 Y3.0081  
G01 X-0.5745 Y3.0095  
G00 Z0.0500  
G00 X-0.9795 Y3.0085  
G01 Z-0.0040 F10    
G01 X-0.9780 Y3.0029  F20    
G01 X-0.9780 Y2.6233  
G01 X-0.9680 Y2.6133  
G01 X-0.9680 Y2.5867  
G01 X-0.9867 Y2.5680  
G01 X-1.0133 Y2.5680  
G01 X-1.0320 Y2.5867  
G01 X-1.0320 Y2.6133  
G01 X-1.0220 Y2.6233  
G01 X-1.0220 Y2.9909  
G01 X-1.0354 Y3.0043  
G01 X-1.0417 Y3.0022  
G01 X-1.0493 Y3.0010  
G01 X-1.0570 Y3.0010  
G01 X-1.0646 Y3.0022  
G01 X-1.0720 Y3.0046  
G01 X-1.0788 Y3.0081  
G01 X-1.0851 Y3.0126  
G01 X-1.0905 Y3.0181  
G01 X-1.0951 Y3.0243  
G01 X-1.0986 Y3.0312  
G01 X-1.1009 Y3.0385  
G01 X-1.1021 Y3.0461  
G01 X-1.1021 Y3.0539  
G01 X-1.1009 Y3.0615  
G01 X-1.0986 Y3.0688  
G01 X-1.0951 Y3.0757  
G01 X-1.0905 Y3.0819  
G01 X-1.0851 Y3.0874  
G01 X-1.0788 Y3.0919  
G01 X-1.0720 Y3.0954  
G01 X-1.0646 Y3.0978  
G01 X-1.0570 Y3.0990  
G01 X-1.0493 Y3.0990  
G01 X-1.0417 Y3.0978  
G01 X-1.0343 Y3.0954  
G01 X-1.0275 Y3.0919  
G01 X-1.0212 Y3.0874  
G01 X-1.0158 Y3.0819  
G01 X-1.0112 Y3.0757  
G01 X-1.0077 Y3.0688  
G01 X-1.0054 Y3.0615  
G01 X-1.0041 Y3.0539  
G01 X-1.0041 Y3.0461  
G01 X-1.0054 Y3.0385  
G01 X-1.0059 Y3.0370  
G01 X-0.9824 Y3.0135  
G01 X-0.9795 Y3.0085  
G00 Z0.0500  
G00 X-1.2126 Y3.0181  
G01 Z-0.0040 F10    
G01 X-1.2181 Y3.0126  F20    
G01 X-1.2243 Y3.0081  
G01 X-1.2280 Y3.0062  
G01 X-1.2280 Y2.7733  
G01 X-1.2180 Y2.7633  
G01 X-1.2180 Y2.7367  
G01 X-1.2367 Y2.7180  
G01 X-1.2633 Y2.7180  
G01 X-1.2820 Y2.7367  
G01 X-1.2820 Y2.7633  
G01 X-1.2720 Y2.7733  
G01 X-1.2720 Y3.0062  
G01 X-1.2757 Y3.0081  
G01 X-1.2819 Y3.0126  
G01 X-1.2874 Y3.0181  
G01 X-1.2919 Y3.0243  
G01 X-1.2954 Y3.0312  
G01 X-1.2978 Y3.0385  
G01 X-1.2990 Y3.0461  
G01 X-1.2990 Y3.0539  
G01 X-1.2978 Y3.0615  
G01 X-1.2954 Y3.0688  
G01 X-1.2919 Y3.0757  
G01 X-1.2874 Y3.0819  
G01 X-1.2819 Y3.0874  
G01 X-1.2757 Y3.0919  
G01 X-1.2688 Y3.0954  
G01 X-1.2615 Y3.0978  
G01 X-1.2539 Y3.0990  
G01 X-1.2461 Y3.0990  
G01 X-1.2385 Y3.0978  
G01 X-1.2312 Y3.0954  
G01 X-1.2243 Y3.0919  
G01 X-1.2181 Y3.0874  
G01 X-1.2126 Y3.0819  
G01 X-1.2081 Y3.0757  
G01 X-1.2046 Y3.0688  
G01 X-1.2022 Y3.0615  
G01 X-1.2010 Y3.0539  
G01 X-1.2010 Y3.0461  
G01 X-1.2022 Y3.0385  
G01 X-1.2046 Y3.0312  
G01 X-1.2081 Y3.0243  
G01 X-1.2126 Y3.0181  
G00 Z0.0500  
G00 X-1.1635 Y2.7676  
G01 Z-0.0040 F10    
G01 X-1.1585 Y2.7705  F20    
G01 X-1.1529 Y2.7720  
G01 X-1.1233 Y2.7720  
G01 X-1.1133 Y2.7820  
G01 X-1.0867 Y2.7820  
G01 X-1.0680 Y2.7633  
G01 X-1.0680 Y2.7367  
G01 X-1.0867 Y2.7180  
G01 X-1.1133 Y2.7180  
G01 X-1.1233 Y2.7280  
G01 X-1.1409 Y2.7280  
G01 X-1.2074 Y2.6615  
G01 X-1.2115 Y2.6574  
G01 X-1.2165 Y2.6545  
G01 X-1.2221 Y2.6530  
G01 X-1.4779 Y2.6530  
G01 X-1.4835 Y2.6545  
G01 X-1.4885 Y2.6574  
G01 X-1.5491 Y2.7180  
G01 X-1.5509 Y2.7180  
G01 X-1.7063 Y2.5626  
G01 X-1.7939 Y2.3485  
G01 X-1.7941 Y2.3476  
G01 X-1.7950 Y2.3458  
G01 X-1.7957 Y2.3440  
G01 X-1.7963 Y2.3432  
G01 X-1.7967 Y2.3424  
G01 X-1.7981 Y2.3409  
G01 X-1.7992 Y2.3394  
G01 X-1.8000 Y2.3388  
G01 X-1.8006 Y2.3381  
G01 X-1.8023 Y2.3370  
G01 X-1.8038 Y2.3358  
G01 X-1.8047 Y2.3355  
G01 X-1.8685 Y2.2942  
G01 X-1.8692 Y2.2907  
G01 X-1.8716 Y2.2848  
G01 X-1.8751 Y2.2796  
G01 X-1.8796 Y2.2751  
G01 X-1.8848 Y2.2716  
G01 X-1.8907 Y2.2692  
G01 X-1.8968 Y2.2680  
G01 X-1.9032 Y2.2680  
G01 X-1.9093 Y2.2692  
G01 X-1.9152 Y2.2716  
G01 X-1.9204 Y2.2751  
G01 X-1.9233 Y2.2780  
G01 X-2.0529 Y2.2780  
G01 X-2.0585 Y2.2795  
G01 X-2.0635 Y2.2824  
G01 X-2.0991 Y2.3180  
G01 X-2.1133 Y2.3180  
G01 X-2.1320 Y2.3367  
G01 X-2.1320 Y2.3633  
G01 X-2.1195 Y2.3757  
G01 X-2.1143 Y2.4280  
G01 X-2.2267 Y2.4280  
G01 X-2.2367 Y2.4180  
G01 X-2.2633 Y2.4180  
G01 X-2.2820 Y2.4367  
G01 X-2.2820 Y2.4509  
G01 X-2.3176 Y2.4865  
G01 X-2.3205 Y2.4915  
G01 X-2.3220 Y2.4971  
G01 X-2.3220 Y2.6767  
G01 X-2.3320 Y2.6867  
G01 X-2.3320 Y2.7133  
G01 X-2.3133 Y2.7320  
G01 X-2.2867 Y2.7320  
G01 X-2.2680 Y2.7133  
G01 X-2.2680 Y2.6867  
G01 X-2.2780 Y2.6767  
G01 X-2.2780 Y2.5091  
G01 X-2.2509 Y2.4820  
G01 X-2.2367 Y2.4820  
G01 X-2.2267 Y2.4720  
G01 X-2.1133 Y2.4720  
G01 X-2.1033 Y2.4820  
G01 X-2.0767 Y2.4820  
G01 X-2.0580 Y2.4633  
G01 X-2.0580 Y2.4367  
G01 X-2.0705 Y2.4243  
G01 X-2.0758 Y2.3710  
G01 X-2.0680 Y2.3633  
G01 X-2.0680 Y2.3491  
G01 X-2.0409 Y2.3220  
G01 X-1.9233 Y2.3220  
G01 X-1.9204 Y2.3249  
G01 X-1.9152 Y2.3284  
G01 X-1.9093 Y2.3308  
G01 X-1.9032 Y2.3320  
G01 X-1.8968 Y2.3320  
G01 X-1.8924 Y2.3311  
G01 X-1.8327 Y2.3697  
G01 X-1.7459 Y2.5820  
G01 X-1.7455 Y2.5835  
G01 X-1.7448 Y2.5847  
G01 X-1.7443 Y2.5860  
G01 X-1.7434 Y2.5872  
G01 X-1.7426 Y2.5885  
G01 X-1.7416 Y2.5895  
G01 X-1.7408 Y2.5906  
G01 X-1.7396 Y2.5915  
G01 X-1.5820 Y2.7491  
G01 X-1.5820 Y2.7633  
G01 X-1.5633 Y2.7820  
G01 X-1.5367 Y2.7820  
G01 X-1.5180 Y2.7633  
G01 X-1.5180 Y2.7491  
G01 X-1.4659 Y2.6970  
G01 X-1.2341 Y2.6970  
G01 X-1.1635 Y2.7676  
G00 Z0.0500  
G00 X-1.1633 Y2.6320  
G01 Z-0.0040 F10    
G01 X-1.1367 Y2.6320  F20    
G01 X-1.1180 Y2.6133  
G01 X-1.1180 Y2.5867  
G01 X-1.1367 Y2.5680  
G01 X-1.1509 Y2.5680  
G01 X-1.1574 Y2.5615  
G01 X-1.1615 Y2.5574  
G01 X-1.1865 Y2.5324  
G01 X-1.1915 Y2.5295  
G01 X-1.1971 Y2.5280  
G01 X-1.2767 Y2.5280  
G01 X-1.2867 Y2.5180  
G01 X-1.3009 Y2.5180  
G01 X-1.3365 Y2.4824  
G01 X-1.3415 Y2.4795  
G01 X-1.3471 Y2.4780  
G01 X-1.4267 Y2.4780  
G01 X-1.4367 Y2.4680  
G01 X-1.4633 Y2.4680  
G01 X-1.4820 Y2.4867  
G01 X-1.4820 Y2.5133  
G01 X-1.4633 Y2.5320  
G01 X-1.4367 Y2.5320  
G01 X-1.4267 Y2.5220  
G01 X-1.3591 Y2.5220  
G01 X-1.3320 Y2.5491  
G01 X-1.3320 Y2.5530  
G01 X-1.6159 Y2.5530  
G01 X-1.6530 Y2.5159  
G01 X-1.6530 Y2.4841  
G01 X-1.6009 Y2.4320  
G01 X-1.5968 Y2.4320  
G01 X-1.5907 Y2.4308  
G01 X-1.5848 Y2.4284  
G01 X-1.5796 Y2.4249  
G01 X-1.5751 Y2.4204  
G01 X-1.5716 Y2.4152  
G01 X-1.5692 Y2.4093  
G01 X-1.5680 Y2.4032  
G01 X-1.5680 Y2.3968  
G01 X-1.5692 Y2.3907  
G01 X-1.5716 Y2.3848  
G01 X-1.5751 Y2.3796  
G01 X-1.5796 Y2.3751  
G01 X-1.5848 Y2.3716  
G01 X-1.5907 Y2.3692  
G01 X-1.5968 Y2.3680  
G01 X-1.6032 Y2.3680  
G01 X-1.6093 Y2.3692  
G01 X-1.6152 Y2.3716  
G01 X-1.6204 Y2.3751  
G01 X-1.6249 Y2.3796  
G01 X-1.6284 Y2.3848  
G01 X-1.6308 Y2.3907  
G01 X-1.6320 Y2.3968  
G01 X-1.6320 Y2.4009  
G01 X-1.6885 Y2.4574  
G01 X-1.6926 Y2.4615  
G01 X-1.6955 Y2.4665  
G01 X-1.6970 Y2.4721  
G01 X-1.6970 Y2.5279  
G01 X-1.6955 Y2.5335  
G01 X-1.6926 Y2.5385  
G01 X-1.6426 Y2.5885  
G01 X-1.6385 Y2.5926  
G01 X-1.6335 Y2.5955  
G01 X-1.6279 Y2.5970  
G01 X-1.1841 Y2.5970  
G01 X-1.1820 Y2.5991  
G01 X-1.1820 Y2.6133  
G01 X-1.1633 Y2.6320  
G00 Z0.0500  
G00 X-1.1633 Y2.3320  
G01 Z-0.0040 F10    
G01 X-1.1367 Y2.3320  F20    
G01 X-1.1180 Y2.3133  
G01 X-1.1180 Y2.2867  
G01 X-1.1367 Y2.2680  
G01 X-1.1633 Y2.2680  
G01 X-1.1733 Y2.2780  
G01 X-1.2780 Y2.2780  
G01 X-1.2780 Y2.2233  
G01 X-1.2680 Y2.2133  
G01 X-1.2680 Y2.1867  
G01 X-1.2867 Y2.1680  
G01 X-1.3133 Y2.1680  
G01 X-1.3320 Y2.1867  
G01 X-1.3320 Y2.2133  
G01 X-1.3220 Y2.2233  
G01 X-1.3220 Y2.3230  
G01 X-1.5031 Y2.3230  
G01 X-1.5608 Y2.2830  
G01 X-1.5615 Y2.2824  
G01 X-1.5632 Y2.2814  
G01 X-1.5649 Y2.2803  
G01 X-1.5657 Y2.2800  
G01 X-1.5665 Y2.2795  
G01 X-1.5684 Y2.2790  
G01 X-1.5703 Y2.2783  
G01 X-1.5712 Y2.2782  
G01 X-1.5721 Y2.2780  
G01 X-1.5741 Y2.2780  
G01 X-1.5761 Y2.2778  
G01 X-1.5768 Y2.2780  
G01 X-1.5796 Y2.2751  
G01 X-1.5848 Y2.2716  
G01 X-1.5907 Y2.2692  
G01 X-1.5968 Y2.2680  
G01 X-1.6032 Y2.2680  
G01 X-1.6093 Y2.2692  
G01 X-1.6152 Y2.2716  
G01 X-1.6204 Y2.2751  
G01 X-1.6249 Y2.2796  
G01 X-1.6284 Y2.2848  
G01 X-1.6308 Y2.2907  
G01 X-1.6320 Y2.2968  
G01 X-1.6320 Y2.3032  
G01 X-1.6308 Y2.3093  
G01 X-1.6284 Y2.3152  
G01 X-1.6249 Y2.3204  
G01 X-1.6204 Y2.3249  
G01 X-1.6152 Y2.3284  
G01 X-1.6093 Y2.3308  
G01 X-1.6032 Y2.3320  
G01 X-1.5968 Y2.3320  
G01 X-1.5907 Y2.3308  
G01 X-1.5848 Y2.3284  
G01 X-1.5796 Y2.3249  
G01 X-1.5788 Y2.3241  
G01 X-1.5242 Y2.3620  
G01 X-1.5235 Y2.3626  
G01 X-1.5218 Y2.3636  
G01 X-1.5201 Y2.3647  
G01 X-1.5193 Y2.3650  
G01 X-1.5185 Y2.3655  
G01 X-1.5166 Y2.3660  
G01 X-1.5147 Y2.3667  
G01 X-1.5138 Y2.3668  
G01 X-1.5129 Y2.3670  
G01 X-1.5109 Y2.3670  
G01 X-1.5089 Y2.3672  
G01 X-1.5080 Y2.3670  
G01 X-1.3283 Y2.3670  
G01 X-1.3133 Y2.3820  
G01 X-1.2867 Y2.3820  
G01 X-1.2680 Y2.3633  
G01 X-1.2680 Y2.3367  
G01 X-1.2780 Y2.3267  
G01 X-1.2780 Y2.3220  
G01 X-1.1733 Y2.3220  
G01 X-1.1633 Y2.3320  
G00 Z0.0500  
G00 X-1.0285 Y2.3299  
G01 Z-0.0040 F10    
G01 X-1.0285 Y2.3701  F20    
G01 X-1.0001 Y2.3985  
G01 X-0.9599 Y2.3985  
G01 X-0.9315 Y2.3701  
G01 X-0.9315 Y2.3299  
G01 X-0.9599 Y2.3015  
G01 X-0.9643 Y2.3015  
G01 X-0.9751 Y2.2203  
G01 X-0.9680 Y2.2133  
G01 X-0.9680 Y2.1867  
G01 X-0.9867 Y2.1680  
G01 X-1.0133 Y2.1680  
G01 X-1.0320 Y2.1867  
G01 X-1.0320 Y2.2133  
G01 X-1.0186 Y2.2266  
G01 X-1.0077 Y2.3091  
G01 X-1.0285 Y2.3299  
G00 Z0.0500  
G00 X-1.4100 Y2.3013  
G01 Z-0.0040 F10    
G01 X-1.4087 Y2.2999  F20    
G01 X-1.4074 Y2.2985  
G01 X-1.4069 Y2.2976  
G01 X-1.3587 Y2.2399  
G01 X-1.3574 Y2.2385  
G01 X-1.3569 Y2.2376  
G01 X-1.3562 Y2.2369  
G01 X-1.3554 Y2.2351  
G01 X-1.3545 Y2.2335  
G01 X-1.3542 Y2.2325  
G01 X-1.3538 Y2.2316  
G01 X-1.3535 Y2.2297  
G01 X-1.3530 Y2.2279  
G01 X-1.3530 Y2.2269  
G01 X-1.3528 Y2.2259  
G01 X-1.3530 Y2.2240  
G01 X-1.3530 Y2.1774  
G01 X-1.3529 Y2.1769  
G01 X-1.3530 Y2.1745  
G01 X-1.3530 Y2.1721  
G01 X-1.3531 Y2.1716  
G01 X-1.3531 Y2.1712  
G01 X-1.3539 Y2.1688  
G01 X-1.3545 Y2.1665  
G01 X-1.3547 Y2.1661  
G01 X-1.3549 Y2.1656  
G01 X-1.3562 Y2.1636  
G01 X-1.3574 Y2.1615  
G01 X-1.3577 Y2.1611  
G01 X-1.3580 Y2.1607  
G01 X-1.3598 Y2.1591  
G01 X-1.3615 Y2.1574  
G01 X-1.3619 Y2.1572  
G01 X-1.4798 Y2.0491  
G01 X-1.4815 Y2.0474  
G01 X-1.4819 Y2.0472  
G01 X-1.4823 Y2.0468  
G01 X-1.4844 Y2.0457  
G01 X-1.4865 Y2.0445  
G01 X-1.4870 Y2.0444  
G01 X-1.4874 Y2.0441  
G01 X-1.4898 Y2.0436  
G01 X-1.4921 Y2.0430  
G01 X-1.4926 Y2.0430  
G01 X-1.4931 Y2.0429  
G01 X-1.4955 Y2.0430  
G01 X-2.5140 Y2.0430  
G01 X-2.5158 Y2.0428  
G01 X-2.5169 Y2.0430  
G01 X-2.5179 Y2.0430  
G01 X-2.5197 Y2.0435  
G01 X-2.5216 Y2.0438  
G01 X-2.5225 Y2.0442  
G01 X-2.5235 Y2.0445  
G01 X-2.5251 Y2.0454  
G01 X-2.6815 Y2.1173  
G01 X-2.6822 Y2.1168  
G01 X-2.6891 Y2.1139  
G01 X-2.6963 Y2.1125  
G01 X-2.7037 Y2.1125  
G01 X-2.7109 Y2.1139  
G01 X-2.7178 Y2.1168  
G01 X-2.7239 Y2.1209  
G01 X-2.7291 Y2.1261  
G01 X-2.7304 Y2.1280  
G01 X-2.9112 Y2.1280  
G01 X-2.9322 Y2.1070  
G01 X-2.9678 Y2.1070  
G01 X-2.9888 Y2.1280  
G01 X-3.0112 Y2.1280  
G01 X-3.0322 Y2.1070  
G01 X-3.0678 Y2.1070  
G01 X-3.0930 Y2.1322  
G01 X-3.0930 Y2.1678  
G01 X-3.0678 Y2.1930  
G01 X-3.0322 Y2.1930  
G01 X-3.0112 Y2.1720  
G01 X-2.9888 Y2.1720  
G01 X-2.9678 Y2.1930  
G01 X-2.9322 Y2.1930  
G01 X-2.9112 Y2.1720  
G01 X-2.7304 Y2.1720  
G01 X-2.7291 Y2.1739  
G01 X-2.7239 Y2.1791  
G01 X-2.7178 Y2.1832  
G01 X-2.7109 Y2.1861  
G01 X-2.7037 Y2.1875  
G01 X-2.6963 Y2.1875  
G01 X-2.6891 Y2.1861  
G01 X-2.6822 Y2.1832  
G01 X-2.6761 Y2.1791  
G01 X-2.6709 Y2.1739  
G01 X-2.6668 Y2.1678  
G01 X-2.6639 Y2.1609  
G01 X-2.6632 Y2.1573  
G01 X-2.5102 Y2.0870  
G01 X-1.5036 Y2.0870  
G01 X-1.3970 Y2.1847  
G01 X-1.3970 Y2.2170  
G01 X-1.4353 Y2.2630  
G01 X-1.4651 Y2.2630  
G01 X-1.5320 Y2.1871  
G01 X-1.5324 Y2.1865  
G01 X-1.5340 Y2.1849  
G01 X-1.5354 Y2.1833  
G01 X-1.5360 Y2.1829  
G01 X-1.5365 Y2.1824  
G01 X-1.5384 Y2.1813  
G01 X-1.5402 Y2.1801  
G01 X-1.5409 Y2.1798  
G01 X-1.5415 Y2.1795  
G01 X-1.5436 Y2.1789  
G01 X-1.5457 Y2.1782  
G01 X-1.5464 Y2.1782  
G01 X-1.5471 Y2.1780  
G01 X-1.5493 Y2.1780  
G01 X-1.5515 Y2.1779  
G01 X-1.5522 Y2.1780  
G01 X-1.5767 Y2.1780  
G01 X-1.5796 Y2.1751  
G01 X-1.5848 Y2.1716  
G01 X-1.5907 Y2.1692  
G01 X-1.5968 Y2.1680  
G01 X-1.6032 Y2.1680  
G01 X-1.6093 Y2.1692  
G01 X-1.6152 Y2.1716  
G01 X-1.6204 Y2.1751  
G01 X-1.6249 Y2.1796  
G01 X-1.6284 Y2.1848  
G01 X-1.6308 Y2.1907  
G01 X-1.6320 Y2.1968  
G01 X-1.6320 Y2.2032  
G01 X-1.6308 Y2.2093  
G01 X-1.6284 Y2.2152  
G01 X-1.6249 Y2.2204  
G01 X-1.6204 Y2.2249  
G01 X-1.6152 Y2.2284  
G01 X-1.6093 Y2.2308  
G01 X-1.6032 Y2.2320  
G01 X-1.5968 Y2.2320  
G01 X-1.5907 Y2.2308  
G01 X-1.5848 Y2.2284  
G01 X-1.5796 Y2.2249  
G01 X-1.5767 Y2.2220  
G01 X-1.5599 Y2.2220  
G01 X-1.4930 Y2.2979  
G01 X-1.4926 Y2.2985  
G01 X-1.4910 Y2.3001  
G01 X-1.4896 Y2.3017  
G01 X-1.4890 Y2.3021  
G01 X-1.4885 Y2.3026  
G01 X-1.4866 Y2.3037  
G01 X-1.4848 Y2.3049  
G01 X-1.4841 Y2.3052  
G01 X-1.4835 Y2.3055  
G01 X-1.4814 Y2.3061  
G01 X-1.4793 Y2.3068  
G01 X-1.4786 Y2.3068  
G01 X-1.4779 Y2.3070  
G01 X-1.4757 Y2.3070  
G01 X-1.4735 Y2.3071  
G01 X-1.4728 Y2.3070  
G01 X-1.4269 Y2.3070  
G01 X-1.4259 Y2.3072  
G01 X-1.4240 Y2.3070  
G01 X-1.4221 Y2.3070  
G01 X-1.4211 Y2.3067  
G01 X-1.4201 Y2.3066  
G01 X-1.4183 Y2.3060  
G01 X-1.4165 Y2.3055  
G01 X-1.4156 Y2.3050  
G01 X-1.4147 Y2.3046  
G01 X-1.4131 Y2.3036  
G01 X-1.4115 Y2.3026  
G01 X-1.4108 Y2.3019  
G01 X-1.4100 Y2.3013  
G00 Z0.0500  
G00 X-1.4367 Y2.2320  
G01 Z-0.0040 F10    
G01 X-1.4180 Y2.2133  F20    
G01 X-1.4180 Y2.1867  
G01 X-1.4367 Y2.1680  
G01 X-1.4509 Y2.1680  
G01 X-1.5074 Y2.1115  
G01 X-1.5115 Y2.1074  
G01 X-1.5165 Y2.1045  
G01 X-1.5221 Y2.1030  
G01 X-1.8279 Y2.1030  
G01 X-1.8335 Y2.1045  
G01 X-1.8385 Y2.1074  
G01 X-1.8591 Y2.1280  
G01 X-2.0767 Y2.1280  
G01 X-2.0867 Y2.1180  
G01 X-2.1133 Y2.1180  
G01 X-2.1233 Y2.1280  
G01 X-2.2267 Y2.1280  
G01 X-2.2367 Y2.1180  
G01 X-2.2633 Y2.1180  
G01 X-2.2733 Y2.1280  
G01 X-2.3767 Y2.1280  
G01 X-2.3867 Y2.1180  
G01 X-2.4133 Y2.1180  
G01 X-2.4320 Y2.1367  
G01 X-2.4320 Y2.1633  
G01 X-2.4133 Y2.1820  
G01 X-2.3867 Y2.1820  
G01 X-2.3767 Y2.1720  
G01 X-2.2733 Y2.1720  
G01 X-2.2633 Y2.1820  
G01 X-2.2367 Y2.1820  
G01 X-2.2267 Y2.1720  
G01 X-2.1233 Y2.1720  
G01 X-2.1133 Y2.1820  
G01 X-2.0867 Y2.1820  
G01 X-2.0767 Y2.1720  
G01 X-1.9157 Y2.1720  
G01 X-1.9204 Y2.1751  
G01 X-1.9249 Y2.1796  
G01 X-1.9284 Y2.1848  
G01 X-1.9308 Y2.1907  
G01 X-1.9320 Y2.1968  
G01 X-1.9320 Y2.2032  
G01 X-1.9308 Y2.2093  
G01 X-1.9284 Y2.2152  
G01 X-1.9249 Y2.2204  
G01 X-1.9204 Y2.2249  
G01 X-1.9152 Y2.2284  
G01 X-1.9093 Y2.2308  
G01 X-1.9032 Y2.2320  
G01 X-1.8968 Y2.2320  
G01 X-1.8907 Y2.2308  
G01 X-1.8848 Y2.2284  
G01 X-1.8796 Y2.2249  
G01 X-1.8751 Y2.2204  
G01 X-1.8716 Y2.2152  
G01 X-1.8692 Y2.2093  
G01 X-1.8680 Y2.2032  
G01 X-1.8680 Y2.1991  
G01 X-1.8365 Y2.1676  
G01 X-1.8324 Y2.1635  
G01 X-1.8159 Y2.1470  
G01 X-1.5341 Y2.1470  
G01 X-1.4820 Y2.1991  
G01 X-1.4820 Y2.2133  
G01 X-1.4633 Y2.2320  
G01 X-1.4367 Y2.2320  
G00 Z0.0500  
G00 X-1.8751 Y2.4796  
G01 Z-0.0040 F10    
G01 X-1.8796 Y2.4751  F20    
G01 X-1.8848 Y2.4716  
G01 X-1.8907 Y2.4692  
G01 X-1.8968 Y2.4680  
G01 X-1.9032 Y2.4680  
G01 X-1.9093 Y2.4692  
G01 X-1.9152 Y2.4716  
G01 X-1.9204 Y2.4751  
G01 X-1.9249 Y2.4796  
G01 X-1.9255 Y2.4805  
G01 X-2.0950 Y2.4979  
G01 X-2.0956 Y2.4978  
G01 X-2.0979 Y2.4982  
G01 X-2.1001 Y2.4984  
G01 X-2.1007 Y2.4986  
G01 X-2.1014 Y2.4987  
G01 X-2.1034 Y2.4997  
G01 X-2.1055 Y2.5005  
G01 X-2.1061 Y2.5008  
G01 X-2.1066 Y2.5011  
G01 X-2.1084 Y2.5025  
G01 X-2.1102 Y2.5039  
G01 X-2.1106 Y2.5044  
G01 X-2.1111 Y2.5048  
G01 X-2.1125 Y2.5066  
G01 X-2.1139 Y2.5084  
G01 X-2.1142 Y2.5089  
G01 X-2.2418 Y2.6857  
G01 X-2.2426 Y2.6865  
G01 X-2.2435 Y2.6880  
G01 X-2.2445 Y2.6895  
G01 X-2.2449 Y2.6905  
G01 X-2.2455 Y2.6915  
G01 X-2.2460 Y2.6932  
G01 X-2.2466 Y2.6949  
G01 X-2.2467 Y2.6960  
G01 X-2.2470 Y2.6971  
G01 X-2.2470 Y2.6989  
G01 X-2.2472 Y2.7006  
G01 X-2.2470 Y2.7018  
G01 X-2.2470 Y2.7159  
G01 X-2.2841 Y2.7530  
G01 X-2.3159 Y2.7530  
G01 X-2.5324 Y2.5365  
G01 X-2.5365 Y2.5324  
G01 X-2.5824 Y2.4865  
G01 X-2.5865 Y2.4824  
G01 X-2.5915 Y2.4795  
G01 X-2.5971 Y2.4780  
G01 X-2.6690 Y2.4780  
G01 X-2.6845 Y2.4625  
G01 X-2.7155 Y2.4625  
G01 X-2.7375 Y2.4845  
G01 X-2.7375 Y2.5155  
G01 X-2.7250 Y2.5280  
G01 X-2.9112 Y2.5280  
G01 X-2.9322 Y2.5070  
G01 X-2.9678 Y2.5070  
G01 X-2.9888 Y2.5280  
G01 X-3.0112 Y2.5280  
G01 X-3.0322 Y2.5070  
G01 X-3.0678 Y2.5070  
G01 X-3.0930 Y2.5322  
G01 X-3.0930 Y2.5678  
G01 X-3.0678 Y2.5930  
G01 X-3.0322 Y2.5930  
G01 X-3.0112 Y2.5720  
G01 X-2.9888 Y2.5720  
G01 X-2.9678 Y2.5930  
G01 X-2.9322 Y2.5930  
G01 X-2.9112 Y2.5720  
G01 X-2.5591 Y2.5720  
G01 X-2.3385 Y2.7926  
G01 X-2.3335 Y2.7955  
G01 X-2.3279 Y2.7970  
G01 X-2.2721 Y2.7970  
G01 X-2.2665 Y2.7955  
G01 X-2.2615 Y2.7926  
G01 X-2.2574 Y2.7885  
G01 X-2.2074 Y2.7385  
G01 X-2.2045 Y2.7335  
G01 X-2.2030 Y2.7279  
G01 X-2.2030 Y2.7071  
G01 X-2.0829 Y2.5409  
G01 X-1.9210 Y2.5243  
G01 X-1.9204 Y2.5249  
G01 X-1.9152 Y2.5284  
G01 X-1.9093 Y2.5308  
G01 X-1.9032 Y2.5320  
G01 X-1.8968 Y2.5320  
G01 X-1.8907 Y2.5308  
G01 X-1.8848 Y2.5284  
G01 X-1.8796 Y2.5249  
G01 X-1.8751 Y2.5204  
G01 X-1.8716 Y2.5152  
G01 X-1.8692 Y2.5093  
G01 X-1.8680 Y2.5032  
G01 X-1.8680 Y2.4968  
G01 X-1.8692 Y2.4907  
G01 X-1.8716 Y2.4848  
G01 X-1.8751 Y2.4796  
G00 Z0.0500  
G00 X-1.8599 Y2.6015  
G01 Z-0.0040 F10    
G01 X-1.9001 Y2.6015  F20    
G01 X-1.9285 Y2.6299  
G01 X-1.9285 Y2.6701  
G01 X-1.9240 Y2.6745  
G01 X-1.9545 Y2.7180  
G01 X-1.9633 Y2.7180  
G01 X-1.9820 Y2.7367  
G01 X-1.9820 Y2.7633  
G01 X-1.9633 Y2.7820  
G01 X-1.9367 Y2.7820  
G01 X-1.9180 Y2.7633  
G01 X-1.9180 Y2.7426  
G01 X-1.8871 Y2.6985  
G01 X-1.8599 Y2.6985  
G01 X-1.8315 Y2.6701  
G01 X-1.8315 Y2.6299  
G01 X-1.8599 Y2.6015  
G00 Z0.0500  
G00 X-1.7633 Y2.7180  
G01 Z-0.0040 F10    
G01 X-1.7820 Y2.7367  F20    
G01 X-1.7820 Y2.7583  
G01 X-1.9443 Y3.0018  
G01 X-1.9493 Y3.0010  
G01 X-1.9570 Y3.0010  
G01 X-1.9646 Y3.0022  
G01 X-1.9720 Y3.0046  
G01 X-1.9788 Y3.0081  
G01 X-1.9851 Y3.0126  
G01 X-1.9905 Y3.0181  
G01 X-1.9951 Y3.0243  
G01 X-1.9986 Y3.0312  
G01 X-2.0009 Y3.0385  
G01 X-2.0021 Y3.0461  
G01 X-2.0021 Y3.0539  
G01 X-2.0009 Y3.0615  
G01 X-1.9986 Y3.0688  
G01 X-1.9951 Y3.0757  
G01 X-1.9905 Y3.0819  
G01 X-1.9851 Y3.0874  
G01 X-1.9788 Y3.0919  
G01 X-1.9720 Y3.0954  
G01 X-1.9646 Y3.0978  
G01 X-1.9570 Y3.0990  
G01 X-1.9493 Y3.0990  
G01 X-1.9417 Y3.0978  
G01 X-1.9343 Y3.0954  
G01 X-1.9275 Y3.0919  
G01 X-1.9212 Y3.0874  
G01 X-1.9158 Y3.0819  
G01 X-1.9112 Y3.0757  
G01 X-1.9077 Y3.0688  
G01 X-1.9054 Y3.0615  
G01 X-1.9041 Y3.0539  
G01 X-1.9041 Y3.0461  
G01 X-1.9054 Y3.0385  
G01 X-1.9077 Y3.0312  
G01 X-1.9092 Y3.0284  
G01 X-1.7449 Y2.7820  
G01 X-1.7367 Y2.7820  
G01 X-1.7180 Y2.7633  
G01 X-1.7180 Y2.7367  
G01 X-1.7367 Y2.7180  
G01 X-1.7633 Y2.7180  
G00 Z0.0500  
G00 X-2.0580 Y2.7367  
G01 Z-0.0040 F10    
G01 X-2.0767 Y2.7180  F20    
G01 X-2.1033 Y2.7180  
G01 X-2.1220 Y2.7367  
G01 X-2.1220 Y2.7633  
G01 X-2.1120 Y2.7733  
G01 X-2.1120 Y2.8468  
G01 X-2.1585 Y3.0017  
G01 X-2.1615 Y3.0022  
G01 X-2.1688 Y3.0046  
G01 X-2.1757 Y3.0081  
G01 X-2.1819 Y3.0126  
G01 X-2.1874 Y3.0181  
G01 X-2.1919 Y3.0243  
G01 X-2.1954 Y3.0312  
G01 X-2.1978 Y3.0385  
G01 X-2.1990 Y3.0461  
G01 X-2.1990 Y3.0539  
G01 X-2.1978 Y3.0615  
G01 X-2.1954 Y3.0688  
G01 X-2.1919 Y3.0757  
G01 X-2.1874 Y3.0819  
G01 X-2.1819 Y3.0874  
G01 X-2.1757 Y3.0919  
G01 X-2.1688 Y3.0954  
G01 X-2.1615 Y3.0978  
G01 X-2.1539 Y3.0990  
G01 X-2.1461 Y3.0990  
G01 X-2.1385 Y3.0978  
G01 X-2.1312 Y3.0954  
G01 X-2.1243 Y3.0919  
G01 X-2.1181 Y3.0874  
G01 X-2.1126 Y3.0819  
G01 X-2.1081 Y3.0757  
G01 X-2.1046 Y3.0688  
G01 X-2.1022 Y3.0615  
G01 X-2.1010 Y3.0539  
G01 X-2.1010 Y3.0461  
G01 X-2.1022 Y3.0385  
G01 X-2.1046 Y3.0312  
G01 X-2.1081 Y3.0243  
G01 X-2.1126 Y3.0181  
G01 X-2.1163 Y3.0144  
G01 X-2.0697 Y2.8588  
G01 X-2.0695 Y2.8585  
G01 X-2.0688 Y2.8560  
G01 X-2.0681 Y2.8535  
G01 X-2.0681 Y2.8532  
G01 X-2.0680 Y2.8529  
G01 X-2.0680 Y2.8503  
G01 X-2.0679 Y2.8478  
G01 X-2.0680 Y2.8474  
G01 X-2.0680 Y2.7733  
G01 X-2.0580 Y2.7633  
G01 X-2.0580 Y2.7367  
G00 Z0.0500  
G00 X-2.3799 Y2.5985  
G01 Z-0.0040 F10    
G01 X-2.3515 Y2.5701  F20    
G01 X-2.3515 Y2.5299  
G01 X-2.3780 Y2.5034  
G01 X-2.3780 Y2.4733  
G01 X-2.3680 Y2.4633  
G01 X-2.3680 Y2.4367  
G01 X-2.3867 Y2.4180  
G01 X-2.4133 Y2.4180  
G01 X-2.4320 Y2.4367  
G01 X-2.4320 Y2.4633  
G01 X-2.4220 Y2.4733  
G01 X-2.4220 Y2.5034  
G01 X-2.4485 Y2.5299  
G01 X-2.4485 Y2.5701  
G01 X-2.4201 Y2.5985  
G01 X-2.3799 Y2.5985  
G00 Z0.0500  
G00 X-2.5680 Y2.6867  
G01 Z-0.0040 F10    
G01 X-2.5867 Y2.6680  F20    
G01 X-2.6133 Y2.6680  
G01 X-2.6233 Y2.6780  
G01 X-2.7409 Y2.6780  
G01 X-2.7574 Y2.6615  
G01 X-2.7615 Y2.6574  
G01 X-2.7665 Y2.6545  
G01 X-2.7721 Y2.6530  
G01 X-2.8279 Y2.6530  
G01 X-2.8335 Y2.6545  
G01 X-2.8385 Y2.6574  
G01 X-3.0635 Y2.8824  
G01 X-3.0676 Y2.8865  
G01 X-3.0705 Y2.8915  
G01 X-3.0720 Y2.8971  
G01 X-3.0720 Y3.0062  
G01 X-3.0757 Y3.0081  
G01 X-3.0819 Y3.0126  
G01 X-3.0874 Y3.0181  
G01 X-3.0919 Y3.0243  
G01 X-3.0954 Y3.0312  
G01 X-3.0978 Y3.0385  
G01 X-3.0990 Y3.0461  
G01 X-3.0990 Y3.0539  
G01 X-3.0978 Y3.0615  
G01 X-3.0954 Y3.0688  
G01 X-3.0919 Y3.0757  
G01 X-3.0874 Y3.0819  
G01 X-3.0819 Y3.0874  
G01 X-3.0757 Y3.0919  
G01 X-3.0688 Y3.0954  
G01 X-3.0615 Y3.0978  
G01 X-3.0539 Y3.0990  
G01 X-3.0461 Y3.0990  
G01 X-3.0385 Y3.0978  
G01 X-3.0312 Y3.0954  
G01 X-3.0243 Y3.0919  
G01 X-3.0181 Y3.0874  
G01 X-3.0126 Y3.0819  
G01 X-3.0081 Y3.0757  
G01 X-3.0046 Y3.0688  
G01 X-3.0022 Y3.0615  
G01 X-3.0010 Y3.0539  
G01 X-3.0010 Y3.0461  
G01 X-3.0022 Y3.0385  
G01 X-3.0046 Y3.0312  
G01 X-3.0081 Y3.0243  
G01 X-3.0126 Y3.0181  
G01 X-3.0181 Y3.0126  
G01 X-3.0243 Y3.0081  
G01 X-3.0280 Y3.0062  
G01 X-3.0280 Y2.9091  
G01 X-2.8159 Y2.6970  
G01 X-2.7841 Y2.6970  
G01 X-2.7635 Y2.7176  
G01 X-2.7585 Y2.7205  
G01 X-2.7529 Y2.7220  
G01 X-2.6233 Y2.7220  
G01 X-2.6133 Y2.7320  
G01 X-2.5867 Y2.7320  
G01 X-2.5680 Y2.7133  
G01 X-2.5680 Y2.6867  
G00 Z0.0500  
G00 X-2.6031 Y2.5280  
G01 Z-0.0040 F10    
G01 X-2.6750 Y2.5280  F20    
G01 X-2.6690 Y2.5220  
G01 X-2.6091 Y2.5220  
G01 X-2.6031 Y2.5280  
G00 Z0.0500  
G00 X-2.7680 Y2.7367  
G01 Z-0.0040 F10    
G01 X-2.7867 Y2.7180  F20    
G01 X-2.8133 Y2.7180  
G01 X-2.8320 Y2.7367  
G01 X-2.8320 Y2.7633  
G01 X-2.8253 Y2.7699  
G01 X-2.8610 Y3.0016  
G01 X-2.8646 Y3.0022  
G01 X-2.8720 Y3.0046  
G01 X-2.8788 Y3.0081  
G01 X-2.8851 Y3.0126  
G01 X-2.8905 Y3.0181  
G01 X-2.8951 Y3.0243  
G01 X-2.8986 Y3.0312  
G01 X-2.9009 Y3.0385  
G01 X-2.9021 Y3.0461  
G01 X-2.9021 Y3.0539  
G01 X-2.9009 Y3.0615  
G01 X-2.8986 Y3.0688  
G01 X-2.8951 Y3.0757  
G01 X-2.8905 Y3.0819  
G01 X-2.8851 Y3.0874  
G01 X-2.8788 Y3.0919  
G01 X-2.8720 Y3.0954  
G01 X-2.8646 Y3.0978  
G01 X-2.8570 Y3.0990  
G01 X-2.8493 Y3.0990  
G01 X-2.8417 Y3.0978  
G01 X-2.8343 Y3.0954  
G01 X-2.8275 Y3.0919  
G01 X-2.8212 Y3.0874  
G01 X-2.8158 Y3.0819  
G01 X-2.8112 Y3.0757  
G01 X-2.8077 Y3.0688  
G01 X-2.8054 Y3.0615  
G01 X-2.8041 Y3.0539  
G01 X-2.8041 Y3.0461  
G01 X-2.8054 Y3.0385  
G01 X-2.8077 Y3.0312  
G01 X-2.8112 Y3.0243  
G01 X-2.8158 Y3.0181  
G01 X-2.8186 Y3.0153  
G01 X-2.8184 Y3.0144  
G01 X-2.8180 Y3.0125  
G01 X-2.8180 Y3.0115  
G01 X-2.7819 Y2.7772  
G01 X-2.7680 Y2.7633  
G01 X-2.7680 Y2.7367  
G00 Z0.0500  
G00 X-2.9680 Y2.7367  
G01 Z-0.0040 F10    
G01 X-2.9867 Y2.7180  F20    
G01 X-3.0133 Y2.7180  
G01 X-3.0233 Y2.7280  
G01 X-3.0934 Y2.7280  
G01 X-3.1199 Y2.7015  
G01 X-3.1601 Y2.7015  
G01 X-3.1885 Y2.7299  
G01 X-3.1885 Y2.7701  
G01 X-3.1601 Y2.7985  
G01 X-3.1199 Y2.7985  
G01 X-3.0934 Y2.7720  
G01 X-3.0233 Y2.7720  
G01 X-3.0133 Y2.7820  
G01 X-2.9867 Y2.7820  
G01 X-2.9680 Y2.7633  
G01 X-2.9680 Y2.7367  
G00 Z0.0500  
G00 X-0.2170 Y2.7363  
G01 Z-0.0040 F10    
G01 X-0.2363 Y2.7170  F20    
G01 X-0.2637 Y2.7170  
G01 X-0.2830 Y2.7363  
G01 X-0.2830 Y2.7637  
G01 X-0.2646 Y2.7820  
G01 X-0.1948 Y3.0222  
G01 X-0.1959 Y3.0238  
G01 X-0.1995 Y3.0308  
G01 X-0.2019 Y3.0383  
G01 X-0.2031 Y3.0461  
G01 X-0.2031 Y3.0539  
G01 X-0.2019 Y3.0617  
G01 X-0.1995 Y3.0692  
G01 X-0.1959 Y3.0762  
G01 X-0.1913 Y3.0826  
G01 X-0.1857 Y3.0881  
G01 X-0.1794 Y3.0928  
G01 X-0.1723 Y3.0963  
G01 X-0.1649 Y3.0988  
G01 X-0.1571 Y3.1000  
G01 X-0.1492 Y3.1000  
G01 X-0.1414 Y3.0988  
G01 X-0.1340 Y3.0963  
G01 X-0.1269 Y3.0928  
G01 X-0.1206 Y3.0881  
G01 X-0.1150 Y3.0826  
G01 X-0.1104 Y3.0762  
G01 X-0.1068 Y3.0692  
G01 X-0.1044 Y3.0617  
G01 X-0.1031 Y3.0539  
G01 X-0.1031 Y3.0461  
G01 X-0.1044 Y3.0383  
G01 X-0.1068 Y3.0308  
G01 X-0.1104 Y3.0238  
G01 X-0.1150 Y3.0174  
G01 X-0.1206 Y3.0119  
G01 X-0.1269 Y3.0072  
G01 X-0.1340 Y3.0037  
G01 X-0.1414 Y3.0012  
G01 X-0.1492 Y3.0000  
G01 X-0.1533 Y3.0000  
G01 X-0.2209 Y2.7676  
G01 X-0.2170 Y2.7637  
G01 X-0.2170 Y2.7363  
G00 Z0.0500  
G00 X-0.4170 Y2.7363  
G01 Z-0.0040 F10    
G01 X-0.4270 Y2.7263  F20    
G01 X-0.4270 Y2.6470  
G01 X-0.4005 Y2.6205  
G01 X-0.4005 Y2.5795  
G01 X-0.4295 Y2.5505  
G01 X-0.4705 Y2.5505  
G01 X-0.4995 Y2.5795  
G01 X-0.4995 Y2.6205  
G01 X-0.4730 Y2.6470  
G01 X-0.4730 Y2.7263  
G01 X-0.4830 Y2.7363  
G01 X-0.4830 Y2.7637  
G01 X-0.4637 Y2.7830  
G01 X-0.4363 Y2.7830  
G01 X-0.4170 Y2.7637  
G01 X-0.4170 Y2.7363  
G00 Z0.0500  
G00 X-0.6295 Y2.6495  
G01 Z-0.0040 F10    
G01 X-0.6005 Y2.6205  F20    
G01 X-0.6005 Y2.5795  
G01 X-0.6295 Y2.5505  
G01 X-0.6705 Y2.5505  
G01 X-0.6970 Y2.5770  
G01 X-0.7763 Y2.5770  
G01 X-0.7863 Y2.5670  
G01 X-0.8137 Y2.5670  
G01 X-0.8330 Y2.5863  
G01 X-0.8330 Y2.6137  
G01 X-0.8137 Y2.6330  
G01 X-0.7863 Y2.6330  
G01 X-0.7763 Y2.6230  
G01 X-0.6970 Y2.6230  
G01 X-0.6705 Y2.6495  
G01 X-0.6295 Y2.6495  
G00 Z0.0500  
G00 X-0.6192 Y2.8396  
G01 Z-0.0040 F10    
G01 X-0.7670 Y2.7440  F20    
G01 X-0.7670 Y2.7363  
G01 X-0.7863 Y2.7170  
G01 X-0.8137 Y2.7170  
G01 X-0.8330 Y2.7363  
G01 X-0.8330 Y2.7637  
G01 X-0.8137 Y2.7830  
G01 X-0.7913 Y2.7830  
G01 X-0.6427 Y2.8792  
G01 X-0.3997 Y3.0441  
G01 X-0.4000 Y3.0461  
G01 X-0.4000 Y3.0539  
G01 X-0.3988 Y3.0617  
G01 X-0.3963 Y3.0692  
G01 X-0.3928 Y3.0762  
G01 X-0.3881 Y3.0826  
G01 X-0.3826 Y3.0881  
G01 X-0.3762 Y3.0928  
G01 X-0.3692 Y3.0963  
G01 X-0.3617 Y3.0988  
G01 X-0.3539 Y3.1000  
G01 X-0.3461 Y3.1000  
G01 X-0.3383 Y3.0988  
G01 X-0.3308 Y3.0963  
G01 X-0.3238 Y3.0928  
G01 X-0.3174 Y3.0881  
G01 X-0.3119 Y3.0826  
G01 X-0.3072 Y3.0762  
G01 X-0.3037 Y3.0692  
G01 X-0.3012 Y3.0617  
G01 X-0.3000 Y3.0539  
G01 X-0.3000 Y3.0461  
G01 X-0.3012 Y3.0383  
G01 X-0.3037 Y3.0308  
G01 X-0.3072 Y3.0238  
G01 X-0.3119 Y3.0174  
G01 X-0.3174 Y3.0119  
G01 X-0.3238 Y3.0072  
G01 X-0.3308 Y3.0037  
G01 X-0.3383 Y3.0012  
G01 X-0.3461 Y3.0000  
G01 X-0.3539 Y3.0000  
G01 X-0.3617 Y3.0012  
G01 X-0.3692 Y3.0037  
G01 X-0.3738 Y3.0060  
G01 X-0.6154 Y2.8421  
G01 X-0.6156 Y2.8419  
G01 X-0.6173 Y2.8408  
G01 X-0.6190 Y2.8397  
G01 X-0.6192 Y2.8396  
G00 Z0.0500  
G00 X-0.5745 Y3.0082  
G01 Z-0.0040 F10    
G01 X-0.8820 Y2.7833  F20    
G01 X-0.8820 Y2.5365  
G01 X-0.8819 Y2.5358  
G01 X-0.8820 Y2.5343  
G01 X-0.8820 Y2.5327  
G01 X-0.8821 Y2.5320  
G01 X-0.8822 Y2.5313  
G01 X-0.8826 Y2.5298  
G01 X-0.8829 Y2.5283  
G01 X-0.8832 Y2.5276  
G01 X-0.8834 Y2.5269  
G01 X-0.8840 Y2.5255  
G01 X-0.8846 Y2.5241  
G01 X-0.8850 Y2.5235  
G01 X-0.8854 Y2.5228  
G01 X-0.8863 Y2.5216  
G01 X-0.8871 Y2.5203  
G01 X-0.8877 Y2.5198  
G01 X-0.8881 Y2.5192  
G01 X-0.8893 Y2.5182  
G01 X-0.8903 Y2.5171  
G01 X-0.8910 Y2.5167  
G01 X-0.8915 Y2.5162  
G01 X-0.8928 Y2.5155  
G01 X-0.8941 Y2.5146  
G01 X-0.8948 Y2.5143  
G01 X-1.0690 Y2.4135  
G01 X-1.0427 Y2.2906  
G01 X-1.0423 Y2.2892  
G01 X-1.0422 Y2.2884  
G01 X-1.0420 Y2.2876  
G01 X-1.0420 Y2.2862  
G01 X-1.0419 Y2.2847  
G01 X-1.0420 Y2.2839  
G01 X-1.0420 Y2.2831  
G01 X-1.0422 Y2.2816  
G01 X-1.0424 Y2.2802  
G01 X-1.0426 Y2.2794  
G01 X-1.0428 Y2.2786  
G01 X-1.0433 Y2.2773  
G01 X-1.0438 Y2.2759  
G01 X-1.0442 Y2.2752  
G01 X-1.0445 Y2.2744  
G01 X-1.0452 Y2.2732  
G01 X-1.0459 Y2.2719  
G01 X-1.0465 Y2.2713  
G01 X-1.0469 Y2.2706  
G01 X-1.0479 Y2.2696  
G01 X-1.0489 Y2.2685  
G01 X-1.0495 Y2.2679  
G01 X-1.0501 Y2.2674  
G01 X-1.0513 Y2.2665  
G01 X-1.3996 Y1.9878  
G01 X-1.4003 Y1.9871  
G01 X-1.4014 Y1.9864  
G01 X-1.4024 Y1.9856  
G01 X-1.4033 Y1.9852  
G01 X-1.4041 Y1.9846  
G01 X-1.4053 Y1.9841  
G01 X-1.4064 Y1.9835  
G01 X-1.4074 Y1.9833  
G01 X-1.4083 Y1.9829  
G01 X-1.4095 Y1.9826  
G01 X-1.4108 Y1.9823  
G01 X-1.4118 Y1.9822  
G01 X-1.4127 Y1.9820  
G01 X-1.4140 Y1.9820  
G01 X-1.4153 Y1.9819  
G01 X-1.4163 Y1.9820  
G01 X-3.0639 Y1.9820  
G01 X-3.0650 Y1.9819  
G01 X-3.0661 Y1.9820  
G01 X-3.0673 Y1.9820  
G01 X-3.0684 Y1.9822  
G01 X-3.0695 Y1.9823  
G01 X-3.0706 Y1.9827  
G01 X-3.0717 Y1.9829  
G01 X-3.0728 Y1.9833  
G01 X-3.0739 Y1.9837  
G01 X-3.0749 Y1.9842  
G01 X-3.0759 Y1.9846  
G01 X-3.0769 Y1.9853  
G01 X-3.0779 Y1.9858  
G01 X-3.0787 Y1.9865  
G01 X-3.0797 Y1.9871  
G01 X-3.0805 Y1.9879  
G01 X-3.0814 Y1.9887  
G01 X-3.0821 Y1.9895  
G01 X-3.0829 Y1.9903  
G01 X-3.0835 Y1.9913  
G01 X-3.1721 Y2.0995  
G01 X-3.1729 Y2.1003  
G01 X-3.1735 Y2.1013  
G01 X-3.1742 Y2.1022  
G01 X-3.1748 Y2.1032  
G01 X-3.1754 Y2.1041  
G01 X-3.1758 Y2.1052  
G01 X-3.1764 Y2.1062  
G01 X-3.1767 Y2.1073  
G01 X-3.1771 Y2.1083  
G01 X-3.1773 Y2.1094  
G01 X-3.1777 Y2.1105  
G01 X-3.1778 Y2.1116  
G01 X-3.1780 Y2.1127  
G01 X-3.1780 Y2.1139  
G01 X-3.1781 Y2.1150  
G01 X-3.1780 Y2.1161  
G01 X-3.1780 Y2.5144  
G01 X-3.1781 Y2.5160  
G01 X-3.1781 Y2.5162  
G01 X-3.1781 Y2.5165  
G01 X-3.1780 Y2.5169  
G01 X-3.1780 Y2.5173  
G01 X-3.1777 Y2.5189  
G01 X-3.1745 Y2.5410  
G01 X-3.2491 Y2.6067  
G01 X-3.2497 Y2.6071  
G01 X-3.2508 Y2.6082  
G01 X-3.2519 Y2.6093  
G01 X-3.2524 Y2.6098  
G01 X-3.2529 Y2.6103  
G01 X-3.2537 Y2.6116  
G01 X-3.2547 Y2.6129  
G01 X-3.2550 Y2.6135  
G01 X-3.2554 Y2.6141  
G01 X-3.2560 Y2.6155  
G01 X-3.2567 Y2.6169  
G01 X-3.2568 Y2.6176  
G01 X-3.2571 Y2.6183  
G01 X-3.2574 Y2.6198  
G01 X-3.2578 Y2.6213  
G01 X-3.2579 Y2.6220  
G01 X-3.2580 Y2.6227  
G01 X-3.2580 Y2.6243  
G01 X-3.2581 Y2.6258  
G01 X-3.2580 Y2.6265  
G01 X-3.2580 Y3.0011  
G01 X-3.2586 Y3.0012  
G01 X-3.2660 Y3.0037  
G01 X-3.2731 Y3.0072  
G01 X-3.2794 Y3.0119  
G01 X-3.2850 Y3.0174  
G01 X-3.2896 Y3.0238  
G01 X-3.2932 Y3.0308  
G01 X-3.2956 Y3.0383  
G01 X-3.2969 Y3.0461  
G01 X-3.2969 Y3.0539  
G01 X-3.2956 Y3.0617  
G01 X-3.2932 Y3.0692  
G01 X-3.2896 Y3.0762  
G01 X-3.2850 Y3.0826  
G01 X-3.2794 Y3.0881  
G01 X-3.2731 Y3.0928  
G01 X-3.2660 Y3.0963  
G01 X-3.2586 Y3.0988  
G01 X-3.2508 Y3.1000  
G01 X-3.2429 Y3.1000  
G01 X-3.2351 Y3.0988  
G01 X-3.2277 Y3.0963  
G01 X-3.2206 Y3.0928  
G01 X-3.2143 Y3.0881  
G01 X-3.2087 Y3.0826  
G01 X-3.2041 Y3.0762  
G01 X-3.2005 Y3.0692  
G01 X-3.1981 Y3.0617  
G01 X-3.1969 Y3.0539  
G01 X-3.1969 Y3.0461  
G01 X-3.1981 Y3.0383  
G01 X-3.2005 Y3.0308  
G01 X-3.2041 Y3.0238  
G01 X-3.2087 Y3.0174  
G01 X-3.2120 Y3.0141  
G01 X-3.2120 Y2.6354  
G01 X-3.1510 Y2.5815  
G01 X-3.0929 Y2.6397  
G01 X-3.0897 Y2.6429  
G01 X-3.0859 Y2.6454  
G01 X-3.0817 Y2.6471  
G01 X-3.0773 Y2.6480  
G01 X-2.5795 Y2.6480  
G01 X-2.3383 Y2.8893  
G01 X-2.3593 Y3.0015  
G01 X-2.3660 Y3.0037  
G01 X-2.3731 Y3.0072  
G01 X-2.3794 Y3.0119  
G01 X-2.3850 Y3.0174  
G01 X-2.3896 Y3.0238  
G01 X-2.3932 Y3.0308  
G01 X-2.3956 Y3.0383  
G01 X-2.3969 Y3.0461  
G01 X-2.3969 Y3.0539  
G01 X-2.3956 Y3.0617  
G01 X-2.3932 Y3.0692  
G01 X-2.3896 Y3.0762  
G01 X-2.3850 Y3.0826  
G01 X-2.3794 Y3.0881  
G01 X-2.3731 Y3.0928  
G01 X-2.3660 Y3.0963  
G01 X-2.3586 Y3.0988  
G01 X-2.3508 Y3.1000  
G01 X-2.3429 Y3.1000  
G01 X-2.3351 Y3.0988  
G01 X-2.3277 Y3.0963  
G01 X-2.3206 Y3.0928  
G01 X-2.3143 Y3.0881  
G01 X-2.3087 Y3.0826  
G01 X-2.3041 Y3.0762  
G01 X-2.3005 Y3.0692  
G01 X-2.2981 Y3.0617  
G01 X-2.2969 Y3.0539  
G01 X-2.2969 Y3.0461  
G01 X-2.2981 Y3.0383  
G01 X-2.3005 Y3.0308  
G01 X-2.3041 Y3.0238  
G01 X-2.3087 Y3.0174  
G01 X-2.3143 Y3.0119  
G01 X-2.3144 Y3.0118  
G01 X-2.2937 Y2.9013  
G01 X-2.1507 Y2.7681  
G01 X-2.1503 Y2.7679  
G01 X-2.1490 Y2.7666  
G01 X-2.1477 Y2.7653  
G01 X-2.1474 Y2.7650  
G01 X-2.1471 Y2.7647  
G01 X-2.1461 Y2.7631  
G01 X-2.1450 Y2.7616  
G01 X-2.1448 Y2.7612  
G01 X-2.1446 Y2.7609  
G01 X-2.1439 Y2.7592  
G01 X-2.1431 Y2.7575  
G01 X-2.1430 Y2.7571  
G01 X-2.1429 Y2.7567  
G01 X-2.1425 Y2.7549  
G01 X-2.1421 Y2.7531  
G01 X-2.1421 Y2.7527  
G01 X-2.1420 Y2.7523  
G01 X-2.1420 Y2.7504  
G01 X-2.1419 Y2.7486  
G01 X-2.1420 Y2.7481  
G01 X-2.1420 Y2.7341  
G01 X-2.0141 Y2.5970  
G01 X-1.8336 Y2.5790  
G01 X-1.7823 Y2.6302  
G01 X-1.7187 Y2.7134  
G01 X-1.7179 Y2.7147  
G01 X-1.7173 Y2.7152  
G01 X-1.7169 Y2.7158  
G01 X-1.7157 Y2.7168  
G01 X-1.6530 Y2.7795  
G01 X-1.6530 Y2.7882  
G01 X-1.6531 Y2.7887  
G01 X-1.6530 Y2.7905  
G01 X-1.6530 Y2.7923  
G01 X-1.6529 Y2.7927  
G01 X-1.6529 Y2.7932  
G01 X-1.6525 Y2.7949  
G01 X-1.6521 Y2.7967  
G01 X-1.6519 Y2.7971  
G01 X-1.6518 Y2.7976  
G01 X-1.6511 Y2.7992  
G01 X-1.6504 Y2.8009  
G01 X-1.6501 Y2.8013  
G01 X-1.6499 Y2.8017  
G01 X-1.6489 Y2.8032  
G01 X-1.6479 Y2.8047  
G01 X-1.6475 Y2.8050  
G01 X-1.4890 Y3.0230  
G01 X-1.4896 Y3.0238  
G01 X-1.4932 Y3.0308  
G01 X-1.4956 Y3.0383  
G01 X-1.4969 Y3.0461  
G01 X-1.4969 Y3.0539  
G01 X-1.4956 Y3.0617  
G01 X-1.4932 Y3.0692  
G01 X-1.4896 Y3.0762  
G01 X-1.4850 Y3.0826  
G01 X-1.4794 Y3.0881  
G01 X-1.4731 Y3.0928  
G01 X-1.4660 Y3.0963  
G01 X-1.4586 Y3.0988  
G01 X-1.4508 Y3.1000  
G01 X-1.4429 Y3.1000  
G01 X-1.4351 Y3.0988  
G01 X-1.4277 Y3.0963  
G01 X-1.4206 Y3.0928  
G01 X-1.4143 Y3.0881  
G01 X-1.4087 Y3.0826  
G01 X-1.4041 Y3.0762  
G01 X-1.4005 Y3.0692  
G01 X-1.3981 Y3.0617  
G01 X-1.3969 Y3.0539  
G01 X-1.3969 Y3.0461  
G01 X-1.3981 Y3.0383  
G01 X-1.4005 Y3.0308  
G01 X-1.4041 Y3.0238  
G01 X-1.4087 Y3.0174  
G01 X-1.4143 Y3.0119  
G01 X-1.4206 Y3.0072  
G01 X-1.4277 Y3.0037  
G01 X-1.4351 Y3.0012  
G01 X-1.4429 Y3.0000  
G01 X-1.4490 Y3.0000  
G01 X-1.4499 Y2.9987  
G01 X-1.4501 Y2.9983  
G01 X-1.4511 Y2.9969  
G01 X-1.4521 Y2.9954  
G01 X-1.4525 Y2.9950  
G01 X-1.6070 Y2.7825  
G01 X-1.6070 Y2.7677  
G01 X-1.6079 Y2.7633  
G01 X-1.6096 Y2.7591  
G01 X-1.6121 Y2.7553  
G01 X-1.6827 Y2.6848  
G01 X-1.7463 Y2.6016  
G01 X-1.7471 Y2.6003  
G01 X-1.7477 Y2.5998  
G01 X-1.7481 Y2.5992  
G01 X-1.7493 Y2.5982  
G01 X-1.8037 Y2.5438  
G01 X-1.8222 Y2.4418  
G01 X-1.8223 Y2.4405  
G01 X-1.8226 Y2.4396  
G01 X-1.8228 Y2.4387  
G01 X-1.8233 Y2.4374  
G01 X-1.8237 Y2.4361  
G01 X-1.8241 Y2.4353  
G01 X-1.8244 Y2.4344  
G01 X-1.8252 Y2.4333  
G01 X-1.8258 Y2.4321  
G01 X-1.8264 Y2.4314  
G01 X-1.8269 Y2.4306  
G01 X-1.8278 Y2.4297  
G01 X-1.8287 Y2.4286  
G01 X-1.8294 Y2.4280  
G01 X-1.8300 Y2.4274  
G01 X-1.8311 Y2.4266  
G01 X-1.8670 Y2.3973  
G01 X-1.8670 Y2.3967  
G01 X-1.8683 Y2.3904  
G01 X-1.8708 Y2.3844  
G01 X-1.8744 Y2.3790  
G01 X-1.8790 Y2.3744  
G01 X-1.8844 Y2.3708  
G01 X-1.8904 Y2.3683  
G01 X-1.8967 Y2.3670  
G01 X-1.9033 Y2.3670  
G01 X-1.9096 Y2.3683  
G01 X-1.9156 Y2.3708  
G01 X-1.9210 Y2.3744  
G01 X-1.9256 Y2.3790  
G01 X-1.9292 Y2.3844  
G01 X-1.9317 Y2.3904  
G01 X-1.9330 Y2.3967  
G01 X-1.9330 Y2.4033  
G01 X-1.9317 Y2.4096  
G01 X-1.9292 Y2.4156  
G01 X-1.9256 Y2.4210  
G01 X-1.9210 Y2.4256  
G01 X-1.9156 Y2.4292  
G01 X-1.9096 Y2.4317  
G01 X-1.9033 Y2.4330  
G01 X-1.8967 Y2.4330  
G01 X-1.8961 Y2.4329  
G01 X-1.8661 Y2.4574  
G01 X-1.8521 Y2.5346  
G01 X-2.0265 Y2.5520  
G01 X-2.0281 Y2.5521  
G01 X-2.0288 Y2.5523  
G01 X-2.0295 Y2.5523  
G01 X-2.0310 Y2.5528  
G01 X-2.0325 Y2.5531  
G01 X-2.0332 Y2.5534  
G01 X-2.0339 Y2.5537  
G01 X-2.0352 Y2.5544  
G01 X-2.0366 Y2.5550  
G01 X-2.0372 Y2.5554  
G01 X-2.0379 Y2.5558  
G01 X-2.0390 Y2.5568  
G01 X-2.0403 Y2.5577  
G01 X-2.0408 Y2.5582  
G01 X-2.0414 Y2.5587  
G01 X-2.0423 Y2.5599  
G01 X-2.1815 Y2.7090  
G01 X-2.1829 Y2.7103  
G01 X-2.1831 Y2.7107  
G01 X-2.1834 Y2.7110  
G01 X-2.1843 Y2.7126  
G01 X-2.1854 Y2.7141  
G01 X-2.1855 Y2.7145  
G01 X-2.1857 Y2.7148  
G01 X-2.1864 Y2.7166  
G01 X-2.1871 Y2.7183  
G01 X-2.1872 Y2.7187  
G01 X-2.1873 Y2.7191  
G01 X-2.1876 Y2.7209  
G01 X-2.1880 Y2.7227  
G01 X-2.1880 Y2.7231  
G01 X-2.1881 Y2.7235  
G01 X-2.1880 Y2.7254  
G01 X-2.1880 Y2.7400  
G01 X-2.3094 Y2.8530  
G01 X-2.5553 Y2.6071  
G01 X-2.5591 Y2.6046  
G01 X-2.5633 Y2.6029  
G01 X-2.5677 Y2.6020  
G01 X-3.0655 Y2.6020  
G01 X-3.1283 Y2.5392  
G01 X-3.1301 Y2.5266  
G01 X-3.0717 Y2.4905  
G01 X-3.0682 Y2.4940  
G01 X-3.0318 Y2.4940  
G01 X-3.0108 Y2.4730  
G01 X-2.9892 Y2.4730  
G01 X-2.9682 Y2.4940  
G01 X-2.9318 Y2.4940  
G01 X-2.9060 Y2.4682  
G01 X-2.9060 Y2.4318  
G01 X-2.9318 Y2.4060  
G01 X-2.9682 Y2.4060  
G01 X-2.9892 Y2.4270  
G01 X-3.0108 Y2.4270  
G01 X-3.0270 Y2.4108  
G01 X-3.0270 Y2.3892  
G01 X-3.0108 Y2.3730  
G01 X-2.9892 Y2.3730  
G01 X-2.9682 Y2.3940  
G01 X-2.9318 Y2.3940  
G01 X-2.9060 Y2.3682  
G01 X-2.9060 Y2.3318  
G01 X-2.9270 Y2.3108  
G01 X-2.9270 Y2.2892  
G01 X-2.9108 Y2.2730  
G01 X-2.7314 Y2.2730  
G01 X-2.7230 Y2.2814  
G01 X-2.7230 Y2.3691  
G01 X-2.7245 Y2.3701  
G01 X-2.7299 Y2.3755  
G01 X-2.7341 Y2.3818  
G01 X-2.7370 Y2.3888  
G01 X-2.7385 Y2.3962  
G01 X-2.7385 Y2.4038  
G01 X-2.7370 Y2.4112  
G01 X-2.7341 Y2.4182  
G01 X-2.7299 Y2.4245  
G01 X-2.7245 Y2.4299  
G01 X-2.7182 Y2.4341  
G01 X-2.7112 Y2.4370  
G01 X-2.7038 Y2.4385  
G01 X-2.6962 Y2.4385  
G01 X-2.6888 Y2.4370  
G01 X-2.6818 Y2.4341  
G01 X-2.6755 Y2.4299  
G01 X-2.6701 Y2.4245  
G01 X-2.6659 Y2.4182  
G01 X-2.6630 Y2.4112  
G01 X-2.6615 Y2.4038  
G01 X-2.6615 Y2.3962  
G01 X-2.6630 Y2.3888  
G01 X-2.6659 Y2.3818  
G01 X-2.6701 Y2.3755  
G01 X-2.6755 Y2.3701  
G01 X-2.6770 Y2.3691  
G01 X-2.6770 Y2.2814  
G01 X-2.6615 Y2.2659  
G01 X-2.6615 Y2.2341  
G01 X-2.6841 Y2.2115  
G01 X-2.7159 Y2.2115  
G01 X-2.7314 Y2.2270  
G01 X-2.9108 Y2.2270  
G01 X-2.9318 Y2.2060  
G01 X-2.9682 Y2.2060  
G01 X-2.9892 Y2.2270  
G01 X-3.0108 Y2.2270  
G01 X-3.0318 Y2.2060  
G01 X-3.0682 Y2.2060  
G01 X-3.0940 Y2.2318  
G01 X-3.0940 Y2.2682  
G01 X-3.0682 Y2.2940  
G01 X-3.0318 Y2.2940  
G01 X-3.0108 Y2.2730  
G01 X-2.9892 Y2.2730  
G01 X-2.9730 Y2.2892  
G01 X-2.9730 Y2.3108  
G01 X-2.9892 Y2.3270  
G01 X-3.0108 Y2.3270  
G01 X-3.0318 Y2.3060  
G01 X-3.0682 Y2.3060  
G01 X-3.0940 Y2.3318  
G01 X-3.0940 Y2.3682  
G01 X-3.0730 Y2.3892  
G01 X-3.0730 Y2.4108  
G01 X-3.0940 Y2.4318  
G01 X-3.0940 Y2.4502  
G01 X-3.1320 Y2.4737  
G01 X-3.1320 Y2.1232  
G01 X-3.0541 Y2.0280  
G01 X-1.4231 Y2.0280  
G01 X-1.0905 Y2.2941  
G01 X-1.1136 Y2.4020  
G01 X-1.4773 Y2.4020  
G01 X-1.4817 Y2.4029  
G01 X-1.4859 Y2.4046  
G01 X-1.4897 Y2.4071  
G01 X-1.4929 Y2.4103  
G01 X-1.5595 Y2.4770  
G01 X-1.5763 Y2.4770  
G01 X-1.5790 Y2.4744  
G01 X-1.5844 Y2.4708  
G01 X-1.5904 Y2.4683  
G01 X-1.5967 Y2.4670  
G01 X-1.6033 Y2.4670  
G01 X-1.6096 Y2.4683  
G01 X-1.6156 Y2.4708  
G01 X-1.6210 Y2.4744  
G01 X-1.6256 Y2.4790  
G01 X-1.6292 Y2.4844  
G01 X-1.6317 Y2.4904  
G01 X-1.6330 Y2.4967  
G01 X-1.6330 Y2.5033  
G01 X-1.6317 Y2.5096  
G01 X-1.6292 Y2.5156  
G01 X-1.6256 Y2.5210  
G01 X-1.6210 Y2.5256  
G01 X-1.6156 Y2.5292  
G01 X-1.6096 Y2.5317  
G01 X-1.6033 Y2.5330  
G01 X-1.5967 Y2.5330  
G01 X-1.5904 Y2.5317  
G01 X-1.5844 Y2.5292  
G01 X-1.5790 Y2.5256  
G01 X-1.5763 Y2.5230  
G01 X-1.5477 Y2.5230  
G01 X-1.5433 Y2.5221  
G01 X-1.5391 Y2.5204  
G01 X-1.5353 Y2.5179  
G01 X-1.4655 Y2.4480  
G01 X-1.1012 Y2.4480  
G01 X-0.9280 Y2.5483  
G01 X-0.9280 Y2.7945  
G01 X-0.9281 Y2.7963  
G01 X-0.9280 Y2.7968  
G01 X-0.9280 Y2.7973  
G01 X-0.9277 Y2.7990  
G01 X-0.9274 Y2.8008  
G01 X-0.9272 Y2.8012  
G01 X-0.9271 Y2.8017  
G01 X-0.9264 Y2.8034  
G01 X-0.9258 Y2.8050  
G01 X-0.9256 Y2.8054  
G01 X-0.9254 Y2.8059  
G01 X-0.9244 Y2.8074  
G01 X-0.9235 Y2.8089  
G01 X-0.9231 Y2.8093  
G01 X-0.9229 Y2.8097  
G01 X-0.9216 Y2.8109  
G01 X-0.9204 Y2.8122  
G01 X-0.9200 Y2.8125  
G01 X-0.9197 Y2.8129  
G01 X-0.9182 Y2.8139  
G01 X-0.5969 Y3.0489  
G01 X-0.5969 Y3.0539  
G01 X-0.5956 Y3.0617  
G01 X-0.5932 Y3.0692  
G01 X-0.5896 Y3.0762  
G01 X-0.5850 Y3.0826  
G01 X-0.5794 Y3.0881  
G01 X-0.5731 Y3.0928  
G01 X-0.5660 Y3.0963  
G01 X-0.5586 Y3.0988  
G01 X-0.5508 Y3.1000  
G01 X-0.5429 Y3.1000  
G01 X-0.5351 Y3.0988  
G01 X-0.5277 Y3.0963  
G01 X-0.5206 Y3.0928  
G01 X-0.5143 Y3.0881  
G01 X-0.5087 Y3.0826  
G01 X-0.5041 Y3.0762  
G01 X-0.5005 Y3.0692  
G01 X-0.4981 Y3.0617  
G01 X-0.4969 Y3.0539  
G01 X-0.4969 Y3.0461  
G01 X-0.4981 Y3.0383  
G01 X-0.5005 Y3.0308  
G01 X-0.5041 Y3.0238  
G01 X-0.5087 Y3.0174  
G01 X-0.5143 Y3.0119  
G01 X-0.5206 Y3.0072  
G01 X-0.5277 Y3.0037  
G01 X-0.5351 Y3.0012  
G01 X-0.5429 Y3.0000  
G01 X-0.5508 Y3.0000  
G01 X-0.5586 Y3.0012  
G01 X-0.5660 Y3.0037  
G01 X-0.5731 Y3.0072  
G01 X-0.5745 Y3.0082  
G00 Z0.0500  
G00 X-0.9779 Y3.0067  
G01 Z-0.0040 F10    
G01 X-0.9770 Y3.0023  F20    
G01 X-0.9770 Y2.6237  
G01 X-0.9670 Y2.6137  
G01 X-0.9670 Y2.5863  
G01 X-0.9863 Y2.5670  
G01 X-1.0137 Y2.5670  
G01 X-1.0330 Y2.5863  
G01 X-1.0330 Y2.6137  
G01 X-1.0230 Y2.6237  
G01 X-1.0230 Y2.9905  
G01 X-1.0356 Y3.0031  
G01 X-1.0414 Y3.0012  
G01 X-1.0492 Y3.0000  
G01 X-1.0571 Y3.0000  
G01 X-1.0649 Y3.0012  
G01 X-1.0723 Y3.0037  
G01 X-1.0794 Y3.0072  
G01 X-1.0857 Y3.0119  
G01 X-1.0913 Y3.0174  
G01 X-1.0959 Y3.0238  
G01 X-1.0995 Y3.0308  
G01 X-1.1019 Y3.0383  
G01 X-1.1031 Y3.0461  
G01 X-1.1031 Y3.0539  
G01 X-1.1019 Y3.0617  
G01 X-1.0995 Y3.0692  
G01 X-1.0959 Y3.0762  
G01 X-1.0913 Y3.0826  
G01 X-1.0857 Y3.0881  
G01 X-1.0794 Y3.0928  
G01 X-1.0723 Y3.0963  
G01 X-1.0649 Y3.0988  
G01 X-1.0571 Y3.1000  
G01 X-1.0492 Y3.1000  
G01 X-1.0414 Y3.0988  
G01 X-1.0340 Y3.0963  
G01 X-1.0269 Y3.0928  
G01 X-1.0206 Y3.0881  
G01 X-1.0150 Y3.0826  
G01 X-1.0104 Y3.0762  
G01 X-1.0068 Y3.0692  
G01 X-1.0044 Y3.0617  
G01 X-1.0031 Y3.0539  
G01 X-1.0031 Y3.0461  
G01 X-1.0044 Y3.0383  
G01 X-1.0047 Y3.0372  
G01 X-0.9821 Y3.0147  
G01 X-0.9796 Y3.0109  
G01 X-0.9779 Y3.0067  
G00 Z0.0500  
G00 X-1.2119 Y3.0174  
G01 Z-0.0040 F10    
G01 X-1.2174 Y3.0119  F20    
G01 X-1.2238 Y3.0072  
G01 X-1.2270 Y3.0056  
G01 X-1.2270 Y2.7737  
G01 X-1.2170 Y2.7637  
G01 X-1.2170 Y2.7363  
G01 X-1.2363 Y2.7170  
G01 X-1.2637 Y2.7170  
G01 X-1.2830 Y2.7363  
G01 X-1.2830 Y2.7637  
G01 X-1.2730 Y2.7737  
G01 X-1.2730 Y3.0056  
G01 X-1.2762 Y3.0072  
G01 X-1.2826 Y3.0119  
G01 X-1.2881 Y3.0174  
G01 X-1.2928 Y3.0238  
G01 X-1.2963 Y3.0308  
G01 X-1.2988 Y3.0383  
G01 X-1.3000 Y3.0461  
G01 X-1.3000 Y3.0539  
G01 X-1.2988 Y3.0617  
G01 X-1.2963 Y3.0692  
G01 X-1.2928 Y3.0762  
G01 X-1.2881 Y3.0826  
G01 X-1.2826 Y3.0881  
G01 X-1.2762 Y3.0928  
G01 X-1.2692 Y3.0963  
G01 X-1.2617 Y3.0988  
G01 X-1.2539 Y3.1000  
G01 X-1.2461 Y3.1000  
G01 X-1.2383 Y3.0988  
G01 X-1.2308 Y3.0963  
G01 X-1.2238 Y3.0928  
G01 X-1.2174 Y3.0881  
G01 X-1.2119 Y3.0826  
G01 X-1.2072 Y3.0762  
G01 X-1.2037 Y3.0692  
G01 X-1.2012 Y3.0617  
G01 X-1.2000 Y3.0539  
G01 X-1.2000 Y3.0461  
G01 X-1.2012 Y3.0383  
G01 X-1.2037 Y3.0308  
G01 X-1.2072 Y3.0238  
G01 X-1.2119 Y3.0174  
G00 Z0.0500  
G00 X-1.1647 Y2.7679  
G01 Z-0.0040 F10    
G01 X-1.1609 Y2.7704  F20    
G01 X-1.1567 Y2.7721  
G01 X-1.1523 Y2.7730  
G01 X-1.1237 Y2.7730  
G01 X-1.1137 Y2.7830  
G01 X-1.0863 Y2.7830  
G01 X-1.0670 Y2.7637  
G01 X-1.0670 Y2.7363  
G01 X-1.0863 Y2.7170  
G01 X-1.1137 Y2.7170  
G01 X-1.1237 Y2.7270  
G01 X-1.1405 Y2.7270  
G01 X-1.2071 Y2.6603  
G01 X-1.2103 Y2.6571  
G01 X-1.2141 Y2.6546  
G01 X-1.2183 Y2.6529  
G01 X-1.2227 Y2.6520  
G01 X-1.4773 Y2.6520  
G01 X-1.4817 Y2.6529  
G01 X-1.4859 Y2.6546  
G01 X-1.4897 Y2.6571  
G01 X-1.5495 Y2.7170  
G01 X-1.5505 Y2.7170  
G01 X-1.7055 Y2.5620  
G01 X-1.7929 Y2.3482  
G01 X-1.7930 Y2.3480  
G01 X-1.7938 Y2.3461  
G01 X-1.7946 Y2.3442  
G01 X-1.7947 Y2.3440  
G01 X-1.7948 Y2.3438  
G01 X-1.7959 Y2.3421  
G01 X-1.7971 Y2.3404  
G01 X-1.7972 Y2.3403  
G01 X-1.7974 Y2.3401  
G01 X-1.7988 Y2.3387  
G01 X-1.8003 Y2.3372  
G01 X-1.8004 Y2.3371  
G01 X-1.8006 Y2.3369  
G01 X-1.8023 Y2.3358  
G01 X-1.8040 Y2.3347  
G01 X-1.8042 Y2.3346  
G01 X-1.8676 Y2.2935  
G01 X-1.8683 Y2.2904  
G01 X-1.8708 Y2.2844  
G01 X-1.8744 Y2.2790  
G01 X-1.8790 Y2.2744  
G01 X-1.8844 Y2.2708  
G01 X-1.8904 Y2.2683  
G01 X-1.8967 Y2.2670  
G01 X-1.9033 Y2.2670  
G01 X-1.9096 Y2.2683  
G01 X-1.9156 Y2.2708  
G01 X-1.9210 Y2.2744  
G01 X-1.9237 Y2.2770  
G01 X-2.0523 Y2.2770  
G01 X-2.0567 Y2.2779  
G01 X-2.0609 Y2.2796  
G01 X-2.0647 Y2.2821  
G01 X-2.0995 Y2.3170  
G01 X-2.1137 Y2.3170  
G01 X-2.1330 Y2.3363  
G01 X-2.1330 Y2.3637  
G01 X-2.1205 Y2.3762  
G01 X-2.1154 Y2.4270  
G01 X-2.2263 Y2.4270  
G01 X-2.2363 Y2.4170  
G01 X-2.2637 Y2.4170  
G01 X-2.2830 Y2.4363  
G01 X-2.2830 Y2.4505  
G01 X-2.3179 Y2.4853  
G01 X-2.3204 Y2.4891  
G01 X-2.3221 Y2.4933  
G01 X-2.3230 Y2.4977  
G01 X-2.3230 Y2.6763  
G01 X-2.3330 Y2.6863  
G01 X-2.3330 Y2.7137  
G01 X-2.3137 Y2.7330  
G01 X-2.2863 Y2.7330  
G01 X-2.2670 Y2.7137  
G01 X-2.2670 Y2.6863  
G01 X-2.2770 Y2.6763  
G01 X-2.2770 Y2.5095  
G01 X-2.2505 Y2.4830  
G01 X-2.2363 Y2.4830  
G01 X-2.2263 Y2.4730  
G01 X-2.1137 Y2.4730  
G01 X-2.1037 Y2.4830  
G01 X-2.0763 Y2.4830  
G01 X-2.0570 Y2.4637  
G01 X-2.0570 Y2.4363  
G01 X-2.0695 Y2.4238  
G01 X-2.0747 Y2.3714  
G01 X-2.0670 Y2.3637  
G01 X-2.0670 Y2.3495  
G01 X-2.0405 Y2.3230  
G01 X-1.9237 Y2.3230  
G01 X-1.9210 Y2.3256  
G01 X-1.9156 Y2.3292  
G01 X-1.9096 Y2.3317  
G01 X-1.9033 Y2.3330  
G01 X-1.8967 Y2.3330  
G01 X-1.8926 Y2.3322  
G01 X-1.8336 Y2.3704  
G01 X-1.7471 Y2.5817  
G01 X-1.7463 Y2.5838  
G01 X-1.7454 Y2.5858  
G01 X-1.7442 Y2.5877  
G01 X-1.7429 Y2.5896  
G01 X-1.7413 Y2.5912  
G01 X-1.7397 Y2.5928  
G01 X-1.5830 Y2.7495  
G01 X-1.5830 Y2.7637  
G01 X-1.5637 Y2.7830  
G01 X-1.5363 Y2.7830  
G01 X-1.5170 Y2.7637  
G01 X-1.5170 Y2.7495  
G01 X-1.4655 Y2.6980  
G01 X-1.2345 Y2.6980  
G01 X-1.1647 Y2.7679  
G00 Z0.0500  
G00 X-1.1637 Y2.6330  
G01 Z-0.0040 F10    
G01 X-1.1363 Y2.6330  F20    
G01 X-1.1170 Y2.6137  
G01 X-1.1170 Y2.5863  
G01 X-1.1363 Y2.5670  
G01 X-1.1505 Y2.5670  
G01 X-1.1571 Y2.5603  
G01 X-1.1603 Y2.5571  
G01 X-1.1853 Y2.5321  
G01 X-1.1891 Y2.5296  
G01 X-1.1933 Y2.5279  
G01 X-1.1977 Y2.5270  
G01 X-1.2763 Y2.5270  
G01 X-1.2863 Y2.5170  
G01 X-1.3005 Y2.5170  
G01 X-1.3353 Y2.4821  
G01 X-1.3391 Y2.4796  
G01 X-1.3433 Y2.4779  
G01 X-1.3477 Y2.4770  
G01 X-1.4263 Y2.4770  
G01 X-1.4363 Y2.4670  
G01 X-1.4637 Y2.4670  
G01 X-1.4830 Y2.4863  
G01 X-1.4830 Y2.5137  
G01 X-1.4637 Y2.5330  
G01 X-1.4363 Y2.5330  
G01 X-1.4263 Y2.5230  
G01 X-1.3595 Y2.5230  
G01 X-1.3330 Y2.5495  
G01 X-1.3330 Y2.5520  
G01 X-1.6155 Y2.5520  
G01 X-1.6520 Y2.5155  
G01 X-1.6520 Y2.4845  
G01 X-1.6005 Y2.4330  
G01 X-1.5967 Y2.4330  
G01 X-1.5904 Y2.4317  
G01 X-1.5844 Y2.4292  
G01 X-1.5790 Y2.4256  
G01 X-1.5744 Y2.4210  
G01 X-1.5708 Y2.4156  
G01 X-1.5683 Y2.4096  
G01 X-1.5670 Y2.4033  
G01 X-1.5670 Y2.3967  
G01 X-1.5683 Y2.3904  
G01 X-1.5708 Y2.3844  
G01 X-1.5744 Y2.3790  
G01 X-1.5790 Y2.3744  
G01 X-1.5844 Y2.3708  
G01 X-1.5904 Y2.3683  
G01 X-1.5967 Y2.3670  
G01 X-1.6033 Y2.3670  
G01 X-1.6096 Y2.3683  
G01 X-1.6156 Y2.3708  
G01 X-1.6210 Y2.3744  
G01 X-1.6256 Y2.3790  
G01 X-1.6292 Y2.3844  
G01 X-1.6317 Y2.3904  
G01 X-1.6330 Y2.3967  
G01 X-1.6330 Y2.4005  
G01 X-1.6897 Y2.4571  
G01 X-1.6929 Y2.4603  
G01 X-1.6954 Y2.4641  
G01 X-1.6971 Y2.4683  
G01 X-1.6980 Y2.4727  
G01 X-1.6980 Y2.5273  
G01 X-1.6971 Y2.5317  
G01 X-1.6954 Y2.5359  
G01 X-1.6929 Y2.5397  
G01 X-1.6429 Y2.5897  
G01 X-1.6397 Y2.5929  
G01 X-1.6359 Y2.5954  
G01 X-1.6317 Y2.5971  
G01 X-1.6273 Y2.5980  
G01 X-1.1845 Y2.5980  
G01 X-1.1830 Y2.5995  
G01 X-1.1830 Y2.6137  
G01 X-1.1637 Y2.6330  
G00 Z0.0500  
G00 X-1.1637 Y2.3330  
G01 Z-0.0040 F10    
G01 X-1.1363 Y2.3330  F20    
G01 X-1.1170 Y2.3137  
G01 X-1.1170 Y2.2863  
G01 X-1.1363 Y2.2670  
G01 X-1.1637 Y2.2670  
G01 X-1.1737 Y2.2770  
G01 X-1.2770 Y2.2770  
G01 X-1.2770 Y2.2237  
G01 X-1.2670 Y2.2137  
G01 X-1.2670 Y2.1863  
G01 X-1.2863 Y2.1670  
G01 X-1.3137 Y2.1670  
G01 X-1.3330 Y2.1863  
G01 X-1.3330 Y2.2137  
G01 X-1.3230 Y2.2237  
G01 X-1.3230 Y2.3220  
G01 X-1.5028 Y2.3220  
G01 X-1.5602 Y2.2823  
G01 X-1.5603 Y2.2821  
G01 X-1.5621 Y2.2810  
G01 X-1.5638 Y2.2798  
G01 X-1.5639 Y2.2797  
G01 X-1.5641 Y2.2796  
G01 X-1.5660 Y2.2788  
G01 X-1.5679 Y2.2780  
G01 X-1.5681 Y2.2780  
G01 X-1.5683 Y2.2779  
G01 X-1.5703 Y2.2775  
G01 X-1.5724 Y2.2770  
G01 X-1.5725 Y2.2770  
G01 X-1.5727 Y2.2770  
G01 X-1.5748 Y2.2770  
G01 X-1.5764 Y2.2770  
G01 X-1.5790 Y2.2744  
G01 X-1.5844 Y2.2708  
G01 X-1.5904 Y2.2683  
G01 X-1.5967 Y2.2670  
G01 X-1.6033 Y2.2670  
G01 X-1.6096 Y2.2683  
G01 X-1.6156 Y2.2708  
G01 X-1.6210 Y2.2744  
G01 X-1.6256 Y2.2790  
G01 X-1.6292 Y2.2844  
G01 X-1.6317 Y2.2904  
G01 X-1.6330 Y2.2967  
G01 X-1.6330 Y2.3033  
G01 X-1.6317 Y2.3096  
G01 X-1.6292 Y2.3156  
G01 X-1.6256 Y2.3210  
G01 X-1.6210 Y2.3256  
G01 X-1.6156 Y2.3292  
G01 X-1.6096 Y2.3317  
G01 X-1.6033 Y2.3330  
G01 X-1.5967 Y2.3330  
G01 X-1.5904 Y2.3317  
G01 X-1.5844 Y2.3292  
G01 X-1.5790 Y2.3256  
G01 X-1.5787 Y2.3254  
G01 X-1.5248 Y2.3627  
G01 X-1.5247 Y2.3629  
G01 X-1.5229 Y2.3640  
G01 X-1.5212 Y2.3652  
G01 X-1.5211 Y2.3653  
G01 X-1.5209 Y2.3654  
G01 X-1.5190 Y2.3662  
G01 X-1.5171 Y2.3670  
G01 X-1.5169 Y2.3670  
G01 X-1.5167 Y2.3671  
G01 X-1.5147 Y2.3675  
G01 X-1.5126 Y2.3680  
G01 X-1.5125 Y2.3680  
G01 X-1.5123 Y2.3680  
G01 X-1.5102 Y2.3680  
G01 X-1.5081 Y2.3680  
G01 X-1.5079 Y2.3680  
G01 X-1.3287 Y2.3680  
G01 X-1.3137 Y2.3830  
G01 X-1.2863 Y2.3830  
G01 X-1.2670 Y2.3637  
G01 X-1.2670 Y2.3363  
G01 X-1.2770 Y2.3263  
G01 X-1.2770 Y2.3230  
G01 X-1.1737 Y2.3230  
G01 X-1.1637 Y2.3330  
G00 Z0.0500  
G00 X-1.0295 Y2.3295  
G01 Z-0.0040 F10    
G01 X-1.0295 Y2.3705  F20    
G01 X-1.0005 Y2.3995  
G01 X-0.9595 Y2.3995  
G01 X-0.9305 Y2.3705  
G01 X-0.9305 Y2.3295  
G01 X-0.9595 Y2.3005  
G01 X-0.9634 Y2.3005  
G01 X-0.9740 Y2.2207  
G01 X-0.9670 Y2.2137  
G01 X-0.9670 Y2.1863  
G01 X-0.9863 Y2.1670  
G01 X-1.0137 Y2.1670  
G01 X-1.0330 Y2.1863  
G01 X-1.0330 Y2.2137  
G01 X-1.0196 Y2.2271  
G01 X-1.0087 Y2.3087  
G01 X-1.0295 Y2.3295  
G00 Z0.0500  
G00 X-1.4088 Y2.3015  
G01 Z-0.0040 F10    
G01 X-1.4080 Y2.3005  F20    
G01 X-1.4071 Y2.2997  
G01 X-1.4066 Y2.2988  
G01 X-1.3580 Y2.2405  
G01 X-1.3571 Y2.2397  
G01 X-1.3566 Y2.2388  
G01 X-1.3559 Y2.2380  
G01 X-1.3553 Y2.2369  
G01 X-1.3546 Y2.2359  
G01 X-1.3542 Y2.2349  
G01 X-1.3537 Y2.2340  
G01 X-1.3534 Y2.2328  
G01 X-1.3529 Y2.2317  
G01 X-1.3527 Y2.2307  
G01 X-1.3524 Y2.2297  
G01 X-1.3522 Y2.2285  
G01 X-1.3520 Y2.2273  
G01 X-1.3520 Y2.2262  
G01 X-1.3519 Y2.2252  
G01 X-1.3520 Y2.2240  
G01 X-1.3520 Y2.1768  
G01 X-1.3519 Y2.1763  
G01 X-1.3520 Y2.1745  
G01 X-1.3520 Y2.1727  
G01 X-1.3521 Y2.1722  
G01 X-1.3521 Y2.1717  
G01 X-1.3525 Y2.1700  
G01 X-1.3529 Y2.1683  
G01 X-1.3531 Y2.1678  
G01 X-1.3532 Y2.1673  
G01 X-1.3539 Y2.1657  
G01 X-1.3546 Y2.1641  
G01 X-1.3549 Y2.1637  
G01 X-1.3551 Y2.1632  
G01 X-1.3562 Y2.1618  
G01 X-1.3571 Y2.1603  
G01 X-1.3575 Y2.1600  
G01 X-1.3578 Y2.1596  
G01 X-1.3591 Y2.1584  
G01 X-1.3603 Y2.1571  
G01 X-1.3608 Y2.1569  
G01 X-1.4791 Y2.0484  
G01 X-1.4803 Y2.0471  
G01 X-1.4808 Y2.0469  
G01 X-1.4811 Y2.0465  
G01 X-1.4826 Y2.0456  
G01 X-1.4841 Y2.0446  
G01 X-1.4846 Y2.0444  
G01 X-1.4850 Y2.0442  
G01 X-1.4867 Y2.0436  
G01 X-1.4883 Y2.0429  
G01 X-1.4888 Y2.0428  
G01 X-1.4893 Y2.0426  
G01 X-1.4910 Y2.0423  
G01 X-1.4927 Y2.0420  
G01 X-1.4932 Y2.0420  
G01 X-1.4937 Y2.0419  
G01 X-1.4955 Y2.0420  
G01 X-2.5132 Y2.0420  
G01 X-2.5136 Y2.0419  
G01 X-2.5154 Y2.0420  
G01 X-2.5173 Y2.0420  
G01 X-2.5177 Y2.0421  
G01 X-2.5181 Y2.0421  
G01 X-2.5199 Y2.0425  
G01 X-2.5217 Y2.0429  
G01 X-2.5221 Y2.0431  
G01 X-2.5225 Y2.0432  
G01 X-2.5242 Y2.0439  
G01 X-2.5259 Y2.0446  
G01 X-2.5263 Y2.0449  
G01 X-2.6814 Y2.1161  
G01 X-2.6818 Y2.1159  
G01 X-2.6888 Y2.1130  
G01 X-2.6962 Y2.1115  
G01 X-2.7038 Y2.1115  
G01 X-2.7112 Y2.1130  
G01 X-2.7182 Y2.1159  
G01 X-2.7245 Y2.1201  
G01 X-2.7299 Y2.1255  
G01 X-2.7309 Y2.1270  
G01 X-2.9108 Y2.1270  
G01 X-2.9318 Y2.1060  
G01 X-2.9682 Y2.1060  
G01 X-2.9892 Y2.1270  
G01 X-3.0108 Y2.1270  
G01 X-3.0318 Y2.1060  
G01 X-3.0682 Y2.1060  
G01 X-3.0940 Y2.1318  
G01 X-3.0940 Y2.1682  
G01 X-3.0682 Y2.1940  
G01 X-3.0318 Y2.1940  
G01 X-3.0108 Y2.1730  
G01 X-2.9892 Y2.1730  
G01 X-2.9682 Y2.1940  
G01 X-2.9318 Y2.1940  
G01 X-2.9108 Y2.1730  
G01 X-2.7309 Y2.1730  
G01 X-2.7299 Y2.1745  
G01 X-2.7245 Y2.1799  
G01 X-2.7182 Y2.1841  
G01 X-2.7112 Y2.1870  
G01 X-2.7038 Y2.1885  
G01 X-2.6962 Y2.1885  
G01 X-2.6888 Y2.1870  
G01 X-2.6818 Y2.1841  
G01 X-2.6755 Y2.1799  
G01 X-2.6701 Y2.1745  
G01 X-2.6659 Y2.1682  
G01 X-2.6630 Y2.1612  
G01 X-2.6623 Y2.1580  
G01 X-2.5100 Y2.0880  
G01 X-1.5039 Y2.0880  
G01 X-1.3980 Y2.1851  
G01 X-1.3980 Y2.2167  
G01 X-1.4358 Y2.2620  
G01 X-1.4646 Y2.2620  
G01 X-1.5317 Y2.1859  
G01 X-1.5321 Y2.1853  
G01 X-1.5332 Y2.1842  
G01 X-1.5343 Y2.1831  
G01 X-1.5348 Y2.1826  
G01 X-1.5353 Y2.1821  
G01 X-1.5366 Y2.1813  
G01 X-1.5379 Y2.1803  
G01 X-1.5385 Y2.1800  
G01 X-1.5391 Y2.1796  
G01 X-1.5405 Y2.1790  
G01 X-1.5419 Y2.1783  
G01 X-1.5426 Y2.1782  
G01 X-1.5433 Y2.1779  
G01 X-1.5448 Y2.1776  
G01 X-1.5463 Y2.1772  
G01 X-1.5470 Y2.1771  
G01 X-1.5477 Y2.1770  
G01 X-1.5493 Y2.1770  
G01 X-1.5508 Y2.1769  
G01 X-1.5515 Y2.1770  
G01 X-1.5763 Y2.1770  
G01 X-1.5790 Y2.1744  
G01 X-1.5844 Y2.1708  
G01 X-1.5904 Y2.1683  
G01 X-1.5967 Y2.1670  
G01 X-1.6033 Y2.1670  
G01 X-1.6096 Y2.1683  
G01 X-1.6156 Y2.1708  
G01 X-1.6210 Y2.1744  
G01 X-1.6256 Y2.1790  
G01 X-1.6292 Y2.1844  
G01 X-1.6317 Y2.1904  
G01 X-1.6330 Y2.1967  
G01 X-1.6330 Y2.2033  
G01 X-1.6317 Y2.2096  
G01 X-1.6292 Y2.2156  
G01 X-1.6256 Y2.2210  
G01 X-1.6210 Y2.2256  
G01 X-1.6156 Y2.2292  
G01 X-1.6096 Y2.2317  
G01 X-1.6033 Y2.2330  
G01 X-1.5967 Y2.2330  
G01 X-1.5904 Y2.2317  
G01 X-1.5844 Y2.2292  
G01 X-1.5790 Y2.2256  
G01 X-1.5763 Y2.2230  
G01 X-1.5604 Y2.2230  
G01 X-1.4933 Y2.2991  
G01 X-1.4929 Y2.2997  
G01 X-1.4918 Y2.3008  
G01 X-1.4907 Y2.3019  
G01 X-1.4902 Y2.3024  
G01 X-1.4897 Y2.3029  
G01 X-1.4884 Y2.3037  
G01 X-1.4871 Y2.3047  
G01 X-1.4865 Y2.3050  
G01 X-1.4859 Y2.3054  
G01 X-1.4845 Y2.3060  
G01 X-1.4831 Y2.3067  
G01 X-1.4824 Y2.3068  
G01 X-1.4817 Y2.3071  
G01 X-1.4802 Y2.3074  
G01 X-1.4787 Y2.3078  
G01 X-1.4780 Y2.3079  
G01 X-1.4773 Y2.3080  
G01 X-1.4757 Y2.3080  
G01 X-1.4742 Y2.3081  
G01 X-1.4735 Y2.3080  
G01 X-1.4262 Y2.3080  
G01 X-1.4252 Y2.3081  
G01 X-1.4240 Y2.3080  
G01 X-1.4227 Y2.3080  
G01 X-1.4217 Y2.3078  
G01 X-1.4207 Y2.3077  
G01 X-1.4195 Y2.3074  
G01 X-1.4183 Y2.3071  
G01 X-1.4173 Y2.3067  
G01 X-1.4163 Y2.3064  
G01 X-1.4152 Y2.3058  
G01 X-1.4141 Y2.3054  
G01 X-1.4132 Y2.3048  
G01 X-1.4123 Y2.3043  
G01 X-1.4114 Y2.3035  
G01 X-1.4103 Y2.3029  
G01 X-1.4096 Y2.3021  
G01 X-1.4088 Y2.3015  
G00 Z0.0500  
G00 X-1.4363 Y2.2330  
G01 Z-0.0040 F10    
G01 X-1.4170 Y2.2137  F20    
G01 X-1.4170 Y2.1863  
G01 X-1.4363 Y2.1670  
G01 X-1.4505 Y2.1670  
G01 X-1.5071 Y2.1103  
G01 X-1.5103 Y2.1071  
G01 X-1.5141 Y2.1046  
G01 X-1.5183 Y2.1029  
G01 X-1.5227 Y2.1020  
G01 X-1.8273 Y2.1020  
G01 X-1.8317 Y2.1029  
G01 X-1.8359 Y2.1046  
G01 X-1.8397 Y2.1071  
G01 X-1.8595 Y2.1270  
G01 X-2.0763 Y2.1270  
G01 X-2.0863 Y2.1170  
G01 X-2.1137 Y2.1170  
G01 X-2.1237 Y2.1270  
G01 X-2.2263 Y2.1270  
G01 X-2.2363 Y2.1170  
G01 X-2.2637 Y2.1170  
G01 X-2.2737 Y2.1270  
G01 X-2.3763 Y2.1270  
G01 X-2.3863 Y2.1170  
G01 X-2.4137 Y2.1170  
G01 X-2.4330 Y2.1363  
G01 X-2.4330 Y2.1637  
G01 X-2.4137 Y2.1830  
G01 X-2.3863 Y2.1830  
G01 X-2.3763 Y2.1730  
G01 X-2.2737 Y2.1730  
G01 X-2.2637 Y2.1830  
G01 X-2.2363 Y2.1830  
G01 X-2.2263 Y2.1730  
G01 X-2.1237 Y2.1730  
G01 X-2.1137 Y2.1830  
G01 X-2.0863 Y2.1830  
G01 X-2.0763 Y2.1730  
G01 X-1.9190 Y2.1730  
G01 X-1.9210 Y2.1744  
G01 X-1.9256 Y2.1790  
G01 X-1.9292 Y2.1844  
G01 X-1.9317 Y2.1904  
G01 X-1.9330 Y2.1967  
G01 X-1.9330 Y2.2033  
G01 X-1.9317 Y2.2096  
G01 X-1.9292 Y2.2156  
G01 X-1.9256 Y2.2210  
G01 X-1.9210 Y2.2256  
G01 X-1.9156 Y2.2292  
G01 X-1.9096 Y2.2317  
G01 X-1.9033 Y2.2330  
G01 X-1.8967 Y2.2330  
G01 X-1.8904 Y2.2317  
G01 X-1.8844 Y2.2292  
G01 X-1.8790 Y2.2256  
G01 X-1.8744 Y2.2210  
G01 X-1.8708 Y2.2156  
G01 X-1.8683 Y2.2096  
G01 X-1.8670 Y2.2033  
G01 X-1.8670 Y2.1995  
G01 X-1.8353 Y2.1679  
G01 X-1.8321 Y2.1647  
G01 X-1.8155 Y2.1480  
G01 X-1.5345 Y2.1480  
G01 X-1.4830 Y2.1995  
G01 X-1.4830 Y2.2137  
G01 X-1.4637 Y2.2330  
G01 X-1.4363 Y2.2330  
G00 Z0.0500  
G00 X-1.8744 Y2.4790  
G01 Z-0.0040 F10    
G01 X-1.8790 Y2.4744  F20    
G01 X-1.8844 Y2.4708  
G01 X-1.8904 Y2.4683  
G01 X-1.8967 Y2.4670  
G01 X-1.9033 Y2.4670  
G01 X-1.9096 Y2.4683  
G01 X-1.9156 Y2.4708  
G01 X-1.9210 Y2.4744  
G01 X-1.9256 Y2.4790  
G01 X-1.9260 Y2.4795  
G01 X-2.0958 Y2.4970  
G01 X-2.0964 Y2.4969  
G01 X-2.0980 Y2.4972  
G01 X-2.0996 Y2.4974  
G01 X-2.1002 Y2.4975  
G01 X-2.1009 Y2.4977  
G01 X-2.1024 Y2.4982  
G01 X-2.1039 Y2.4987  
G01 X-2.1045 Y2.4990  
G01 X-2.1051 Y2.4992  
G01 X-2.1065 Y2.5001  
G01 X-2.1079 Y2.5008  
G01 X-2.1084 Y2.5013  
G01 X-2.1090 Y2.5016  
G01 X-2.1102 Y2.5027  
G01 X-2.1114 Y2.5037  
G01 X-2.1118 Y2.5042  
G01 X-2.1123 Y2.5047  
G01 X-2.1133 Y2.5060  
G01 X-2.1143 Y2.5072  
G01 X-2.1146 Y2.5078  
G01 X-2.2426 Y2.6850  
G01 X-2.2429 Y2.6853  
G01 X-2.2439 Y2.6869  
G01 X-2.2450 Y2.6884  
G01 X-2.2451 Y2.6888  
G01 X-2.2454 Y2.6891  
G01 X-2.2461 Y2.6908  
G01 X-2.2469 Y2.6925  
G01 X-2.2470 Y2.6929  
G01 X-2.2471 Y2.6933  
G01 X-2.2475 Y2.6951  
G01 X-2.2479 Y2.6969  
G01 X-2.2479 Y2.6973  
G01 X-2.2480 Y2.6977  
G01 X-2.2480 Y2.6996  
G01 X-2.2481 Y2.7014  
G01 X-2.2480 Y2.7018  
G01 X-2.2480 Y2.7155  
G01 X-2.2845 Y2.7520  
G01 X-2.3155 Y2.7520  
G01 X-2.5321 Y2.5353  
G01 X-2.5353 Y2.5321  
G01 X-2.5821 Y2.4853  
G01 X-2.5853 Y2.4821  
G01 X-2.5891 Y2.4796  
G01 X-2.5933 Y2.4779  
G01 X-2.5977 Y2.4770  
G01 X-2.6686 Y2.4770  
G01 X-2.6841 Y2.4615  
G01 X-2.7159 Y2.4615  
G01 X-2.7385 Y2.4841  
G01 X-2.7385 Y2.5159  
G01 X-2.7274 Y2.5270  
G01 X-2.9108 Y2.5270  
G01 X-2.9318 Y2.5060  
G01 X-2.9682 Y2.5060  
G01 X-2.9892 Y2.5270  
G01 X-3.0108 Y2.5270  
G01 X-3.0318 Y2.5060  
G01 X-3.0682 Y2.5060  
G01 X-3.0940 Y2.5318  
G01 X-3.0940 Y2.5682  
G01 X-3.0682 Y2.5940  
G01 X-3.0318 Y2.5940  
G01 X-3.0108 Y2.5730  
G01 X-2.9892 Y2.5730  
G01 X-2.9682 Y2.5940  
G01 X-2.9318 Y2.5940  
G01 X-2.9108 Y2.5730  
G01 X-2.5595 Y2.5730  
G01 X-2.3397 Y2.7929  
G01 X-2.3359 Y2.7954  
G01 X-2.3317 Y2.7971  
G01 X-2.3273 Y2.7980  
G01 X-2.2727 Y2.7980  
G01 X-2.2683 Y2.7971  
G01 X-2.2641 Y2.7954  
G01 X-2.2603 Y2.7929  
G01 X-2.2571 Y2.7897  
G01 X-2.2071 Y2.7397  
G01 X-2.2046 Y2.7359  
G01 X-2.2029 Y2.7317  
G01 X-2.2020 Y2.7273  
G01 X-2.2020 Y2.7074  
G01 X-2.0824 Y2.5418  
G01 X-1.9214 Y2.5253  
G01 X-1.9210 Y2.5256  
G01 X-1.9156 Y2.5292  
G01 X-1.9096 Y2.5317  
G01 X-1.9033 Y2.5330  
G01 X-1.8967 Y2.5330  
G01 X-1.8904 Y2.5317  
G01 X-1.8844 Y2.5292  
G01 X-1.8790 Y2.5256  
G01 X-1.8744 Y2.5210  
G01 X-1.8708 Y2.5156  
G01 X-1.8683 Y2.5096  
G01 X-1.8670 Y2.5033  
G01 X-1.8670 Y2.4967  
G01 X-1.8683 Y2.4904  
G01 X-1.8708 Y2.4844  
G01 X-1.8744 Y2.4790  
G00 Z0.0500  
G00 X-1.8595 Y2.6005  
G01 Z-0.0040 F10    
G01 X-1.9005 Y2.6005  F20    
G01 X-1.9295 Y2.6295  
G01 X-1.9295 Y2.6705  
G01 X-1.9253 Y2.6747  
G01 X-1.9550 Y2.7170  
G01 X-1.9637 Y2.7170  
G01 X-1.9830 Y2.7363  
G01 X-1.9830 Y2.7637  
G01 X-1.9637 Y2.7830  
G01 X-1.9363 Y2.7830  
G01 X-1.9170 Y2.7637  
G01 X-1.9170 Y2.7430  
G01 X-1.8866 Y2.6995  
G01 X-1.8595 Y2.6995  
G01 X-1.8305 Y2.6705  
G01 X-1.8305 Y2.6295  
G01 X-1.8595 Y2.6005  
G00 Z0.0500  
G00 X-1.7637 Y2.7170  
G01 Z-0.0040 F10    
G01 X-1.7830 Y2.7363  F20    
G01 X-1.7830 Y2.7580  
G01 X-1.9448 Y3.0007  
G01 X-1.9492 Y3.0000  
G01 X-1.9571 Y3.0000  
G01 X-1.9649 Y3.0012  
G01 X-1.9723 Y3.0037  
G01 X-1.9794 Y3.0072  
G01 X-1.9857 Y3.0119  
G01 X-1.9913 Y3.0174  
G01 X-1.9959 Y3.0238  
G01 X-1.9995 Y3.0308  
G01 X-2.0019 Y3.0383  
G01 X-2.0031 Y3.0461  
G01 X-2.0031 Y3.0539  
G01 X-2.0019 Y3.0617  
G01 X-1.9995 Y3.0692  
G01 X-1.9959 Y3.0762  
G01 X-1.9913 Y3.0826  
G01 X-1.9857 Y3.0881  
G01 X-1.9794 Y3.0928  
G01 X-1.9723 Y3.0963  
G01 X-1.9649 Y3.0988  
G01 X-1.9571 Y3.1000  
G01 X-1.9492 Y3.1000  
G01 X-1.9414 Y3.0988  
G01 X-1.9340 Y3.0963  
G01 X-1.9269 Y3.0928  
G01 X-1.9206 Y3.0881  
G01 X-1.9150 Y3.0826  
G01 X-1.9104 Y3.0762  
G01 X-1.9068 Y3.0692  
G01 X-1.9044 Y3.0617  
G01 X-1.9031 Y3.0539  
G01 X-1.9031 Y3.0461  
G01 X-1.9044 Y3.0383  
G01 X-1.9068 Y3.0308  
G01 X-1.9080 Y3.0285  
G01 X-1.7444 Y2.7830  
G01 X-1.7363 Y2.7830  
G01 X-1.7170 Y2.7637  
G01 X-1.7170 Y2.7363  
G01 X-1.7363 Y2.7170  
G01 X-1.7637 Y2.7170  
G00 Z0.0500  
G00 X-2.0570 Y2.7363  
G01 Z-0.0040 F10    
G01 X-2.0763 Y2.7170  F20    
G01 X-2.1037 Y2.7170  
G01 X-2.1230 Y2.7363  
G01 X-2.1230 Y2.7637  
G01 X-2.1130 Y2.7737  
G01 X-2.1130 Y2.8466  
G01 X-2.1593 Y3.0008  
G01 X-2.1617 Y3.0012  
G01 X-2.1692 Y3.0037  
G01 X-2.1762 Y3.0072  
G01 X-2.1826 Y3.0119  
G01 X-2.1881 Y3.0174  
G01 X-2.1928 Y3.0238  
G01 X-2.1963 Y3.0308  
G01 X-2.1988 Y3.0383  
G01 X-2.2000 Y3.0461  
G01 X-2.2000 Y3.0539  
G01 X-2.1988 Y3.0617  
G01 X-2.1963 Y3.0692  
G01 X-2.1928 Y3.0762  
G01 X-2.1881 Y3.0826  
G01 X-2.1826 Y3.0881  
G01 X-2.1762 Y3.0928  
G01 X-2.1692 Y3.0963  
G01 X-2.1617 Y3.0988  
G01 X-2.1539 Y3.1000  
G01 X-2.1461 Y3.1000  
G01 X-2.1383 Y3.0988  
G01 X-2.1308 Y3.0963  
G01 X-2.1238 Y3.0928  
G01 X-2.1174 Y3.0881  
G01 X-2.1119 Y3.0826  
G01 X-2.1072 Y3.0762  
G01 X-2.1037 Y3.0692  
G01 X-2.1012 Y3.0617  
G01 X-2.1000 Y3.0539  
G01 X-2.1000 Y3.0461  
G01 X-2.1012 Y3.0383  
G01 X-2.1037 Y3.0308  
G01 X-2.1072 Y3.0238  
G01 X-2.1119 Y3.0174  
G01 X-2.1152 Y3.0141  
G01 X-2.0683 Y2.8577  
G01 X-2.0679 Y2.8567  
G01 X-2.0677 Y2.8556  
G01 X-2.0673 Y2.8544  
G01 X-2.0672 Y2.8533  
G01 X-2.0670 Y2.8523  
G01 X-2.0670 Y2.8511  
G01 X-2.0669 Y2.8499  
G01 X-2.0670 Y2.8488  
G01 X-2.0670 Y2.7737  
G01 X-2.0570 Y2.7637  
G01 X-2.0570 Y2.7363  
G00 Z0.0500  
G00 X-2.3795 Y2.5995  
G01 Z-0.0040 F10    
G01 X-2.3505 Y2.5705  F20    
G01 X-2.3505 Y2.5295  
G01 X-2.3770 Y2.5030  
G01 X-2.3770 Y2.4737  
G01 X-2.3670 Y2.4637  
G01 X-2.3670 Y2.4363  
G01 X-2.3863 Y2.4170  
G01 X-2.4137 Y2.4170  
G01 X-2.4330 Y2.4363  
G01 X-2.4330 Y2.4637  
G01 X-2.4230 Y2.4737  
G01 X-2.4230 Y2.5030  
G01 X-2.4495 Y2.5295  
G01 X-2.4495 Y2.5705  
G01 X-2.4205 Y2.5995  
G01 X-2.3795 Y2.5995  
G00 Z0.0500  
G00 X-2.5670 Y2.6863  
G01 Z-0.0040 F10    
G01 X-2.5863 Y2.6670  F20    
G01 X-2.6137 Y2.6670  
G01 X-2.6237 Y2.6770  
G01 X-2.7405 Y2.6770  
G01 X-2.7571 Y2.6603  
G01 X-2.7603 Y2.6571  
G01 X-2.7641 Y2.6546  
G01 X-2.7683 Y2.6529  
G01 X-2.7727 Y2.6520  
G01 X-2.8273 Y2.6520  
G01 X-2.8317 Y2.6529  
G01 X-2.8359 Y2.6546  
G01 X-2.8397 Y2.6571  
G01 X-3.0647 Y2.8821  
G01 X-3.0679 Y2.8853  
G01 X-3.0704 Y2.8891  
G01 X-3.0721 Y2.8933  
G01 X-3.0730 Y2.8977  
G01 X-3.0730 Y3.0056  
G01 X-3.0762 Y3.0072  
G01 X-3.0826 Y3.0119  
G01 X-3.0881 Y3.0174  
G01 X-3.0928 Y3.0238  
G01 X-3.0963 Y3.0308  
G01 X-3.0988 Y3.0383  
G01 X-3.1000 Y3.0461  
G01 X-3.1000 Y3.0539  
G01 X-3.0988 Y3.0617  
G01 X-3.0963 Y3.0692  
G01 X-3.0928 Y3.0762  
G01 X-3.0881 Y3.0826  
G01 X-3.0826 Y3.0881  
G01 X-3.0762 Y3.0928  
G01 X-3.0692 Y3.0963  
G01 X-3.0617 Y3.0988  
G01 X-3.0539 Y3.1000  
G01 X-3.0461 Y3.1000  
G01 X-3.0383 Y3.0988  
G01 X-3.0308 Y3.0963  
G01 X-3.0238 Y3.0928  
G01 X-3.0174 Y3.0881  
G01 X-3.0119 Y3.0826  
G01 X-3.0072 Y3.0762  
G01 X-3.0037 Y3.0692  
G01 X-3.0012 Y3.0617  
G01 X-3.0000 Y3.0539  
G01 X-3.0000 Y3.0461  
G01 X-3.0012 Y3.0383  
G01 X-3.0037 Y3.0308  
G01 X-3.0072 Y3.0238  
G01 X-3.0119 Y3.0174  
G01 X-3.0174 Y3.0119  
G01 X-3.0238 Y3.0072  
G01 X-3.0270 Y3.0056  
G01 X-3.0270 Y2.9095  
G01 X-2.8155 Y2.6980  
G01 X-2.7845 Y2.6980  
G01 X-2.7647 Y2.7179  
G01 X-2.7609 Y2.7204  
G01 X-2.7567 Y2.7221  
G01 X-2.7523 Y2.7230  
G01 X-2.6237 Y2.7230  
G01 X-2.6137 Y2.7330  
G01 X-2.5863 Y2.7330  
G01 X-2.5670 Y2.7137  
G01 X-2.5670 Y2.6863  
G00 Z0.0500  
G00 X-2.6055 Y2.5270  
G01 Z-0.0040 F10    
G01 X-2.6726 Y2.5270  F20    
G01 X-2.6686 Y2.5230  
G01 X-2.6095 Y2.5230  
G01 X-2.6055 Y2.5270  
G00 Z0.0500  
G00 X-2.7670 Y2.7363  
G01 Z-0.0040 F10    
G01 X-2.7863 Y2.7170  F20    
G01 X-2.8137 Y2.7170  
G01 X-2.8330 Y2.7363  
G01 X-2.8330 Y2.7637  
G01 X-2.8264 Y2.7703  
G01 X-2.8618 Y3.0008  
G01 X-2.8649 Y3.0012  
G01 X-2.8723 Y3.0037  
G01 X-2.8794 Y3.0072  
G01 X-2.8857 Y3.0119  
G01 X-2.8913 Y3.0174  
G01 X-2.8959 Y3.0238  
G01 X-2.8995 Y3.0308  
G01 X-2.9019 Y3.0383  
G01 X-2.9031 Y3.0461  
G01 X-2.9031 Y3.0539  
G01 X-2.9019 Y3.0617  
G01 X-2.8995 Y3.0692  
G01 X-2.8959 Y3.0762  
G01 X-2.8913 Y3.0826  
G01 X-2.8857 Y3.0881  
G01 X-2.8794 Y3.0928  
G01 X-2.8723 Y3.0963  
G01 X-2.8649 Y3.0988  
G01 X-2.8571 Y3.1000  
G01 X-2.8492 Y3.1000  
G01 X-2.8414 Y3.0988  
G01 X-2.8340 Y3.0963  
G01 X-2.8269 Y3.0928  
G01 X-2.8206 Y3.0881  
G01 X-2.8150 Y3.0826  
G01 X-2.8104 Y3.0762  
G01 X-2.8068 Y3.0692  
G01 X-2.8044 Y3.0617  
G01 X-2.8031 Y3.0539  
G01 X-2.8031 Y3.0461  
G01 X-2.8044 Y3.0383  
G01 X-2.8068 Y3.0308  
G01 X-2.8104 Y3.0238  
G01 X-2.8150 Y3.0174  
G01 X-2.8175 Y3.0149  
G01 X-2.8174 Y3.0145  
G01 X-2.8171 Y3.0134  
G01 X-2.8171 Y3.0123  
G01 X-2.7810 Y2.7777  
G01 X-2.7670 Y2.7637  
G01 X-2.7670 Y2.7363  
G00 Z0.0500  
G00 X-2.9670 Y2.7363  
G01 Z-0.0040 F10    
G01 X-2.9863 Y2.7170  F20    
G01 X-3.0137 Y2.7170  
G01 X-3.0237 Y2.7270  
G01 X-3.0930 Y2.7270  
G01 X-3.1195 Y2.7005  
G01 X-3.1605 Y2.7005  
G01 X-3.1895 Y2.7295  
G01 X-3.1895 Y2.7705  
G01 X-3.1605 Y2.7995  
G01 X-3.1195 Y2.7995  
G01 X-3.0930 Y2.7730  
G01 X-3.0237 Y2.7730  
G01 X-3.0137 Y2.7830  
G01 X-2.9863 Y2.7830  
G01 X-2.9670 Y2.7637  
G01 X-2.9670 Y2.7363  
G00 Z0.0500  
G00 X-0.2160 Y2.7359  
G01 Z-0.0040 F10    
G01 X-0.2359 Y2.7160  F20    
G01 X-0.2641 Y2.7160  
G01 X-0.2840 Y2.7359  
G01 X-0.2840 Y2.7641  
G01 X-0.2655 Y2.7826  
G01 X-0.1959 Y3.0220  
G01 X-0.1968 Y3.0233  
G01 X-0.2004 Y3.0304  
G01 X-0.2029 Y3.0381  
G01 X-0.2041 Y3.0460  
G01 X-0.2041 Y3.0540  
G01 X-0.2029 Y3.0619  
G01 X-0.2004 Y3.0696  
G01 X-0.1968 Y3.0767  
G01 X-0.1921 Y3.0832  
G01 X-0.1864 Y3.0889  
G01 X-0.1799 Y3.0936  
G01 X-0.1727 Y3.0973  
G01 X-0.1651 Y3.0997  
G01 X-0.1572 Y3.1010  
G01 X-0.1491 Y3.1010  
G01 X-0.1412 Y3.0997  
G01 X-0.1336 Y3.0973  
G01 X-0.1264 Y3.0936  
G01 X-0.1199 Y3.0889  
G01 X-0.1142 Y3.0832  
G01 X-0.1095 Y3.0767  
G01 X-0.1059 Y3.0696  
G01 X-0.1034 Y3.0619  
G01 X-0.1021 Y3.0540  
G01 X-0.1021 Y3.0460  
G01 X-0.1034 Y3.0381  
G01 X-0.1059 Y3.0304  
G01 X-0.1095 Y3.0233  
G01 X-0.1142 Y3.0168  
G01 X-0.1199 Y3.0111  
G01 X-0.1264 Y3.0064  
G01 X-0.1336 Y3.0027  
G01 X-0.1412 Y3.0003  
G01 X-0.1491 Y2.9990  
G01 X-0.1526 Y2.9990  
G01 X-0.2198 Y2.7679  
G01 X-0.2160 Y2.7641  
G01 X-0.2160 Y2.7359  
G00 Z0.0500  
G00 X-0.4160 Y2.7359  
G01 Z-0.0040 F10    
G01 X-0.4260 Y2.7259  F20    
G01 X-0.4260 Y2.6474  
G01 X-0.3995 Y2.6209  
G01 X-0.3995 Y2.5791  
G01 X-0.4291 Y2.5495  
G01 X-0.4709 Y2.5495  
G01 X-0.5005 Y2.5791  
G01 X-0.5005 Y2.6209  
G01 X-0.4740 Y2.6474  
G01 X-0.4740 Y2.7259  
G01 X-0.4840 Y2.7359  
G01 X-0.4840 Y2.7641  
G01 X-0.4641 Y2.7840  
G01 X-0.4359 Y2.7840  
G01 X-0.4160 Y2.7641  
G01 X-0.4160 Y2.7359  
G00 Z0.0500  
G00 X-0.6291 Y2.6505  
G01 Z-0.0040 F10    
G01 X-0.5995 Y2.6209  F20    
G01 X-0.5995 Y2.5791  
G01 X-0.6291 Y2.5495  
G01 X-0.6709 Y2.5495  
G01 X-0.6974 Y2.5760  
G01 X-0.7759 Y2.5760  
G01 X-0.7859 Y2.5660  
G01 X-0.8141 Y2.5660  
G01 X-0.8340 Y2.5859  
G01 X-0.8340 Y2.6141  
G01 X-0.8141 Y2.6340  
G01 X-0.7859 Y2.6340  
G01 X-0.7759 Y2.6240  
G01 X-0.6974 Y2.6240  
G01 X-0.6709 Y2.6505  
G01 X-0.6291 Y2.6505  
G00 Z0.0500  
G00 X-0.6187 Y2.8387  
G01 Z-0.0040 F10    
G01 X-0.7660 Y2.7434  F20    
G01 X-0.7660 Y2.7359  
G01 X-0.7859 Y2.7160  
G01 X-0.8141 Y2.7160  
G01 X-0.8340 Y2.7359  
G01 X-0.8340 Y2.7641  
G01 X-0.8141 Y2.7840  
G01 X-0.7916 Y2.7840  
G01 X-0.6433 Y2.8800  
G01 X-0.4008 Y3.0446  
G01 X-0.4010 Y3.0460  
G01 X-0.4010 Y3.0540  
G01 X-0.3997 Y3.0619  
G01 X-0.3973 Y3.0696  
G01 X-0.3936 Y3.0767  
G01 X-0.3889 Y3.0832  
G01 X-0.3832 Y3.0889  
G01 X-0.3767 Y3.0936  
G01 X-0.3696 Y3.0973  
G01 X-0.3619 Y3.0997  
G01 X-0.3540 Y3.1010  
G01 X-0.3460 Y3.1010  
G01 X-0.3381 Y3.0997  
G01 X-0.3304 Y3.0973  
G01 X-0.3233 Y3.0936  
G01 X-0.3168 Y3.0889  
G01 X-0.3111 Y3.0832  
G01 X-0.3064 Y3.0767  
G01 X-0.3027 Y3.0696  
G01 X-0.3003 Y3.0619  
G01 X-0.2990 Y3.0540  
G01 X-0.2990 Y3.0460  
G01 X-0.3003 Y3.0381  
G01 X-0.3027 Y3.0304  
G01 X-0.3064 Y3.0233  
G01 X-0.3111 Y3.0168  
G01 X-0.3168 Y3.0111  
G01 X-0.3233 Y3.0064  
G01 X-0.3304 Y3.0027  
G01 X-0.3381 Y3.0003  
G01 X-0.3460 Y2.9990  
G01 X-0.3540 Y2.9990  
G01 X-0.3619 Y3.0003  
G01 X-0.3696 Y3.0027  
G01 X-0.3738 Y3.0049  
G01 X-0.6148 Y2.8413  
G01 X-0.6150 Y2.8411  
G01 X-0.6167 Y2.8400  
G01 X-0.6185 Y2.8388  
G01 X-0.6187 Y2.8387  
G00 Z0.0500  
G00 X-0.5744 Y3.0070  
G01 Z-0.0040 F10    
G01 X-0.8810 Y2.7828  F20    
G01 X-0.8810 Y2.5366  
G01 X-0.8809 Y2.5358  
G01 X-0.8810 Y2.5342  
G01 X-0.8810 Y2.5326  
G01 X-0.8812 Y2.5319  
G01 X-0.8812 Y2.5311  
G01 X-0.8816 Y2.5296  
G01 X-0.8819 Y2.5280  
G01 X-0.8822 Y2.5273  
G01 X-0.8824 Y2.5265  
G01 X-0.8831 Y2.5251  
G01 X-0.8837 Y2.5236  
G01 X-0.8842 Y2.5230  
G01 X-0.8845 Y2.5223  
G01 X-0.8855 Y2.5210  
G01 X-0.8864 Y2.5197  
G01 X-0.8869 Y2.5192  
G01 X-0.8874 Y2.5185  
G01 X-0.8886 Y2.5175  
G01 X-0.8897 Y2.5164  
G01 X-0.8903 Y2.5159  
G01 X-0.8909 Y2.5154  
G01 X-0.8923 Y2.5146  
G01 X-0.8936 Y2.5137  
G01 X-0.8943 Y2.5134  
G01 X-1.0679 Y2.4130  
G01 X-1.0417 Y2.2909  
G01 X-1.0413 Y2.2894  
G01 X-1.0412 Y2.2886  
G01 X-1.0410 Y2.2877  
G01 X-1.0410 Y2.2862  
G01 X-1.0409 Y2.2847  
G01 X-1.0410 Y2.2838  
G01 X-1.0410 Y2.2830  
G01 X-1.0412 Y2.2815  
G01 X-1.0414 Y2.2800  
G01 X-1.0417 Y2.2792  
G01 X-1.0418 Y2.2783  
G01 X-1.0424 Y2.2769  
G01 X-1.0428 Y2.2755  
G01 X-1.0433 Y2.2747  
G01 X-1.0436 Y2.2739  
G01 X-1.0444 Y2.2727  
G01 X-1.0451 Y2.2714  
G01 X-1.0457 Y2.2707  
G01 X-1.0461 Y2.2700  
G01 X-1.0472 Y2.2689  
G01 X-1.0482 Y2.2677  
G01 X-1.0488 Y2.2672  
G01 X-1.0494 Y2.2666  
G01 X-1.0507 Y2.2657  
G01 X-1.3990 Y1.9871  
G01 X-1.3997 Y1.9864  
G01 X-1.4008 Y1.9856  
G01 X-1.4019 Y1.9848  
G01 X-1.4028 Y1.9843  
G01 X-1.4036 Y1.9837  
G01 X-1.4049 Y1.9832  
G01 X-1.4060 Y1.9826  
G01 X-1.4070 Y1.9823  
G01 X-1.4080 Y1.9819  
G01 X-1.4093 Y1.9817  
G01 X-1.4106 Y1.9813  
G01 X-1.4116 Y1.9812  
G01 X-1.4126 Y1.9810  
G01 X-1.4140 Y1.9810  
G01 X-1.4153 Y1.9809  
G01 X-1.4163 Y1.9810  
G01 X-3.0638 Y1.9810  
G01 X-3.0650 Y1.9809  
G01 X-3.0662 Y1.9810  
G01 X-3.0674 Y1.9810  
G01 X-3.0685 Y1.9812  
G01 X-3.0697 Y1.9814  
G01 X-3.0709 Y1.9817  
G01 X-3.0720 Y1.9819  
G01 X-3.0731 Y1.9824  
G01 X-3.0743 Y1.9827  
G01 X-3.0753 Y1.9833  
G01 X-3.0764 Y1.9837  
G01 X-3.0774 Y1.9844  
G01 X-3.0784 Y1.9850  
G01 X-3.0793 Y1.9857  
G01 X-3.0803 Y1.9864  
G01 X-3.0812 Y1.9872  
G01 X-3.0821 Y1.9880  
G01 X-3.0828 Y1.9889  
G01 X-3.0836 Y1.9897  
G01 X-3.0843 Y1.9907  
G01 X-3.1728 Y2.0989  
G01 X-3.1736 Y2.0997  
G01 X-3.1743 Y2.1007  
G01 X-3.1751 Y2.1016  
G01 X-3.1756 Y2.1027  
G01 X-3.1763 Y2.1036  
G01 X-3.1767 Y2.1047  
G01 X-3.1773 Y2.1058  
G01 X-3.1776 Y2.1069  
G01 X-3.1781 Y2.1080  
G01 X-3.1783 Y2.1092  
G01 X-3.1787 Y2.1103  
G01 X-3.1788 Y2.1115  
G01 X-3.1790 Y2.1126  
G01 X-3.1790 Y2.1138  
G01 X-3.1791 Y2.1150  
G01 X-3.1790 Y2.1162  
G01 X-3.1790 Y2.5143  
G01 X-3.1791 Y2.5161  
G01 X-3.1791 Y2.5163  
G01 X-3.1791 Y2.5165  
G01 X-3.1790 Y2.5169  
G01 X-3.1790 Y2.5174  
G01 X-3.1787 Y2.5190  
G01 X-3.1756 Y2.5406  
G01 X-3.2497 Y2.6059  
G01 X-3.2503 Y2.6064  
G01 X-3.2514 Y2.6075  
G01 X-3.2527 Y2.6086  
G01 X-3.2531 Y2.6092  
G01 X-3.2536 Y2.6097  
G01 X-3.2545 Y2.6110  
G01 X-3.2555 Y2.6123  
G01 X-3.2558 Y2.6130  
G01 X-3.2563 Y2.6136  
G01 X-3.2569 Y2.6151  
G01 X-3.2576 Y2.6166  
G01 X-3.2578 Y2.6173  
G01 X-3.2581 Y2.6180  
G01 X-3.2584 Y2.6196  
G01 X-3.2588 Y2.6211  
G01 X-3.2589 Y2.6219  
G01 X-3.2590 Y2.6226  
G01 X-3.2590 Y2.6242  
G01 X-3.2591 Y2.6259  
G01 X-3.2590 Y2.6266  
G01 X-3.2590 Y3.0003  
G01 X-3.2664 Y3.0027  
G01 X-3.2736 Y3.0064  
G01 X-3.2801 Y3.0111  
G01 X-3.2858 Y3.0168  
G01 X-3.2905 Y3.0233  
G01 X-3.2941 Y3.0304  
G01 X-3.2966 Y3.0381  
G01 X-3.2979 Y3.0460  
G01 X-3.2979 Y3.0540  
G01 X-3.2966 Y3.0619  
G01 X-3.2941 Y3.0696  
G01 X-3.2905 Y3.0767  
G01 X-3.2858 Y3.0832  
G01 X-3.2801 Y3.0889  
G01 X-3.2736 Y3.0936  
G01 X-3.2664 Y3.0973  
G01 X-3.2588 Y3.0997  
G01 X-3.2509 Y3.1010  
G01 X-3.2428 Y3.1010  
G01 X-3.2349 Y3.0997  
G01 X-3.2273 Y3.0973  
G01 X-3.2201 Y3.0936  
G01 X-3.2136 Y3.0889  
G01 X-3.2079 Y3.0832  
G01 X-3.2032 Y3.0767  
G01 X-3.1996 Y3.0696  
G01 X-3.1971 Y3.0619  
G01 X-3.1959 Y3.0540  
G01 X-3.1959 Y3.0460  
G01 X-3.1971 Y3.0381  
G01 X-3.1996 Y3.0304  
G01 X-3.2032 Y3.0233  
G01 X-3.2079 Y3.0168  
G01 X-3.2110 Y3.0137  
G01 X-3.2110 Y2.6358  
G01 X-3.1510 Y2.5829  
G01 X-3.0936 Y2.6403  
G01 X-3.0903 Y2.6436  
G01 X-3.0864 Y2.6463  
G01 X-3.0820 Y2.6481  
G01 X-3.0774 Y2.6490  
G01 X-2.5799 Y2.6490  
G01 X-2.3393 Y2.8896  
G01 X-2.3602 Y3.0007  
G01 X-2.3664 Y3.0027  
G01 X-2.3736 Y3.0064  
G01 X-2.3801 Y3.0111  
G01 X-2.3858 Y3.0168  
G01 X-2.3905 Y3.0233  
G01 X-2.3941 Y3.0304  
G01 X-2.3966 Y3.0381  
G01 X-2.3979 Y3.0460  
G01 X-2.3979 Y3.0540  
G01 X-2.3966 Y3.0619  
G01 X-2.3941 Y3.0696  
G01 X-2.3905 Y3.0767  
G01 X-2.3858 Y3.0832  
G01 X-2.3801 Y3.0889  
G01 X-2.3736 Y3.0936  
G01 X-2.3664 Y3.0973  
G01 X-2.3588 Y3.0997  
G01 X-2.3509 Y3.1010  
G01 X-2.3428 Y3.1010  
G01 X-2.3349 Y3.0997  
G01 X-2.3273 Y3.0973  
G01 X-2.3201 Y3.0936  
G01 X-2.3136 Y3.0889  
G01 X-2.3079 Y3.0832  
G01 X-2.3032 Y3.0767  
G01 X-2.2996 Y3.0696  
G01 X-2.2971 Y3.0619  
G01 X-2.2959 Y3.0540  
G01 X-2.2959 Y3.0460  
G01 X-2.2971 Y3.0381  
G01 X-2.2996 Y3.0304  
G01 X-2.3032 Y3.0233  
G01 X-2.3079 Y3.0168  
G01 X-2.3133 Y3.0114  
G01 X-2.2928 Y2.9018  
G01 X-2.1501 Y2.7689  
G01 X-2.1497 Y2.7686  
G01 X-2.1483 Y2.7673  
G01 X-2.1469 Y2.7660  
G01 X-2.1467 Y2.7656  
G01 X-2.1464 Y2.7653  
G01 X-2.1453 Y2.7637  
G01 X-2.1442 Y2.7621  
G01 X-2.1440 Y2.7617  
G01 X-2.1437 Y2.7614  
G01 X-2.1430 Y2.7596  
G01 X-2.1422 Y2.7578  
G01 X-2.1421 Y2.7574  
G01 X-2.1419 Y2.7570  
G01 X-2.1415 Y2.7551  
G01 X-2.1411 Y2.7532  
G01 X-2.1411 Y2.7528  
G01 X-2.1410 Y2.7524  
G01 X-2.1410 Y2.7504  
G01 X-2.1409 Y2.7485  
G01 X-2.1410 Y2.7481  
G01 X-2.1410 Y2.7345  
G01 X-2.0136 Y2.5980  
G01 X-1.8339 Y2.5800  
G01 X-1.7831 Y2.6308  
G01 X-1.7195 Y2.7140  
G01 X-1.7186 Y2.7153  
G01 X-1.7181 Y2.7158  
G01 X-1.7176 Y2.7165  
G01 X-1.7164 Y2.7175  
G01 X-1.6540 Y2.7799  
G01 X-1.6540 Y2.7881  
G01 X-1.6541 Y2.7886  
G01 X-1.6540 Y2.7905  
G01 X-1.6540 Y2.7924  
G01 X-1.6539 Y2.7928  
G01 X-1.6539 Y2.7933  
G01 X-1.6534 Y2.7951  
G01 X-1.6531 Y2.7970  
G01 X-1.6529 Y2.7974  
G01 X-1.6528 Y2.7979  
G01 X-1.6520 Y2.7996  
G01 X-1.6513 Y2.8014  
G01 X-1.6510 Y2.8018  
G01 X-1.6508 Y2.8022  
G01 X-1.6497 Y2.8037  
G01 X-1.6486 Y2.8053  
G01 X-1.6483 Y2.8056  
G01 X-1.4902 Y3.0230  
G01 X-1.4905 Y3.0233  
G01 X-1.4941 Y3.0304  
G01 X-1.4966 Y3.0381  
G01 X-1.4979 Y3.0460  
G01 X-1.4979 Y3.0540  
G01 X-1.4966 Y3.0619  
G01 X-1.4941 Y3.0696  
G01 X-1.4905 Y3.0767  
G01 X-1.4858 Y3.0832  
G01 X-1.4801 Y3.0889  
G01 X-1.4736 Y3.0936  
G01 X-1.4664 Y3.0973  
G01 X-1.4588 Y3.0997  
G01 X-1.4509 Y3.1010  
G01 X-1.4428 Y3.1010  
G01 X-1.4349 Y3.0997  
G01 X-1.4273 Y3.0973  
G01 X-1.4201 Y3.0936  
G01 X-1.4136 Y3.0889  
G01 X-1.4079 Y3.0832  
G01 X-1.4032 Y3.0767  
G01 X-1.3996 Y3.0696  
G01 X-1.3971 Y3.0619  
G01 X-1.3959 Y3.0540  
G01 X-1.3959 Y3.0460  
G01 X-1.3971 Y3.0381  
G01 X-1.3996 Y3.0304  
G01 X-1.4032 Y3.0233  
G01 X-1.4079 Y3.0168  
G01 X-1.4136 Y3.0111  
G01 X-1.4201 Y3.0064  
G01 X-1.4273 Y3.0027  
G01 X-1.4349 Y3.0003  
G01 X-1.4428 Y2.9990  
G01 X-1.4485 Y2.9990  
G01 X-1.4490 Y2.9982  
G01 X-1.4492 Y2.9978  
G01 X-1.4503 Y2.9963  
G01 X-1.4513 Y2.9947  
G01 X-1.4517 Y2.9944  
G01 X-1.6060 Y2.7822  
G01 X-1.6060 Y2.7676  
G01 X-1.6069 Y2.7630  
G01 X-1.6087 Y2.7586  
G01 X-1.6114 Y2.7547  
G01 X-1.6819 Y2.6842  
G01 X-1.7455 Y2.6010  
G01 X-1.7464 Y2.5997  
G01 X-1.7469 Y2.5992  
G01 X-1.7474 Y2.5985  
G01 X-1.7486 Y2.5975  
G01 X-1.8027 Y2.5433  
G01 X-1.8212 Y2.4417  
G01 X-1.8214 Y2.4403  
G01 X-1.8216 Y2.4393  
G01 X-1.8218 Y2.4384  
G01 X-1.8223 Y2.4371  
G01 X-1.8227 Y2.4357  
G01 X-1.8232 Y2.4349  
G01 X-1.8235 Y2.4340  
G01 X-1.8243 Y2.4328  
G01 X-1.8250 Y2.4316  
G01 X-1.8256 Y2.4308  
G01 X-1.8261 Y2.4300  
G01 X-1.8271 Y2.4290  
G01 X-1.8280 Y2.4279  
G01 X-1.8287 Y2.4273  
G01 X-1.8294 Y2.4266  
G01 X-1.8305 Y2.4258  
G01 X-1.8660 Y2.3968  
G01 X-1.8660 Y2.3967  
G01 X-1.8673 Y2.3901  
G01 X-1.8699 Y2.3839  
G01 X-1.8736 Y2.3783  
G01 X-1.8783 Y2.3736  
G01 X-1.8839 Y2.3699  
G01 X-1.8901 Y2.3673  
G01 X-1.8967 Y2.3660  
G01 X-1.9033 Y2.3660  
G01 X-1.9099 Y2.3673  
G01 X-1.9161 Y2.3699  
G01 X-1.9217 Y2.3736  
G01 X-1.9264 Y2.3783  
G01 X-1.9301 Y2.3839  
G01 X-1.9327 Y2.3901  
G01 X-1.9340 Y2.3967  
G01 X-1.9340 Y2.4033  
G01 X-1.9327 Y2.4099  
G01 X-1.9301 Y2.4161  
G01 X-1.9264 Y2.4217  
G01 X-1.9217 Y2.4264  
G01 X-1.9161 Y2.4301  
G01 X-1.9099 Y2.4327  
G01 X-1.9033 Y2.4340  
G01 X-1.8967 Y2.4340  
G01 X-1.8964 Y2.4340  
G01 X-1.8670 Y2.4580  
G01 X-1.8533 Y2.5337  
G01 X-2.0266 Y2.5510  
G01 X-2.0282 Y2.5511  
G01 X-2.0290 Y2.5513  
G01 X-2.0297 Y2.5514  
G01 X-2.0313 Y2.5518  
G01 X-2.0328 Y2.5522  
G01 X-2.0335 Y2.5525  
G01 X-2.0343 Y2.5527  
G01 X-2.0357 Y2.5535  
G01 X-2.0371 Y2.5541  
G01 X-2.0377 Y2.5546  
G01 X-2.0384 Y2.5550  
G01 X-2.0396 Y2.5560  
G01 X-2.0409 Y2.5569  
G01 X-2.0415 Y2.5575  
G01 X-2.0421 Y2.5580  
G01 X-2.0431 Y2.5592  
G01 X-2.1823 Y2.7083  
G01 X-2.1836 Y2.7097  
G01 X-2.1839 Y2.7100  
G01 X-2.1842 Y2.7104  
G01 X-2.1852 Y2.7120  
G01 X-2.1863 Y2.7136  
G01 X-2.1864 Y2.7140  
G01 X-2.1866 Y2.7144  
G01 X-2.1873 Y2.7162  
G01 X-2.1881 Y2.7180  
G01 X-2.1882 Y2.7184  
G01 X-2.1883 Y2.7188  
G01 X-2.1886 Y2.7207  
G01 X-2.1890 Y2.7226  
G01 X-2.1890 Y2.7231  
G01 X-2.1891 Y2.7235  
G01 X-2.1890 Y2.7254  
G01 X-2.1890 Y2.7396  
G01 X-2.3094 Y2.8517  
G01 X-2.5547 Y2.6064  
G01 X-2.5586 Y2.6037  
G01 X-2.5630 Y2.6019  
G01 X-2.5676 Y2.6010  
G01 X-3.0651 Y2.6010  
G01 X-3.1274 Y2.5387  
G01 X-3.1290 Y2.5271  
G01 X-3.0719 Y2.4918  
G01 X-3.0686 Y2.4950  
G01 X-3.0314 Y2.4950  
G01 X-3.0104 Y2.4740  
G01 X-2.9896 Y2.4740  
G01 X-2.9686 Y2.4950  
G01 X-2.9314 Y2.4950  
G01 X-2.9050 Y2.4686  
G01 X-2.9050 Y2.4314  
G01 X-2.9314 Y2.4050  
G01 X-2.9686 Y2.4050  
G01 X-2.9896 Y2.4260  
G01 X-3.0104 Y2.4260  
G01 X-3.0260 Y2.4104  
G01 X-3.0260 Y2.3896  
G01 X-3.0104 Y2.3740  
G01 X-2.9896 Y2.3740  
G01 X-2.9686 Y2.3950  
G01 X-2.9314 Y2.3950  
G01 X-2.9050 Y2.3686  
G01 X-2.9050 Y2.3314  
G01 X-2.9260 Y2.3104  
G01 X-2.9260 Y2.2896  
G01 X-2.9104 Y2.2740  
G01 X-2.7319 Y2.2740  
G01 X-2.7240 Y2.2819  
G01 X-2.7240 Y2.3685  
G01 X-2.7252 Y2.3693  
G01 X-2.7307 Y2.3748  
G01 X-2.7350 Y2.3813  
G01 X-2.7380 Y2.3885  
G01 X-2.7395 Y2.3961  
G01 X-2.7395 Y2.4039  
G01 X-2.7380 Y2.4115  
G01 X-2.7350 Y2.4187  
G01 X-2.7307 Y2.4252  
G01 X-2.7252 Y2.4307  
G01 X-2.7187 Y2.4350  
G01 X-2.7115 Y2.4380  
G01 X-2.7039 Y2.4395  
G01 X-2.6961 Y2.4395  
G01 X-2.6885 Y2.4380  
G01 X-2.6813 Y2.4350  
G01 X-2.6748 Y2.4307  
G01 X-2.6693 Y2.4252  
G01 X-2.6650 Y2.4187  
G01 X-2.6620 Y2.4115  
G01 X-2.6605 Y2.4039  
G01 X-2.6605 Y2.3961  
G01 X-2.6620 Y2.3885  
G01 X-2.6650 Y2.3813  
G01 X-2.6693 Y2.3748  
G01 X-2.6748 Y2.3693  
G01 X-2.6760 Y2.3685  
G01 X-2.6760 Y2.2819  
G01 X-2.6605 Y2.2664  
G01 X-2.6605 Y2.2336  
G01 X-2.6836 Y2.2105  
G01 X-2.7164 Y2.2105  
G01 X-2.7319 Y2.2260  
G01 X-2.9104 Y2.2260  
G01 X-2.9314 Y2.2050  
G01 X-2.9686 Y2.2050  
G01 X-2.9896 Y2.2260  
G01 X-3.0104 Y2.2260  
G01 X-3.0314 Y2.2050  
G01 X-3.0686 Y2.2050  
G01 X-3.0950 Y2.2314  
G01 X-3.0950 Y2.2686  
G01 X-3.0686 Y2.2950  
G01 X-3.0314 Y2.2950  
G01 X-3.0104 Y2.2740  
G01 X-2.9896 Y2.2740  
G01 X-2.9740 Y2.2896  
G01 X-2.9740 Y2.3104  
G01 X-2.9896 Y2.3260  
G01 X-3.0104 Y2.3260  
G01 X-3.0314 Y2.3050  
G01 X-3.0686 Y2.3050  
G01 X-3.0950 Y2.3314  
G01 X-3.0950 Y2.3686  
G01 X-3.0740 Y2.3896  
G01 X-3.0740 Y2.4104  
G01 X-3.0950 Y2.4314  
G01 X-3.0950 Y2.4496  
G01 X-3.1310 Y2.4719  
G01 X-3.1310 Y2.1236  
G01 X-3.0536 Y2.0290  
G01 X-1.4234 Y2.0290  
G01 X-1.0916 Y2.2945  
G01 X-1.1144 Y2.4010  
G01 X-1.4774 Y2.4010  
G01 X-1.4820 Y2.4019  
G01 X-1.4864 Y2.4037  
G01 X-1.4903 Y2.4064  
G01 X-1.4936 Y2.4097  
G01 X-1.5599 Y2.4760  
G01 X-1.5759 Y2.4760  
G01 X-1.5783 Y2.4736  
G01 X-1.5839 Y2.4699  
G01 X-1.5901 Y2.4673  
G01 X-1.5967 Y2.4660  
G01 X-1.6033 Y2.4660  
G01 X-1.6099 Y2.4673  
G01 X-1.6161 Y2.4699  
G01 X-1.6217 Y2.4736  
G01 X-1.6264 Y2.4783  
G01 X-1.6301 Y2.4839  
G01 X-1.6327 Y2.4901  
G01 X-1.6340 Y2.4967  
G01 X-1.6340 Y2.5033  
G01 X-1.6327 Y2.5099  
G01 X-1.6301 Y2.5161  
G01 X-1.6264 Y2.5217  
G01 X-1.6217 Y2.5264  
G01 X-1.6161 Y2.5301  
G01 X-1.6099 Y2.5327  
G01 X-1.6033 Y2.5340  
G01 X-1.5967 Y2.5340  
G01 X-1.5901 Y2.5327  
G01 X-1.5839 Y2.5301  
G01 X-1.5783 Y2.5264  
G01 X-1.5759 Y2.5240  
G01 X-1.5476 Y2.5240  
G01 X-1.5430 Y2.5231  
G01 X-1.5386 Y2.5213  
G01 X-1.5347 Y2.5186  
G01 X-1.4651 Y2.4490  
G01 X-1.1014 Y2.4490  
G01 X-0.9290 Y2.5488  
G01 X-0.9290 Y2.7945  
G01 X-0.9291 Y2.7963  
G01 X-0.9290 Y2.7969  
G01 X-0.9290 Y2.7974  
G01 X-0.9286 Y2.7992  
G01 X-0.9284 Y2.8010  
G01 X-0.9282 Y2.8015  
G01 X-0.9281 Y2.8020  
G01 X-0.9274 Y2.8037  
G01 X-0.9267 Y2.8055  
G01 X-0.9265 Y2.8059  
G01 X-0.9263 Y2.8064  
G01 X-0.9252 Y2.8079  
G01 X-0.9243 Y2.8095  
G01 X-0.9239 Y2.8099  
G01 X-0.9236 Y2.8103  
G01 X-0.9223 Y2.8116  
G01 X-0.9211 Y2.8130  
G01 X-0.9207 Y2.8133  
G01 X-0.9203 Y2.8136  
G01 X-0.9188 Y2.8147  
G01 X-0.5979 Y3.0494  
G01 X-0.5979 Y3.0540  
G01 X-0.5966 Y3.0619  
G01 X-0.5941 Y3.0696  
G01 X-0.5905 Y3.0767  
G01 X-0.5858 Y3.0832  
G01 X-0.5801 Y3.0889  
G01 X-0.5736 Y3.0936  
G01 X-0.5664 Y3.0973  
G01 X-0.5588 Y3.0997  
G01 X-0.5509 Y3.1010  
G01 X-0.5428 Y3.1010  
G01 X-0.5349 Y3.0997  
G01 X-0.5273 Y3.0973  
G01 X-0.5201 Y3.0936  
G01 X-0.5136 Y3.0889  
G01 X-0.5079 Y3.0832  
G01 X-0.5032 Y3.0767  
G01 X-0.4996 Y3.0696  
G01 X-0.4971 Y3.0619  
G01 X-0.4959 Y3.0540  
G01 X-0.4959 Y3.0460  
G01 X-0.4971 Y3.0381  
G01 X-0.4996 Y3.0304  
G01 X-0.5032 Y3.0233  
G01 X-0.5079 Y3.0168  
G01 X-0.5136 Y3.0111  
G01 X-0.5201 Y3.0064  
G01 X-0.5273 Y3.0027  
G01 X-0.5349 Y3.0003  
G01 X-0.5428 Y2.9990  
G01 X-0.5509 Y2.9990  
G01 X-0.5588 Y3.0003  
G01 X-0.5664 Y3.0027  
G01 X-0.5736 Y3.0064  
G01 X-0.5744 Y3.0070  
G00 Z0.0500  
G00 X-0.9769 Y3.0070  
G01 Z-0.0040 F10    
G01 X-0.9760 Y3.0024  F20    
G01 X-0.9760 Y2.6241  
G01 X-0.9660 Y2.6141  
G01 X-0.9660 Y2.5859  
G01 X-0.9859 Y2.5660  
G01 X-1.0141 Y2.5660  
G01 X-1.0340 Y2.5859  
G01 X-1.0340 Y2.6141  
G01 X-1.0240 Y2.6241  
G01 X-1.0240 Y2.9901  
G01 X-1.0359 Y3.0020  
G01 X-1.0412 Y3.0003  
G01 X-1.0491 Y2.9990  
G01 X-1.0572 Y2.9990  
G01 X-1.0651 Y3.0003  
G01 X-1.0727 Y3.0027  
G01 X-1.0799 Y3.0064  
G01 X-1.0864 Y3.0111  
G01 X-1.0921 Y3.0168  
G01 X-1.0968 Y3.0233  
G01 X-1.1004 Y3.0304  
G01 X-1.1029 Y3.0381  
G01 X-1.1041 Y3.0460  
G01 X-1.1041 Y3.0540  
G01 X-1.1029 Y3.0619  
G01 X-1.1004 Y3.0696  
G01 X-1.0968 Y3.0767  
G01 X-1.0921 Y3.0832  
G01 X-1.0864 Y3.0889  
G01 X-1.0799 Y3.0936  
G01 X-1.0727 Y3.0973  
G01 X-1.0651 Y3.0997  
G01 X-1.0572 Y3.1010  
G01 X-1.0491 Y3.1010  
G01 X-1.0412 Y3.0997  
G01 X-1.0336 Y3.0973  
G01 X-1.0264 Y3.0936  
G01 X-1.0199 Y3.0889  
G01 X-1.0142 Y3.0832  
G01 X-1.0095 Y3.0767  
G01 X-1.0059 Y3.0696  
G01 X-1.0034 Y3.0619  
G01 X-1.0021 Y3.0540  
G01 X-1.0021 Y3.0460  
G01 X-1.0034 Y3.0381  
G01 X-1.0036 Y3.0375  
G01 X-0.9814 Y3.0153  
G01 X-0.9787 Y3.0114  
G01 X-0.9769 Y3.0070  
G00 Z0.0500  
G00 X-1.2111 Y3.0168  
G01 Z-0.0040 F10    
G01 X-1.2168 Y3.0111  F20    
G01 X-1.2233 Y3.0064  
G01 X-1.2260 Y3.0050  
G01 X-1.2260 Y2.7741  
G01 X-1.2160 Y2.7641  
