(/Applications/pcbgcode.repo/pcb-gcode.ulp)
(Copyright 2005 - 2012 by John Johnson)
(See readme.txt for licensing terms.)
(This file generated from the board:)
(.../4chan_mixer/eagle/4chan_mixer.brd)
(Current profile is .../pcbgcode.repo/profiles/mach.pp  )
(This file generated 11/30/15 7:44 PM)
(Settings from pcb-machine.h)
(spindle on time = 0.0000)
(spindle speed = 20000.0000)
(tool change at 0.0000  0.0000  3.0000  )
(feed rate xy = F0     )
(feed rate z  = F20    )
(Z Axis Settings)
(  High     Up        Down     Drill)
(1.0000  	0.0500  	-0.0040 	-0.0730 )
(Settings from pcb-defaults.h)
(isolate min = 0.0010)
(isolate max = 0.0150)
(isolate step = 0.0015)
(Generated bottom outlines, bottom drill, )
(Unit of measure: inch)
( Tool|       Size       |  Min Sub |  Max Sub |   Count )
( T01 | 0.813mm 0.0320in | 0.0000in | 0.0000in |       0 )
( T02 | 1.016mm 0.0400in | 0.0000in | 0.0000in |       0 )
( T03 | 1.118mm 0.0440in | 0.0000in | 0.0000in |       0 )
( T04 | 1.200mm 0.0472in | 0.0000in | 0.0000in |       0 )
(Inch Mode)
G20
(Absolute Coordinates)
G90
S20000
G00 Z1.0000  
G00 X0.0000  Y0.0000  
M03
G04 P0.000000
M05
G00 Z3.0000  
M06 T01  ; 0.0320  
G01 Z0.0000  F20    
M06 
G00 Z0.0500  
M03
G04 P0.000000
G82 X-0.4300 Y1.6600  Z-0.0730 F20    R0.0500  P0.010000
G82 X-0.4300 Y1.8600  
G82 X-0.4500 Y1.9700  
G82 X-0.5000 Y2.2100  
G82 X-0.7500 Y2.1600  
G82 X-0.7500 Y2.3100  
G82 X-1.0500 Y2.3100  
G82 X-1.0500 Y2.1600  
G82 X-1.0500 Y2.0100  
G82 X-0.8500 Y2.0100  
G82 X-0.7500 Y1.9700  
G82 X-0.7000 Y1.8100  
G82 X-0.8000 Y1.8100  
G82 X-0.9000 Y1.8100  
G82 X-1.0000 Y1.8100  
G82 X-1.0000 Y1.5100  
G82 X-0.9000 Y1.5100  
G82 X-0.8000 Y1.5100  
G82 X-0.7000 Y1.5100  
G82 X-0.7000 Y1.3600  
G82 X-0.6500 Y1.2100  
G82 X-0.6000 Y1.0600  
G82 X-0.6000 Y0.9100  
G82 X-0.4500 Y1.0100  
G82 X-0.4500 Y1.1600  
G82 X-0.4500 Y1.4600  
G82 X-0.8500 Y1.2100  
G82 X-1.0000 Y1.2000  
G82 X-1.0000 Y1.3600  
G82 X-0.9000 Y1.0600  
G82 X-1.0000 Y0.9000  
G82 X-0.6000 Y0.7100  
G82 X-0.4500 Y0.7100  
G82 X-0.4500 Y0.3600  
G82 X-0.4500 Y0.1600  
G82 X-0.5000 Y2.5100  
G82 X-0.4300 Y2.5900  
G82 X-0.4300 Y2.7900  
G82 X-0.7200 Y2.6200  
G82 X-0.8200 Y2.6200  
G82 X-0.9700 Y2.6200  
G82 X-1.0700 Y2.6200  
M05
G00 Z3.0000  
G00 X0.0000  Y0.0000  
M06 T02  ; 0.0400  
G01 Z0.0000  F20    
M06 
G00 Z0.0500  
M03
G04 P0.000000
G82 X-0.6500 Y2.8600  Z-0.0730 F20    R0.0500  P0.010000
G82 X-0.7500 Y2.8600  
G82 X-0.8500 Y2.8600  
G82 X-0.9500 Y2.8600  
G82 X-0.9500 Y2.9600  
G82 X-0.8500 Y2.9600  
G82 X-0.7500 Y2.9600  
G82 X-0.6500 Y2.9600  
G82 X-1.0500 Y2.9600  
G82 X-1.0500 Y2.8600  
M05
G00 Z3.0000  
G00 X0.0000  Y0.0000  
M06 T03  ; 0.0440  
G01 Z0.0000  F20    
M06 
G00 Z0.0500  
M03
G04 P0.000000
G82 X-0.3000 Y0.5500  Z-0.0730 F20    R0.0500  P0.010000
G82 X-0.6000 Y0.5600  
G82 X-0.6000 Y0.3600  
G82 X-0.8500 Y0.7300  
G82 X-0.8500 Y0.8800  
G82 X-0.3100 Y1.3000  
G82 X-0.5300 Y1.7600  
G82 X-0.3000 Y2.0300  
G82 X-0.8800 Y2.4300  
G82 X-1.0300 Y2.4300  
G82 X-0.4400 Y2.9300  
G82 X-0.3000 Y2.8400  
M05
G00 Z3.0000  
G00 X0.0000  Y0.0000  
M06 T04  ; 0.0472  
G01 Z0.0000  F20    
M06 
G00 Z0.0500  
M03
G04 P0.000000
G82 X-0.1500 Y0.2031  Z-0.0730 F20    R0.0500  P0.010000
G82 X-0.1500 Y0.4000  
G82 X-0.1500 Y0.5969  
G82 X-0.1500 Y0.9631  
G82 X-0.1500 Y1.1600  
G82 X-0.1500 Y1.3569  
G82 X-0.1500 Y1.7231  
G82 X-0.1500 Y1.9200  
G82 X-0.1500 Y2.1169  
G82 X-0.1500 Y2.4831  
G82 X-0.1500 Y2.6800  
G82 X-0.1500 Y2.8769  
T01 
G00 Z1.0000  
M05
M02
