(/Applications/pcbgcode.repo/pcb-gcode.ulp)
(Copyright 2005 - 2012 by John Johnson)
(See readme.txt for licensing terms.)
(This file generated from the board:)
(.../4chan_mixer/eagle/4chan_mixer.brd)
(Current profile is .../pcbgcode.repo/profiles/mach.pp  )
(This file generated 11/30/15 7:43 PM)
(Settings from pcb-machine.h)
(spindle on time = 0.0000)
(  Tool Size)
(0.0100  )
(spindle speed = 30000.0000)
(tool change at 0.0000  0.0000  3.0000  )
(feed rate xy = F20    )
(feed rate z  = F10    )
(Z Axis Settings)
(  High     Up        Down     Drill)
(1.0000  	0.0500  	-0.0040 	-0.0730 )
(Settings from pcb-defaults.h)
(isolate min = 0.0010)
(isolate max = 0.0150)
(isolate step = 0.0015)
(Generated bottom outlines, bottom drill, )
(Unit of measure: inch)
(Inch Mode)
G20
(Absolute Coordinates)
G90
S30000
G00 Z1.0000  
G00 X0.0000  Y0.0000  
M03
G04 P0.000000
G00 Z0.0500  
G00 X-0.1126 Y0.1712  
G01 Z-0.0040 F10    
G01 X-0.1181 Y0.1658  F20    
G01 X-0.1243 Y0.1612  
G01 X-0.1312 Y0.1577  
G01 X-0.1385 Y0.1554  
G01 X-0.1461 Y0.1541  
G01 X-0.1539 Y0.1541  
G01 X-0.1615 Y0.1554  
G01 X-0.1688 Y0.1577  
G01 X-0.1757 Y0.1612  
G01 X-0.1819 Y0.1658  
G01 X-0.1874 Y0.1712  
G01 X-0.1914 Y0.1768  
G01 X-0.4229 Y0.1418  
G01 X-0.4367 Y0.1280  
G01 X-0.4633 Y0.1280  
G01 X-0.4820 Y0.1467  
G01 X-0.4820 Y0.1733  
G01 X-0.4633 Y0.1920  
G01 X-0.4367 Y0.1920  
G01 X-0.4300 Y0.1853  
G01 X-0.1958 Y0.2206  
G01 X-0.1954 Y0.2220  
G01 X-0.1919 Y0.2288  
G01 X-0.1874 Y0.2351  
G01 X-0.1819 Y0.2405  
G01 X-0.1757 Y0.2451  
G01 X-0.1688 Y0.2486  
G01 X-0.1615 Y0.2509  
G01 X-0.1539 Y0.2521  
G01 X-0.1461 Y0.2521  
G01 X-0.1385 Y0.2509  
G01 X-0.1312 Y0.2486  
G01 X-0.1243 Y0.2451  
G01 X-0.1181 Y0.2405  
G01 X-0.1126 Y0.2351  
G01 X-0.1081 Y0.2288  
G01 X-0.1046 Y0.2220  
G01 X-0.1022 Y0.2146  
G01 X-0.1010 Y0.2070  
G01 X-0.1010 Y0.1993  
G01 X-0.1022 Y0.1917  
G01 X-0.1046 Y0.1843  
G01 X-0.1081 Y0.1775  
G01 X-0.1126 Y0.1712  
G00 Z0.0500  
G00 X-0.1126 Y0.3681  
G01 Z-0.0040 F10    
G01 X-0.1181 Y0.3626  F20    
G01 X-0.1243 Y0.3581  
G01 X-0.1312 Y0.3546  
G01 X-0.1385 Y0.3522  
G01 X-0.1461 Y0.3510  
G01 X-0.1539 Y0.3510  
G01 X-0.1615 Y0.3522  
G01 X-0.1688 Y0.3546  
G01 X-0.1757 Y0.3581  
G01 X-0.1819 Y0.3626  
G01 X-0.1874 Y0.3681  
G01 X-0.1919 Y0.3743  
G01 X-0.1954 Y0.3812  
G01 X-0.1965 Y0.3844  
G01 X-0.3616 Y0.4080  
G01 X-0.3629 Y0.4080  
G01 X-0.3644 Y0.4084  
G01 X-0.3660 Y0.4086  
G01 X-0.3672 Y0.4092  
G01 X-0.3685 Y0.4095  
G01 X-0.3699 Y0.4103  
G01 X-0.3713 Y0.4109  
G01 X-0.3724 Y0.4117  
G01 X-0.3735 Y0.4124  
G01 X-0.3746 Y0.4135  
G01 X-0.3759 Y0.4145  
G01 X-0.3767 Y0.4155  
G01 X-0.4552 Y0.4941  
G01 X-0.4569 Y0.4956  
G01 X-0.4572 Y0.4961  
G01 X-0.4576 Y0.4965  
G01 X-0.4588 Y0.4985  
G01 X-0.4601 Y0.5005  
G01 X-0.4602 Y0.5010  
G01 X-0.4605 Y0.5015  
G01 X-0.4611 Y0.5038  
G01 X-0.4618 Y0.5060  
G01 X-0.4619 Y0.5066  
G01 X-0.4620 Y0.5071  
G01 X-0.4620 Y0.5095  
G01 X-0.4708 Y0.6856  
G01 X-0.4820 Y0.6967  
G01 X-0.4820 Y0.7233  
G01 X-0.4633 Y0.7420  
G01 X-0.4367 Y0.7420  
G01 X-0.4180 Y0.7233  
G01 X-0.4180 Y0.6967  
G01 X-0.4269 Y0.6879  
G01 X-0.4185 Y0.5196  
G01 X-0.3496 Y0.4507  
G01 X-0.1902 Y0.4280  
G01 X-0.1874 Y0.4319  
G01 X-0.1819 Y0.4374  
G01 X-0.1757 Y0.4419  
G01 X-0.1688 Y0.4454  
G01 X-0.1615 Y0.4478  
G01 X-0.1539 Y0.4490  
G01 X-0.1461 Y0.4490  
G01 X-0.1385 Y0.4478  
G01 X-0.1312 Y0.4454  
G01 X-0.1243 Y0.4419  
G01 X-0.1181 Y0.4374  
G01 X-0.1126 Y0.4319  
G01 X-0.1081 Y0.4257  
G01 X-0.1046 Y0.4188  
G01 X-0.1022 Y0.4115  
G01 X-0.1010 Y0.4039  
G01 X-0.1010 Y0.3961  
G01 X-0.1022 Y0.3885  
G01 X-0.1046 Y0.3812  
G01 X-0.1081 Y0.3743  
G01 X-0.1126 Y0.3681  
G00 Z0.0500  
G00 X-0.1126 Y0.5649  
G01 Z-0.0040 F10    
G01 X-0.1181 Y0.5595  F20    
G01 X-0.1243 Y0.5549  
G01 X-0.1312 Y0.5514  
G01 X-0.1385 Y0.5491  
G01 X-0.1461 Y0.5479  
G01 X-0.1539 Y0.5479  
G01 X-0.1615 Y0.5491  
G01 X-0.1688 Y0.5514  
G01 X-0.1757 Y0.5549  
G01 X-0.1819 Y0.5595  
G01 X-0.1874 Y0.5649  
G01 X-0.1899 Y0.5684  
G01 X-0.2094 Y0.5606  
G01 X-0.2096 Y0.5604  
G01 X-0.2121 Y0.5595  
G01 X-0.2145 Y0.5585  
G01 X-0.2148 Y0.5585  
G01 X-0.2515 Y0.5447  
G01 X-0.2515 Y0.5299  
G01 X-0.2799 Y0.5015  
G01 X-0.3201 Y0.5015  
G01 X-0.3485 Y0.5299  
G01 X-0.3485 Y0.5701  
G01 X-0.3201 Y0.5985  
G01 X-0.2799 Y0.5985  
G01 X-0.2672 Y0.5858  
G01 X-0.2279 Y0.6005  
G01 X-0.2107 Y0.6074  
G01 X-0.4135 Y0.7930  
G01 X-0.6509 Y0.7930  
G01 X-0.7315 Y0.7124  
G01 X-0.7365 Y0.7095  
G01 X-0.7421 Y0.7080  
G01 X-0.8034 Y0.7080  
G01 X-0.8299 Y0.6815  
G01 X-0.8701 Y0.6815  
G01 X-0.8985 Y0.7099  
G01 X-0.8985 Y0.7501  
G01 X-0.8701 Y0.7785  
G01 X-0.8299 Y0.7785  
G01 X-0.8034 Y0.7520  
G01 X-0.7541 Y0.7520  
G01 X-0.6907 Y0.8154  
G01 X-0.7776 Y0.9630  
G01 X-0.9540 Y0.9630  
G01 X-0.9559 Y0.9628  
G01 X-0.9569 Y0.9630  
G01 X-0.9579 Y0.9630  
G01 X-0.9597 Y0.9635  
G01 X-0.9616 Y0.9638  
G01 X-0.9625 Y0.9642  
G01 X-0.9635 Y0.9645  
G01 X-0.9651 Y0.9654  
G01 X-0.9669 Y0.9662  
G01 X-0.9676 Y0.9669  
G01 X-0.9685 Y0.9674  
G01 X-0.9698 Y0.9687  
G01 X-0.9713 Y0.9699  
G01 X-0.9719 Y0.9708  
G01 X-0.9726 Y0.9715  
G01 X-0.9736 Y0.9731  
G01 X-1.2119 Y1.3108  
G01 X-1.2126 Y1.3115  
G01 X-1.2136 Y1.3131  
G01 X-1.2146 Y1.3147  
G01 X-1.2150 Y1.3156  
G01 X-1.2155 Y1.3165  
G01 X-1.2160 Y1.3183  
G01 X-1.2166 Y1.3201  
G01 X-1.2167 Y1.3211  
G01 X-1.2170 Y1.3221  
G01 X-1.2170 Y1.3240  
G01 X-1.2172 Y1.3259  
G01 X-1.2170 Y1.3269  
G01 X-1.2170 Y2.9732  
G01 X-1.2172 Y2.9743  
G01 X-1.2170 Y2.9761  
G01 X-1.2170 Y2.9779  
G01 X-1.2167 Y2.9790  
G01 X-1.2166 Y2.9801  
G01 X-1.2160 Y2.9818  
G01 X-1.2155 Y2.9835  
G01 X-1.2149 Y2.9845  
G01 X-1.2146 Y2.9855  
G01 X-1.2135 Y2.9869  
G01 X-1.2126 Y2.9885  
G01 X-1.2118 Y2.9893  
G01 X-1.2112 Y2.9902  
G01 X-1.2098 Y2.9913  
G01 X-1.2085 Y2.9926  
G01 X-1.2075 Y2.9932  
G01 X-1.0998 Y3.0813  
G01 X-1.0985 Y3.0826  
G01 X-1.0975 Y3.0832  
G01 X-1.0967 Y3.0839  
G01 X-1.0950 Y3.0846  
G01 X-1.0935 Y3.0855  
G01 X-1.0924 Y3.0858  
G01 X-1.0914 Y3.0862  
G01 X-1.0896 Y3.0865  
G01 X-1.0879 Y3.0870  
G01 X-1.0868 Y3.0870  
G01 X-1.0857 Y3.0872  
G01 X-1.0839 Y3.0870  
G01 X-0.7476 Y3.0870  
G01 X-0.7472 Y3.0871  
G01 X-0.7470 Y3.0871  
G01 X-0.7468 Y3.0871  
G01 X-0.7445 Y3.0870  
G01 X-0.7421 Y3.0870  
G01 X-0.7418 Y3.0869  
G01 X-0.5816 Y3.0821  
G01 X-0.5809 Y3.0822  
G01 X-0.5797 Y3.0821  
G01 X-0.5784 Y3.0821  
G01 X-0.5774 Y3.0819  
G01 X-0.5764 Y3.0819  
G01 X-0.5758 Y3.0817  
G01 X-0.5231 Y3.0769  
G01 X-0.3984 Y3.0669  
G01 X-0.3956 Y3.0667  
G01 X-0.3955 Y3.0667  
G01 X-0.3954 Y3.0667  
G01 X-0.3927 Y3.0658  
G01 X-0.3901 Y3.0649  
G01 X-0.3900 Y3.0648  
G01 X-0.3899 Y3.0648  
G01 X-0.3876 Y3.0632  
G01 X-0.1741 Y2.9196  
G01 X-0.1688 Y2.9223  
G01 X-0.1615 Y2.9246  
G01 X-0.1539 Y2.9259  
G01 X-0.1461 Y2.9259  
G01 X-0.1385 Y2.9246  
G01 X-0.1312 Y2.9223  
G01 X-0.1243 Y2.9188  
G01 X-0.1181 Y2.9142  
G01 X-0.1126 Y2.9088  
G01 X-0.1081 Y2.9025  
G01 X-0.1046 Y2.8957  
G01 X-0.1022 Y2.8883  
G01 X-0.1010 Y2.8807  
G01 X-0.1010 Y2.8730  
G01 X-0.1022 Y2.8654  
G01 X-0.1046 Y2.8580  
G01 X-0.1081 Y2.8512  
G01 X-0.1126 Y2.8449  
G01 X-0.1181 Y2.8395  
G01 X-0.1243 Y2.8349  
G01 X-0.1312 Y2.8314  
G01 X-0.1385 Y2.8291  
G01 X-0.1461 Y2.8279  
G01 X-0.1539 Y2.8279  
G01 X-0.1615 Y2.8291  
G01 X-0.1688 Y2.8314  
G01 X-0.1757 Y2.8349  
G01 X-0.1819 Y2.8395  
G01 X-0.1865 Y2.8441  
G01 X-0.2151 Y2.8362  
G01 X-0.2156 Y2.8360  
G01 X-0.2179 Y2.8355  
G01 X-0.2201 Y2.8349  
G01 X-0.2207 Y2.8349  
G01 X-0.2515 Y2.8281  
G01 X-0.2515 Y2.8199  
G01 X-0.2799 Y2.7915  
G01 X-0.3201 Y2.7915  
G01 X-0.3485 Y2.8199  
G01 X-0.3485 Y2.8601  
G01 X-0.3201 Y2.8885  
G01 X-0.2799 Y2.8885  
G01 X-0.2622 Y2.8708  
G01 X-0.2284 Y2.8782  
G01 X-0.2021 Y2.8854  
G01 X-0.4075 Y3.0235  
G01 X-0.5240 Y3.0328  
G01 X-0.5241 Y3.0328  
G01 X-0.5269 Y3.0331  
G01 X-0.5296 Y3.0333  
G01 X-0.5298 Y3.0333  
G01 X-0.5485 Y3.0350  
G01 X-0.5347 Y2.9937  
G01 X-0.5342 Y2.9927  
G01 X-0.5338 Y2.9909  
G01 X-0.5332 Y2.9892  
G01 X-0.5331 Y2.9881  
G01 X-0.5329 Y2.9870  
G01 X-0.5330 Y2.9852  
G01 X-0.5329 Y2.9834  
G01 X-0.5331 Y2.9824  
G01 X-0.5526 Y2.4792  
G01 X-0.2718 Y2.2178  
G01 X-0.1733 Y2.1600  
G01 X-0.1688 Y2.1623  
G01 X-0.1615 Y2.1646  
G01 X-0.1539 Y2.1659  
G01 X-0.1461 Y2.1659  
G01 X-0.1385 Y2.1646  
G01 X-0.1312 Y2.1623  
G01 X-0.1243 Y2.1588  
G01 X-0.1181 Y2.1542  
G01 X-0.1126 Y2.1488  
G01 X-0.1081 Y2.1425  
G01 X-0.1046 Y2.1357  
G01 X-0.1022 Y2.1283  
G01 X-0.1010 Y2.1207  
G01 X-0.1010 Y2.1130  
G01 X-0.1022 Y2.1054  
G01 X-0.1046 Y2.0980  
G01 X-0.1081 Y2.0912  
G01 X-0.1126 Y2.0849  
G01 X-0.1181 Y2.0795  
G01 X-0.1243 Y2.0749  
G01 X-0.1312 Y2.0714  
G01 X-0.1385 Y2.0691  
G01 X-0.1461 Y2.0679  
G01 X-0.1539 Y2.0679  
G01 X-0.1615 Y2.0691  
G01 X-0.1688 Y2.0714  
G01 X-0.1733 Y2.0737  
G01 X-0.2196 Y2.0506  
G01 X-0.2515 Y2.0324  
G01 X-0.2515 Y2.0099  
G01 X-0.2799 Y1.9815  
G01 X-0.3201 Y1.9815  
G01 X-0.3485 Y2.0099  
G01 X-0.3485 Y2.0501  
G01 X-0.3201 Y2.0785  
G01 X-0.2799 Y2.0785  
G01 X-0.2725 Y2.0711  
G01 X-0.2429 Y2.0880  
G01 X-0.2424 Y2.0884  
G01 X-0.2404 Y2.0894  
G01 X-0.2384 Y2.0905  
G01 X-0.2378 Y2.0907  
G01 X-0.1986 Y2.1103  
G01 X-0.1990 Y2.1130  
G01 X-0.1990 Y2.1207  
G01 X-0.1985 Y2.1238  
G01 X-0.2824 Y2.1730  
G01 X-0.4346 Y2.0392  
G01 X-0.4359 Y2.0379  
G01 X-0.4368 Y2.0373  
G01 X-0.4377 Y2.0366  
G01 X-0.4393 Y2.0358  
G01 X-0.4408 Y2.0348  
G01 X-0.4418 Y2.0345  
G01 X-0.4428 Y2.0340  
G01 X-0.4446 Y2.0336  
G01 X-0.4993 Y2.0168  
G01 X-0.5838 Y1.8384  
G01 X-0.6017 Y1.7311  
G01 X-0.5695 Y1.6908  
G01 X-0.4878 Y1.6283  
G01 X-0.4865 Y1.6276  
G01 X-0.4855 Y1.6266  
G01 X-0.4843 Y1.6257  
G01 X-0.4834 Y1.6245  
G01 X-0.4209 Y1.5620  
G01 X-0.4117 Y1.5620  
G01 X-0.4106 Y1.5622  
G01 X-0.4088 Y1.5620  
G01 X-0.4071 Y1.5620  
G01 X-0.4060 Y1.5617  
G01 X-0.4048 Y1.5616  
G01 X-0.4032 Y1.5610  
G01 X-0.4015 Y1.5605  
G01 X-0.4005 Y1.5599  
G01 X-0.3994 Y1.5595  
G01 X-0.3980 Y1.5585  
G01 X-0.3965 Y1.5576  
G01 X-0.3957 Y1.5568  
G01 X-0.1774 Y1.3981  
G01 X-0.1770 Y1.3978  
G01 X-0.1757 Y1.3988  
G01 X-0.1688 Y1.4023  
G01 X-0.1615 Y1.4046  
G01 X-0.1539 Y1.4059  
G01 X-0.1461 Y1.4059  
G01 X-0.1385 Y1.4046  
G01 X-0.1312 Y1.4023  
G01 X-0.1243 Y1.3988  
G01 X-0.1181 Y1.3942  
G01 X-0.1126 Y1.3888  
G01 X-0.1081 Y1.3825  
G01 X-0.1046 Y1.3757  
G01 X-0.1022 Y1.3683  
G01 X-0.1010 Y1.3607  
G01 X-0.1010 Y1.3530  
G01 X-0.1022 Y1.3454  
G01 X-0.1046 Y1.3380  
G01 X-0.1081 Y1.3312  
G01 X-0.1126 Y1.3249  
G01 X-0.1181 Y1.3195  
G01 X-0.1243 Y1.3149  
G01 X-0.1312 Y1.3114  
G01 X-0.1385 Y1.3091  
G01 X-0.1461 Y1.3079  
G01 X-0.1539 Y1.3079  
G01 X-0.1615 Y1.3091  
G01 X-0.1688 Y1.3114  
G01 X-0.1757 Y1.3149  
G01 X-0.1819 Y1.3195  
G01 X-0.1874 Y1.3249  
G01 X-0.1919 Y1.3312  
G01 X-0.1938 Y1.3349  
G01 X-0.1954 Y1.3335  
G01 X-0.1976 Y1.3316  
G01 X-0.2002 Y1.3303  
G01 X-0.2615 Y1.2997  
G01 X-0.2615 Y1.2799  
G01 X-0.2899 Y1.2515  
G01 X-0.3301 Y1.2515  
G01 X-0.3585 Y1.2799  
G01 X-0.3585 Y1.3201  
G01 X-0.3301 Y1.3485  
G01 X-0.2899 Y1.3485  
G01 X-0.2807 Y1.3393  
G01 X-0.2251 Y1.3671  
G01 X-0.2200 Y1.3746  
G01 X-0.4172 Y1.5180  
G01 X-0.4329 Y1.5180  
G01 X-0.4385 Y1.5195  
G01 X-0.4435 Y1.5224  
G01 X-0.5145 Y1.5934  
G01 X-0.5982 Y1.6574  
G01 X-0.6004 Y1.6590  
G01 X-0.6005 Y1.6592  
G01 X-0.6007 Y1.6593  
G01 X-0.6023 Y1.6614  
G01 X-0.6367 Y1.7045  
G01 X-0.7669 Y1.7230  
G01 X-0.7685 Y1.7231  
G01 X-0.7697 Y1.7235  
G01 X-0.7710 Y1.7236  
G01 X-0.7725 Y1.7243  
G01 X-0.7741 Y1.7248  
G01 X-0.7752 Y1.7254  
G01 X-0.7763 Y1.7259  
G01 X-0.7776 Y1.7269  
G01 X-0.7790 Y1.7278  
G01 X-0.7799 Y1.7287  
G01 X-0.7809 Y1.7295  
G01 X-0.7819 Y1.7308  
G01 X-0.7830 Y1.7320  
G01 X-0.7836 Y1.7331  
G01 X-0.7843 Y1.7341  
G01 X-0.7850 Y1.7357  
G01 X-0.8083 Y1.7790  
G01 X-0.8093 Y1.7792  
G01 X-0.8152 Y1.7816  
G01 X-0.8204 Y1.7851  
G01 X-0.8249 Y1.7896  
G01 X-0.8284 Y1.7948  
G01 X-0.8308 Y1.8007  
G01 X-0.8320 Y1.8068  
G01 X-0.8320 Y1.8132  
G01 X-0.8308 Y1.8193  
G01 X-0.8284 Y1.8252  
G01 X-0.8249 Y1.8304  
G01 X-0.8204 Y1.8349  
G01 X-0.8152 Y1.8384  
G01 X-0.8093 Y1.8408  
G01 X-0.8032 Y1.8420  
G01 X-0.7968 Y1.8420  
G01 X-0.7907 Y1.8408  
G01 X-0.7848 Y1.8384  
G01 X-0.7796 Y1.8349  
G01 X-0.7751 Y1.8304  
G01 X-0.7716 Y1.8252  
G01 X-0.7692 Y1.8193  
G01 X-0.7680 Y1.8132  
G01 X-0.7680 Y1.8068  
G01 X-0.7692 Y1.8007  
G01 X-0.7696 Y1.7999  
G01 X-0.7509 Y1.7652  
G01 X-0.6432 Y1.7498  
G01 X-0.6271 Y1.8459  
G01 X-0.6272 Y1.8461  
G01 X-0.6267 Y1.8488  
G01 X-0.6262 Y1.8515  
G01 X-0.6262 Y1.8516  
G01 X-0.6261 Y1.8518  
G01 X-0.6250 Y1.8543  
G01 X-0.6238 Y1.8567  
G01 X-0.6237 Y1.8569  
G01 X-0.5359 Y2.0422  
G01 X-0.5358 Y2.0427  
G01 X-0.5347 Y2.0449  
G01 X-0.5336 Y2.0470  
G01 X-0.5333 Y2.0474  
G01 X-0.5331 Y2.0479  
G01 X-0.5314 Y2.0496  
G01 X-0.5299 Y2.0515  
G01 X-0.5295 Y2.0517  
G01 X-0.5291 Y2.0521  
G01 X-0.5271 Y2.0534  
G01 X-0.5251 Y2.0547  
G01 X-0.5247 Y2.0549  
G01 X-0.5242 Y2.0552  
G01 X-0.5219 Y2.0559  
G01 X-0.5197 Y2.0567  
G01 X-0.5192 Y2.0567  
G01 X-0.4610 Y2.0746  
G01 X-0.3178 Y2.2005  
G01 X-0.5885 Y2.4525  
G01 X-0.5892 Y2.4529  
G01 X-0.5906 Y2.4545  
G01 X-0.5921 Y2.4559  
G01 X-0.5926 Y2.4566  
G01 X-0.5931 Y2.4572  
G01 X-0.5941 Y2.4590  
G01 X-0.5952 Y2.4608  
G01 X-0.5954 Y2.4616  
G01 X-0.5958 Y2.4623  
G01 X-0.5963 Y2.4643  
G01 X-0.5969 Y2.4663  
G01 X-0.5969 Y2.4671  
G01 X-0.5971 Y2.4680  
G01 X-0.5970 Y2.4700  
G01 X-0.5971 Y2.4721  
G01 X-0.5969 Y2.4729  
G01 X-0.5771 Y2.9818  
G01 X-0.5960 Y3.0385  
G01 X-0.7241 Y3.0424  
G01 X-0.7262 Y2.9970  
G01 X-0.7070 Y2.9778  
G01 X-0.7070 Y2.9422  
G01 X-0.7280 Y2.9212  
G01 X-0.7280 Y2.8988  
G01 X-0.7070 Y2.8778  
G01 X-0.7070 Y2.8422  
G01 X-0.7322 Y2.8170  
G01 X-0.7678 Y2.8170  
G01 X-0.7930 Y2.8422  
G01 X-0.7930 Y2.8778  
G01 X-0.7720 Y2.8988  
G01 X-0.7720 Y2.9212  
G01 X-0.7888 Y2.9380  
G01 X-0.8112 Y2.9380  
G01 X-0.8280 Y2.9212  
G01 X-0.8280 Y2.8988  
G01 X-0.8070 Y2.8778  
G01 X-0.8070 Y2.8422  
G01 X-0.8322 Y2.8170  
G01 X-0.8678 Y2.8170  
G01 X-0.8888 Y2.8380  
G01 X-0.9112 Y2.8380  
G01 X-0.9314 Y2.8177  
G01 X-0.9455 Y2.6486  
G01 X-0.9390 Y2.6420  
G01 X-0.8504 Y2.6420  
G01 X-0.8491 Y2.6439  
G01 X-0.8439 Y2.6491  
G01 X-0.8378 Y2.6532  
G01 X-0.8309 Y2.6561  
G01 X-0.8237 Y2.6575  
G01 X-0.8163 Y2.6575  
G01 X-0.8091 Y2.6561  
G01 X-0.8022 Y2.6532  
G01 X-0.7961 Y2.6491  
G01 X-0.7909 Y2.6439  
G01 X-0.7868 Y2.6378  
G01 X-0.7839 Y2.6309  
G01 X-0.7825 Y2.6237  
G01 X-0.7825 Y2.6163  
G01 X-0.7839 Y2.6091  
G01 X-0.7868 Y2.6022  
G01 X-0.7909 Y2.5961  
G01 X-0.7961 Y2.5909  
G01 X-0.8022 Y2.5868  
G01 X-0.8077 Y2.5845  
G01 X-0.8282 Y2.5161  
G01 X-0.8282 Y2.5158  
G01 X-0.8290 Y2.5134  
G01 X-0.8298 Y2.5109  
G01 X-0.8299 Y2.5106  
G01 X-0.8455 Y2.4640  
G01 X-0.8315 Y2.4501  
G01 X-0.8315 Y2.4099  
G01 X-0.8599 Y2.3815  
G01 X-0.9001 Y2.3815  
G01 X-0.9285 Y2.4099  
G01 X-0.9285 Y2.4501  
G01 X-0.9001 Y2.4785  
G01 X-0.8870 Y2.4785  
G01 X-0.8710 Y2.5266  
G01 X-0.8498 Y2.5971  
G01 X-0.8504 Y2.5980  
G01 X-0.9390 Y2.5980  
G01 X-0.9545 Y2.5825  
G01 X-0.9855 Y2.5825  
G01 X-1.0075 Y2.6045  
G01 X-1.0075 Y2.6355  
G01 X-0.9893 Y2.6538  
G01 X-0.9751 Y2.8242  
G01 X-0.9930 Y2.8422  
G01 X-0.9930 Y2.8778  
G01 X-0.9720 Y2.8988  
G01 X-0.9720 Y2.9212  
G01 X-0.9930 Y2.9422  
G01 X-0.9930 Y2.9778  
G01 X-0.9678 Y3.0030  
G01 X-0.9322 Y3.0030  
G01 X-0.9070 Y2.9778  
G01 X-0.9070 Y2.9422  
G01 X-0.9280 Y2.9212  
G01 X-0.9280 Y2.8988  
G01 X-0.9112 Y2.8820  
G01 X-0.8888 Y2.8820  
G01 X-0.8720 Y2.8988  
G01 X-0.8720 Y2.9212  
G01 X-0.8930 Y2.9422  
G01 X-0.8930 Y2.9778  
G01 X-0.8678 Y3.0030  
G01 X-0.8322 Y3.0030  
G01 X-0.8112 Y2.9820  
G01 X-0.7888 Y2.9820  
G01 X-0.7701 Y3.0007  
G01 X-0.7681 Y3.0430  
G01 X-1.0771 Y3.0430  
G01 X-1.1730 Y2.9646  
G01 X-1.1730 Y1.3320  
G01 X-0.9436 Y1.0070  
G01 X-0.7876 Y1.0070  
G01 X-0.7970 Y1.3834  
G01 X-0.7972 Y1.3853  
G01 X-0.7970 Y1.3863  
G01 X-0.7971 Y1.3873  
G01 X-0.7966 Y1.3892  
G01 X-0.7964 Y1.3910  
G01 X-0.7959 Y1.3920  
G01 X-0.7957 Y1.3930  
G01 X-0.7948 Y1.3946  
G01 X-0.7941 Y1.3964  
G01 X-0.7934 Y1.3972  
G01 X-0.7929 Y1.3981  
G01 X-0.7916 Y1.3994  
G01 X-0.7224 Y1.4871  
G01 X-0.7249 Y1.4896  
G01 X-0.7284 Y1.4948  
G01 X-0.7308 Y1.5007  
G01 X-0.7320 Y1.5068  
G01 X-0.7320 Y1.5132  
G01 X-0.7308 Y1.5193  
G01 X-0.7284 Y1.5252  
G01 X-0.7249 Y1.5304  
G01 X-0.7204 Y1.5349  
G01 X-0.7152 Y1.5384  
G01 X-0.7093 Y1.5408  
G01 X-0.7032 Y1.5420  
G01 X-0.6968 Y1.5420  
G01 X-0.6907 Y1.5408  
G01 X-0.6848 Y1.5384  
G01 X-0.6796 Y1.5349  
G01 X-0.6751 Y1.5304  
G01 X-0.6716 Y1.5252  
G01 X-0.6692 Y1.5193  
G01 X-0.6680 Y1.5132  
G01 X-0.6680 Y1.5068  
G01 X-0.6692 Y1.5007  
G01 X-0.6716 Y1.4948  
G01 X-0.6751 Y1.4896  
G01 X-0.6780 Y1.4867  
G01 X-0.6780 Y1.4813  
G01 X-0.6778 Y1.4797  
G01 X-0.6780 Y1.4784  
G01 X-0.6780 Y1.4771  
G01 X-0.6784 Y1.4756  
G01 X-0.6786 Y1.4740  
G01 X-0.6792 Y1.4728  
G01 X-0.6795 Y1.4715  
G01 X-0.6803 Y1.4701  
G01 X-0.6809 Y1.4686  
G01 X-0.6817 Y1.4676  
G01 X-0.6824 Y1.4665  
G01 X-0.6835 Y1.4654  
G01 X-0.7528 Y1.3776  
G01 X-0.7431 Y0.9912  
G01 X-0.6524 Y0.8370  
G01 X-0.4055 Y0.8370  
G01 X-0.4031 Y0.8371  
G01 X-0.4026 Y0.8370  
G01 X-0.4021 Y0.8370  
G01 X-0.3998 Y0.8364  
G01 X-0.3974 Y0.8359  
G01 X-0.3970 Y0.8356  
G01 X-0.3965 Y0.8355  
G01 X-0.3944 Y0.8343  
G01 X-0.3923 Y0.8332  
G01 X-0.3919 Y0.8329  
G01 X-0.3915 Y0.8326  
G01 X-0.3898 Y0.8309  
G01 X-0.1780 Y0.6371  
G01 X-0.1757 Y0.6388  
G01 X-0.1688 Y0.6423  
G01 X-0.1615 Y0.6446  
G01 X-0.1539 Y0.6459  
G01 X-0.1461 Y0.6459  
G01 X-0.1385 Y0.6446  
G01 X-0.1312 Y0.6423  
G01 X-0.1243 Y0.6388  
G01 X-0.1181 Y0.6342  
G01 X-0.1126 Y0.6288  
G01 X-0.1081 Y0.6225  
G01 X-0.1046 Y0.6157  
G01 X-0.1022 Y0.6083  
G01 X-0.1010 Y0.6007  
G01 X-0.1010 Y0.5930  
G01 X-0.1022 Y0.5854  
G01 X-0.1046 Y0.5780  
G01 X-0.1081 Y0.5712  
G01 X-0.1126 Y0.5649  
G00 Z0.0500  
G00 X-0.1126 Y0.9312  
G01 Z-0.0040 F10    
G01 X-0.1181 Y0.9258  F20    
G01 X-0.1243 Y0.9212  
G01 X-0.1312 Y0.9177  
G01 X-0.1385 Y0.9154  
G01 X-0.1461 Y0.9141  
G01 X-0.1539 Y0.9141  
G01 X-0.1615 Y0.9154  
G01 X-0.1630 Y0.9159  
G01 X-0.1865 Y0.8924  
G01 X-0.1915 Y0.8895  
G01 X-0.1971 Y0.8880  
G01 X-0.5767 Y0.8880  
G01 X-0.5867 Y0.8780  
G01 X-0.6133 Y0.8780  
G01 X-0.6320 Y0.8967  
G01 X-0.6320 Y0.9233  
G01 X-0.6133 Y0.9420  
G01 X-0.5867 Y0.9420  
G01 X-0.5767 Y0.9320  
G01 X-0.2091 Y0.9320  
G01 X-0.1957 Y0.9454  
G01 X-0.1978 Y0.9517  
G01 X-0.1990 Y0.9593  
G01 X-0.1990 Y0.9670  
G01 X-0.1978 Y0.9746  
G01 X-0.1954 Y0.9820  
G01 X-0.1919 Y0.9888  
G01 X-0.1874 Y0.9951  
G01 X-0.1819 Y1.0005  
G01 X-0.1757 Y1.0051  
G01 X-0.1688 Y1.0086  
G01 X-0.1615 Y1.0109  
G01 X-0.1539 Y1.0121  
G01 X-0.1461 Y1.0121  
G01 X-0.1385 Y1.0109  
G01 X-0.1312 Y1.0086  
G01 X-0.1243 Y1.0051  
G01 X-0.1181 Y1.0005  
G01 X-0.1126 Y0.9951  
G01 X-0.1081 Y0.9888  
G01 X-0.1046 Y0.9820  
G01 X-0.1022 Y0.9746  
G01 X-0.1010 Y0.9670  
G01 X-0.1010 Y0.9593  
G01 X-0.1022 Y0.9517  
G01 X-0.1046 Y0.9443  
G01 X-0.1081 Y0.9375  
G01 X-0.1126 Y0.9312  
G00 Z0.0500  
G00 X-0.1126 Y1.1281  
G01 Z-0.0040 F10    
G01 X-0.1181 Y1.1226  F20    
G01 X-0.1243 Y1.1181  
G01 X-0.1312 Y1.1146  
G01 X-0.1385 Y1.1122  
G01 X-0.1461 Y1.1110  
G01 X-0.1539 Y1.1110  
G01 X-0.1615 Y1.1122  
G01 X-0.1688 Y1.1146  
G01 X-0.1757 Y1.1181  
G01 X-0.1819 Y1.1226  
G01 X-0.1874 Y1.1281  
G01 X-0.1919 Y1.1343  
G01 X-0.1938 Y1.1380  
G01 X-0.4267 Y1.1380  
G01 X-0.4367 Y1.1280  
G01 X-0.4633 Y1.1280  
G01 X-0.4820 Y1.1467  
G01 X-0.4820 Y1.1733  
G01 X-0.4633 Y1.1920  
G01 X-0.4367 Y1.1920  
G01 X-0.4267 Y1.1820  
G01 X-0.1938 Y1.1820  
G01 X-0.1919 Y1.1857  
G01 X-0.1874 Y1.1919  
G01 X-0.1819 Y1.1974  
G01 X-0.1757 Y1.2019  
G01 X-0.1688 Y1.2054  
G01 X-0.1615 Y1.2078  
G01 X-0.1539 Y1.2090  
G01 X-0.1461 Y1.2090  
G01 X-0.1385 Y1.2078  
G01 X-0.1312 Y1.2054  
G01 X-0.1243 Y1.2019  
G01 X-0.1181 Y1.1974  
G01 X-0.1126 Y1.1919  
G01 X-0.1081 Y1.1857  
G01 X-0.1046 Y1.1788  
G01 X-0.1022 Y1.1715  
G01 X-0.1010 Y1.1639  
G01 X-0.1010 Y1.1561  
G01 X-0.1022 Y1.1485  
G01 X-0.1046 Y1.1412  
G01 X-0.1081 Y1.1343  
G01 X-0.1126 Y1.1281  
G00 Z0.0500  
G00 X-0.5030 Y1.1218  
G01 Z-0.0040 F10    
G01 X-0.4484 Y1.0420  F20    
G01 X-0.4367 Y1.0420  
G01 X-0.4180 Y1.0233  
G01 X-0.4180 Y0.9967  
G01 X-0.4367 Y0.9780  
G01 X-0.4633 Y0.9780  
G01 X-0.4820 Y0.9967  
G01 X-0.4820 Y1.0132  
G01 X-0.5420 Y1.1009  
G01 X-0.5426 Y1.1015  
G01 X-0.5436 Y1.1033  
G01 X-0.5448 Y1.1050  
G01 X-0.5451 Y1.1058  
G01 X-0.5455 Y1.1065  
G01 X-0.5460 Y1.1085  
G01 X-0.5467 Y1.1104  
G01 X-0.5468 Y1.1113  
G01 X-0.5470 Y1.1121  
G01 X-0.5470 Y1.1142  
G01 X-0.5472 Y1.1162  
G01 X-0.5470 Y1.1170  
G01 X-0.5470 Y1.3879  
G01 X-0.5455 Y1.3935  
G01 X-0.5426 Y1.3985  
G01 X-0.4820 Y1.4591  
G01 X-0.4820 Y1.4609  
G01 X-0.6365 Y1.6154  
G01 X-0.8783 Y1.6831  
G01 X-0.8785 Y1.6831  
G01 X-0.8811 Y1.6839  
G01 X-0.8837 Y1.6846  
G01 X-0.8839 Y1.6847  
G01 X-0.8841 Y1.6847  
G01 X-0.8864 Y1.6862  
G01 X-0.8887 Y1.6875  
G01 X-0.8888 Y1.6877  
G01 X-0.8890 Y1.6878  
G01 X-0.8909 Y1.6898  
G01 X-0.8928 Y1.6917  
G01 X-0.8928 Y1.6919  
G01 X-0.8930 Y1.6920  
G01 X-0.8943 Y1.6944  
G01 X-0.8956 Y1.6967  
G01 X-0.8956 Y1.6969  
G01 X-0.8957 Y1.6971  
G01 X-0.8964 Y1.6997  
G01 X-0.8970 Y1.7024  
G01 X-0.8970 Y1.7025  
G01 X-0.9160 Y1.7822  
G01 X-0.9204 Y1.7851  
G01 X-0.9249 Y1.7896  
G01 X-0.9284 Y1.7948  
G01 X-0.9308 Y1.8007  
G01 X-0.9320 Y1.8068  
G01 X-0.9320 Y1.8132  
G01 X-0.9308 Y1.8193  
G01 X-0.9284 Y1.8252  
G01 X-0.9249 Y1.8304  
G01 X-0.9220 Y1.8333  
G01 X-0.9220 Y1.9629  
G01 X-0.9205 Y1.9685  
G01 X-0.9176 Y1.9735  
G01 X-0.8820 Y2.0091  
G01 X-0.8820 Y2.0233  
G01 X-0.8633 Y2.0420  
G01 X-0.8367 Y2.0420  
G01 X-0.8180 Y2.0233  
G01 X-0.8180 Y2.0209  
G01 X-0.7720 Y2.0025  
G01 X-0.7720 Y2.1367  
G01 X-0.7820 Y2.1467  
G01 X-0.7820 Y2.1733  
G01 X-0.7633 Y2.1920  
G01 X-0.7491 Y2.1920  
G01 X-0.7135 Y2.2276  
G01 X-0.7085 Y2.2305  
G01 X-0.7029 Y2.2320  
G01 X-0.5233 Y2.2320  
G01 X-0.5133 Y2.2420  
G01 X-0.4867 Y2.2420  
G01 X-0.4680 Y2.2233  
G01 X-0.4680 Y2.1967  
G01 X-0.4867 Y2.1780  
G01 X-0.5133 Y2.1780  
G01 X-0.5233 Y2.1880  
G01 X-0.6909 Y2.1880  
G01 X-0.7180 Y2.1609  
G01 X-0.7180 Y2.1467  
G01 X-0.7280 Y2.1367  
G01 X-0.7280 Y1.9933  
G01 X-0.7180 Y1.9833  
G01 X-0.7180 Y1.9567  
G01 X-0.7367 Y1.9380  
G01 X-0.7633 Y1.9380  
G01 X-0.7820 Y1.9567  
G01 X-0.7820 Y1.9591  
G01 X-0.8346 Y1.9801  
G01 X-0.8367 Y1.9780  
G01 X-0.8509 Y1.9780  
G01 X-0.8780 Y1.9509  
G01 X-0.8780 Y1.8333  
G01 X-0.8751 Y1.8304  
G01 X-0.8716 Y1.8252  
G01 X-0.8692 Y1.8193  
G01 X-0.8680 Y1.8132  
G01 X-0.8680 Y1.8068  
G01 X-0.8692 Y1.8007  
G01 X-0.8716 Y1.7948  
G01 X-0.8732 Y1.7925  
G01 X-0.8566 Y1.7227  
G01 X-0.6192 Y1.6562  
G01 X-0.6165 Y1.6555  
G01 X-0.6164 Y1.6554  
G01 X-0.6163 Y1.6554  
G01 X-0.6139 Y1.6540  
G01 X-0.6115 Y1.6526  
G01 X-0.6113 Y1.6525  
G01 X-0.6094 Y1.6505  
G01 X-0.4509 Y1.4920  
G01 X-0.4367 Y1.4920  
G01 X-0.4180 Y1.4733  
G01 X-0.4180 Y1.4467  
G01 X-0.4367 Y1.4280  
G01 X-0.4509 Y1.4280  
G01 X-0.5030 Y1.3759  
G01 X-0.5030 Y1.1218  
G00 Z0.0500  
G00 X-0.5867 Y1.0920  
G01 Z-0.0040 F10    
G01 X-0.5680 Y1.0733  F20    
G01 X-0.5680 Y1.0467  
G01 X-0.5867 Y1.0280  
G01 X-0.6133 Y1.0280  
G01 X-0.6320 Y1.0467  
G01 X-0.6320 Y1.0609  
G01 X-0.6676 Y1.0965  
G01 X-0.6705 Y1.1015  
G01 X-0.6720 Y1.1071  
G01 X-0.6720 Y1.1867  
G01 X-0.6820 Y1.1967  
G01 X-0.6820 Y1.2233  
G01 X-0.6815 Y1.2238  
G01 X-0.6996 Y1.2600  
G01 X-0.7008 Y1.2624  
G01 X-0.7009 Y1.2626  
G01 X-0.7010 Y1.2628  
G01 X-0.7015 Y1.2654  
G01 X-0.7160 Y1.3308  
G01 X-0.7320 Y1.3467  
G01 X-0.7320 Y1.3733  
G01 X-0.7133 Y1.3920  
G01 X-0.6891 Y1.3920  
G01 X-0.6320 Y1.4491  
G01 X-0.6320 Y1.5209  
G01 X-0.6891 Y1.5780  
G01 X-0.7409 Y1.5780  
G01 X-0.7680 Y1.5509  
G01 X-0.7680 Y1.5171  
G01 X-0.7685 Y1.5154  
G01 X-0.7680 Y1.5132  
G01 X-0.7680 Y1.5068  
G01 X-0.7692 Y1.5007  
G01 X-0.7716 Y1.4948  
G01 X-0.7751 Y1.4896  
G01 X-0.7796 Y1.4851  
G01 X-0.7848 Y1.4816  
G01 X-0.7907 Y1.4792  
G01 X-0.7968 Y1.4780  
G01 X-0.8032 Y1.4780  
G01 X-0.8093 Y1.4792  
G01 X-0.8152 Y1.4816  
G01 X-0.8204 Y1.4851  
G01 X-0.8249 Y1.4896  
G01 X-0.8284 Y1.4948  
G01 X-0.8308 Y1.5007  
G01 X-0.8320 Y1.5068  
G01 X-0.8320 Y1.5132  
G01 X-0.8308 Y1.5193  
G01 X-0.8284 Y1.5252  
G01 X-0.8249 Y1.5304  
G01 X-0.8204 Y1.5349  
G01 X-0.8152 Y1.5384  
G01 X-0.8120 Y1.5397  
G01 X-0.8120 Y1.5629  
G01 X-0.8105 Y1.5685  
G01 X-0.8076 Y1.5735  
G01 X-0.8035 Y1.5776  
G01 X-0.7635 Y1.6176  
G01 X-0.7585 Y1.6205  
G01 X-0.7529 Y1.6220  
G01 X-0.6771 Y1.6220  
G01 X-0.6715 Y1.6205  
G01 X-0.6665 Y1.6176  
G01 X-0.6624 Y1.6135  
G01 X-0.5924 Y1.5435  
G01 X-0.5895 Y1.5385  
G01 X-0.5880 Y1.5329  
G01 X-0.5880 Y1.4371  
G01 X-0.5895 Y1.4315  
G01 X-0.5924 Y1.4265  
G01 X-0.5965 Y1.4224  
G01 X-0.6680 Y1.3509  
G01 X-0.6680 Y1.3467  
G01 X-0.6733 Y1.3414  
G01 X-0.6591 Y1.2774  
G01 X-0.6414 Y1.2420  
G01 X-0.6367 Y1.2420  
G01 X-0.6180 Y1.2233  
G01 X-0.6180 Y1.1967  
G01 X-0.6280 Y1.1867  
G01 X-0.6280 Y1.1191  
G01 X-0.6009 Y1.0920  
G01 X-0.5867 Y1.0920  
G00 Z0.0500  
G00 X-0.8780 Y1.0833  
G01 Z-0.0040 F10    
G01 X-0.8680 Y1.0733  F20    
G01 X-0.8680 Y1.0467  
G01 X-0.8867 Y1.0280  
G01 X-0.9133 Y1.0280  
G01 X-0.9320 Y1.0467  
G01 X-0.9320 Y1.0733  
G01 X-0.9220 Y1.0833  
G01 X-0.9220 Y1.1857  
G01 X-0.9743 Y1.1805  
G01 X-0.9867 Y1.1680  
G01 X-1.0133 Y1.1680  
G01 X-1.0320 Y1.1867  
G01 X-1.0320 Y1.2133  
G01 X-1.0133 Y1.2320  
G01 X-0.9867 Y1.2320  
G01 X-0.9790 Y1.2242  
G01 X-0.9040 Y1.2317  
G01 X-0.9029 Y1.2320  
G01 X-0.9011 Y1.2320  
G01 X-0.8993 Y1.2322  
G01 X-0.8982 Y1.2320  
G01 X-0.8770 Y1.2320  
G01 X-0.8770 Y1.4131  
G01 X-0.9170 Y1.4708  
G01 X-0.9176 Y1.4715  
G01 X-0.9186 Y1.4732  
G01 X-0.9197 Y1.4749  
G01 X-0.9200 Y1.4757  
G01 X-0.9205 Y1.4765  
G01 X-0.9210 Y1.4784  
G01 X-0.9217 Y1.4803  
G01 X-0.9218 Y1.4812  
G01 X-0.9220 Y1.4821  
G01 X-0.9220 Y1.4841  
G01 X-0.9222 Y1.4861  
G01 X-0.9220 Y1.4868  
G01 X-0.9249 Y1.4896  
G01 X-0.9284 Y1.4948  
G01 X-0.9308 Y1.5007  
G01 X-0.9320 Y1.5068  
G01 X-0.9320 Y1.5132  
G01 X-0.9308 Y1.5193  
G01 X-0.9284 Y1.5252  
G01 X-0.9249 Y1.5304  
G01 X-0.9204 Y1.5349  
G01 X-0.9152 Y1.5384  
G01 X-0.9093 Y1.5408  
G01 X-0.9032 Y1.5420  
G01 X-0.8968 Y1.5420  
G01 X-0.8907 Y1.5408  
G01 X-0.8848 Y1.5384  
G01 X-0.8796 Y1.5349  
G01 X-0.8751 Y1.5304  
G01 X-0.8716 Y1.5252  
G01 X-0.8692 Y1.5193  
G01 X-0.8680 Y1.5132  
G01 X-0.8680 Y1.5068  
G01 X-0.8692 Y1.5007  
G01 X-0.8716 Y1.4948  
G01 X-0.8751 Y1.4896  
G01 X-0.8759 Y1.4888  
G01 X-0.8380 Y1.4342  
G01 X-0.8374 Y1.4335  
G01 X-0.8364 Y1.4318  
G01 X-0.8353 Y1.4301  
G01 X-0.8350 Y1.4293  
G01 X-0.8345 Y1.4285  
G01 X-0.8340 Y1.4266  
G01 X-0.8333 Y1.4247  
G01 X-0.8332 Y1.4238  
G01 X-0.8330 Y1.4229  
G01 X-0.8330 Y1.4209  
G01 X-0.8328 Y1.4189  
G01 X-0.8330 Y1.4180  
G01 X-0.8330 Y1.2383  
G01 X-0.8180 Y1.2233  
G01 X-0.8180 Y1.1967  
G01 X-0.8367 Y1.1780  
G01 X-0.8633 Y1.1780  
G01 X-0.8733 Y1.1880  
G01 X-0.8780 Y1.1880  
G01 X-0.8780 Y1.0833  
G00 Z0.0500  
G00 X-0.8701 Y0.9285  
G01 Z-0.0040 F10    
G01 X-0.8299 Y0.9285  F20    
G01 X-0.8015 Y0.9001  
G01 X-0.8015 Y0.8599  
G01 X-0.8299 Y0.8315  
G01 X-0.8701 Y0.8315  
G01 X-0.8985 Y0.8599  
G01 X-0.8985 Y0.8643  
G01 X-0.9797 Y0.8751  
G01 X-0.9867 Y0.8680  
G01 X-1.0133 Y0.8680  
G01 X-1.0320 Y0.8867  
G01 X-1.0320 Y0.9133  
G01 X-1.0133 Y0.9320  
G01 X-0.9867 Y0.9320  
G01 X-0.9734 Y0.9186  
G01 X-0.8909 Y0.9077  
G01 X-0.8701 Y0.9285  
G00 Z0.0500  
G00 X-0.8974 Y1.3215  
G01 Z-0.0040 F10    
G01 X-0.9474 Y1.2715  F20    
G01 X-0.9515 Y1.2674  
G01 X-0.9565 Y1.2645  
G01 X-0.9621 Y1.2630  
G01 X-1.0331 Y1.2630  
G01 X-1.0341 Y1.2628  
G01 X-1.0360 Y1.2630  
G01 X-1.0379 Y1.2630  
G01 X-1.0389 Y1.2633  
G01 X-1.0399 Y1.2634  
G01 X-1.0417 Y1.2640  
G01 X-1.0435 Y1.2645  
G01 X-1.0444 Y1.2650  
G01 X-1.0453 Y1.2654  
G01 X-1.0469 Y1.2664  
G01 X-1.0485 Y1.2674  
G01 X-1.0492 Y1.2681  
G01 X-1.0500 Y1.2687  
G01 X-1.0513 Y1.2701  
G01 X-1.0526 Y1.2715  
G01 X-1.0531 Y1.2724  
G01 X-1.1513 Y1.3901  
G01 X-1.1526 Y1.3915  
G01 X-1.1531 Y1.3924  
G01 X-1.1538 Y1.3931  
G01 X-1.1546 Y1.3949  
G01 X-1.1555 Y1.3965  
G01 X-1.1558 Y1.3975  
G01 X-1.1562 Y1.3984  
G01 X-1.1565 Y1.4003  
G01 X-1.1570 Y1.4021  
G01 X-1.1570 Y1.4031  
G01 X-1.1572 Y1.4041  
G01 X-1.1570 Y1.4060  
G01 X-1.1570 Y2.4842  
G01 X-1.1572 Y2.4862  
G01 X-1.1570 Y2.4871  
G01 X-1.1570 Y2.4879  
G01 X-1.1565 Y2.4899  
G01 X-1.1561 Y2.4919  
G01 X-1.1557 Y2.4927  
G01 X-1.1555 Y2.4935  
G01 X-1.1545 Y2.4953  
G01 X-1.1031 Y2.6020  
G01 X-1.1032 Y2.6022  
G01 X-1.1061 Y2.6091  
G01 X-1.1075 Y2.6163  
G01 X-1.1075 Y2.6237  
G01 X-1.1061 Y2.6309  
G01 X-1.1032 Y2.6378  
G01 X-1.0991 Y2.6439  
G01 X-1.0939 Y2.6491  
G01 X-1.0894 Y2.6521  
G01 X-1.0751 Y2.8242  
G01 X-1.0930 Y2.8422  
G01 X-1.0930 Y2.8778  
G01 X-1.0720 Y2.8988  
G01 X-1.0720 Y2.9212  
G01 X-1.0930 Y2.9422  
G01 X-1.0930 Y2.9778  
G01 X-1.0678 Y3.0030  
G01 X-1.0322 Y3.0030  
G01 X-1.0070 Y2.9778  
G01 X-1.0070 Y2.9422  
G01 X-1.0280 Y2.9212  
G01 X-1.0280 Y2.8988  
G01 X-1.0070 Y2.8778  
G01 X-1.0070 Y2.8422  
G01 X-1.0314 Y2.8177  
G01 X-1.0455 Y2.6486  
G01 X-1.0409 Y2.6439  
G01 X-1.0368 Y2.6378  
G01 X-1.0339 Y2.6309  
G01 X-1.0325 Y2.6237  
G01 X-1.0325 Y2.6163  
G01 X-1.0339 Y2.6091  
G01 X-1.0368 Y2.6022  
G01 X-1.0409 Y2.5961  
G01 X-1.0461 Y2.5909  
G01 X-1.0522 Y2.5868  
G01 X-1.0591 Y2.5839  
G01 X-1.0634 Y2.5831  
G01 X-1.1130 Y2.4800  
G01 X-1.1130 Y1.4130  
G01 X-1.0247 Y1.3070  
G01 X-0.9741 Y1.3070  
G01 X-0.9370 Y1.3441  
G01 X-0.9370 Y1.3766  
G01 X-1.0160 Y1.4649  
G01 X-1.0176 Y1.4665  
G01 X-1.0179 Y1.4670  
G01 X-1.0183 Y1.4675  
G01 X-1.0194 Y1.4695  
G01 X-1.0205 Y1.4715  
G01 X-1.0207 Y1.4721  
G01 X-1.0209 Y1.4727  
G01 X-1.0214 Y1.4749  
G01 X-1.0220 Y1.4771  
G01 X-1.0220 Y1.4777  
G01 X-1.0221 Y1.4783  
G01 X-1.0220 Y1.4806  
G01 X-1.0220 Y1.4867  
G01 X-1.0249 Y1.4896  
G01 X-1.0284 Y1.4948  
G01 X-1.0308 Y1.5007  
G01 X-1.0320 Y1.5068  
G01 X-1.0320 Y1.5132  
G01 X-1.0308 Y1.5193  
G01 X-1.0284 Y1.5252  
G01 X-1.0249 Y1.5304  
G01 X-1.0204 Y1.5349  
G01 X-1.0152 Y1.5384  
G01 X-1.0093 Y1.5408  
G01 X-1.0032 Y1.5420  
G01 X-0.9968 Y1.5420  
G01 X-0.9907 Y1.5408  
G01 X-0.9848 Y1.5384  
G01 X-0.9796 Y1.5349  
G01 X-0.9751 Y1.5304  
G01 X-0.9716 Y1.5252  
G01 X-0.9692 Y1.5193  
G01 X-0.9680 Y1.5132  
G01 X-0.9680 Y1.5068  
G01 X-0.9692 Y1.5007  
G01 X-0.9716 Y1.4948  
G01 X-0.9751 Y1.4896  
G01 X-0.9772 Y1.4875  
G01 X-0.8990 Y1.4001  
G01 X-0.8974 Y1.3985  
G01 X-0.8971 Y1.3980  
G01 X-0.8967 Y1.3975  
G01 X-0.8956 Y1.3955  
G01 X-0.8945 Y1.3935  
G01 X-0.8943 Y1.3929  
G01 X-0.8941 Y1.3923  
G01 X-0.8936 Y1.3901  
G01 X-0.8930 Y1.3879  
G01 X-0.8930 Y1.3873  
G01 X-0.8929 Y1.3867  
G01 X-0.8930 Y1.3844  
G01 X-0.8930 Y1.3321  
G01 X-0.8945 Y1.3265  
G01 X-0.8974 Y1.3215  
G00 Z0.0500  
G00 X-0.9680 Y1.3467  
G01 Z-0.0040 F10    
G01 X-0.9867 Y1.3280  F20    
G01 X-1.0133 Y1.3280  
G01 X-1.0320 Y1.3467  
G01 X-1.0320 Y1.3609  
G01 X-1.0885 Y1.4174  
G01 X-1.0926 Y1.4215  
G01 X-1.0955 Y1.4265  
G01 X-1.0970 Y1.4321  
G01 X-1.0970 Y1.7379  
G01 X-1.0955 Y1.7435  
G01 X-1.0926 Y1.7485  
G01 X-1.0720 Y1.7691  
G01 X-1.0720 Y1.9867  
G01 X-1.0820 Y1.9967  
G01 X-1.0820 Y2.0233  
G01 X-1.0720 Y2.0333  
G01 X-1.0720 Y2.1367  
G01 X-1.0820 Y2.1467  
G01 X-1.0820 Y2.1733  
G01 X-1.0633 Y2.1920  
G01 X-1.0367 Y2.1920  
G01 X-1.0362 Y2.1915  
G01 X-0.7820 Y2.3186  
G01 X-0.7820 Y2.3233  
G01 X-0.7633 Y2.3420  
G01 X-0.7367 Y2.3420  
G01 X-0.7180 Y2.3233  
G01 X-0.7180 Y2.2967  
G01 X-0.7367 Y2.2780  
G01 X-0.7633 Y2.2780  
G01 X-0.7638 Y2.2785  
G01 X-1.0180 Y2.1514  
G01 X-1.0180 Y2.1467  
G01 X-1.0280 Y2.1367  
G01 X-1.0280 Y2.0333  
G01 X-1.0180 Y2.0233  
G01 X-1.0180 Y1.9967  
G01 X-1.0280 Y1.9867  
G01 X-1.0280 Y1.8257  
G01 X-1.0249 Y1.8304  
G01 X-1.0204 Y1.8349  
G01 X-1.0152 Y1.8384  
G01 X-1.0093 Y1.8408  
G01 X-1.0032 Y1.8420  
G01 X-0.9968 Y1.8420  
G01 X-0.9907 Y1.8408  
G01 X-0.9848 Y1.8384  
G01 X-0.9796 Y1.8349  
G01 X-0.9751 Y1.8304  
G01 X-0.9716 Y1.8252  
G01 X-0.9692 Y1.8193  
G01 X-0.9680 Y1.8132  
G01 X-0.9680 Y1.8068  
G01 X-0.9692 Y1.8007  
G01 X-0.9716 Y1.7948  
G01 X-0.9751 Y1.7896  
G01 X-0.9796 Y1.7851  
G01 X-0.9848 Y1.7816  
G01 X-0.9907 Y1.7792  
G01 X-0.9968 Y1.7780  
G01 X-1.0009 Y1.7780  
G01 X-1.0324 Y1.7465  
G01 X-1.0365 Y1.7424  
G01 X-1.0530 Y1.7259  
G01 X-1.0530 Y1.4441  
G01 X-1.0009 Y1.3920  
G01 X-0.9867 Y1.3920  
G01 X-0.9680 Y1.3733  
G01 X-0.9680 Y1.3467  
G00 Z0.0500  
G00 X-0.7204 Y1.7851  
G01 Z-0.0040 F10    
G01 X-0.7249 Y1.7896  F20    
G01 X-0.7284 Y1.7948  
G01 X-0.7308 Y1.8007  
G01 X-0.7320 Y1.8068  
G01 X-0.7320 Y1.8132  
G01 X-0.7308 Y1.8193  
G01 X-0.7284 Y1.8252  
G01 X-0.7249 Y1.8304  
G01 X-0.7204 Y1.8349  
G01 X-0.7164 Y1.8375  
G01 X-0.7019 Y1.9031  
G01 X-0.7018 Y1.9042  
G01 X-0.7012 Y1.9059  
G01 X-0.7008 Y1.9076  
G01 X-0.7003 Y1.9086  
G01 X-0.6720 Y1.9936  
G01 X-0.6720 Y2.0385  
G01 X-0.6722 Y2.0399  
G01 X-0.6720 Y2.0414  
G01 X-0.6720 Y2.0429  
G01 X-0.6716 Y2.0442  
G01 X-0.6715 Y2.0456  
G01 X-0.6709 Y2.0470  
G01 X-0.6705 Y2.0485  
G01 X-0.6698 Y2.0497  
G01 X-0.6693 Y2.0510  
G01 X-0.6684 Y2.0522  
G01 X-0.6676 Y2.0535  
G01 X-0.6666 Y2.0545  
G01 X-0.6658 Y2.0556  
G01 X-0.6646 Y2.0565  
G01 X-0.6635 Y2.0576  
G01 X-0.6623 Y2.0583  
G01 X-0.5744 Y2.1266  
G01 X-0.5732 Y2.1278  
G01 X-0.5722 Y2.1284  
G01 X-0.5712 Y2.1291  
G01 X-0.5696 Y2.1298  
G01 X-0.5681 Y2.1306  
G01 X-0.5670 Y2.1309  
G01 X-0.5659 Y2.1314  
G01 X-0.5642 Y2.1316  
G01 X-0.4912 Y2.1499  
G01 X-0.4320 Y2.2091  
G01 X-0.4320 Y2.2109  
G01 X-0.5091 Y2.2880  
G01 X-0.5729 Y2.2880  
G01 X-0.5785 Y2.2895  
G01 X-0.5835 Y2.2924  
G01 X-0.7335 Y2.4424  
G01 X-0.7376 Y2.4465  
G01 X-0.7405 Y2.4515  
G01 X-0.7420 Y2.4571  
G01 X-0.7420 Y2.5890  
G01 X-0.7575 Y2.6045  
G01 X-0.7575 Y2.6355  
G01 X-0.7355 Y2.6575  
G01 X-0.7136 Y2.6575  
G01 X-0.6720 Y2.6991  
G01 X-0.6720 Y2.8212  
G01 X-0.6930 Y2.8422  
G01 X-0.6930 Y2.8778  
G01 X-0.6720 Y2.8988  
G01 X-0.6720 Y2.9212  
G01 X-0.6930 Y2.9422  
G01 X-0.6930 Y2.9778  
G01 X-0.6678 Y3.0030  
G01 X-0.6322 Y3.0030  
G01 X-0.6070 Y2.9778  
G01 X-0.6070 Y2.9422  
G01 X-0.6280 Y2.9212  
G01 X-0.6280 Y2.8988  
G01 X-0.6070 Y2.8778  
G01 X-0.6070 Y2.8422  
G01 X-0.6280 Y2.8212  
G01 X-0.6280 Y2.6871  
G01 X-0.6295 Y2.6815  
G01 X-0.6324 Y2.6765  
G01 X-0.6825 Y2.6264  
G01 X-0.6825 Y2.6045  
G01 X-0.6980 Y2.5890  
G01 X-0.6980 Y2.4691  
G01 X-0.5609 Y2.3320  
G01 X-0.4971 Y2.3320  
G01 X-0.4915 Y2.3305  
G01 X-0.4865 Y2.3276  
G01 X-0.4824 Y2.3235  
G01 X-0.3924 Y2.2335  
G01 X-0.3895 Y2.2285  
G01 X-0.3880 Y2.2229  
G01 X-0.3880 Y2.1971  
G01 X-0.3895 Y2.1915  
G01 X-0.3924 Y2.1865  
G01 X-0.3965 Y2.1824  
G01 X-0.4625 Y2.1164  
G01 X-0.4626 Y2.1162  
G01 X-0.4646 Y2.1143  
G01 X-0.4665 Y2.1124  
G01 X-0.4667 Y2.1123  
G01 X-0.4668 Y2.1122  
G01 X-0.4692 Y2.1109  
G01 X-0.4715 Y2.1095  
G01 X-0.4717 Y2.1095  
G01 X-0.4719 Y2.1094  
G01 X-0.4745 Y2.1087  
G01 X-0.4771 Y2.1080  
G01 X-0.4773 Y2.1080  
G01 X-0.5502 Y2.0898  
G01 X-0.6280 Y2.0292  
G01 X-0.6280 Y1.9922  
G01 X-0.6279 Y1.9916  
G01 X-0.6280 Y1.9893  
G01 X-0.6280 Y1.9871  
G01 X-0.6282 Y1.9865  
G01 X-0.6282 Y1.9858  
G01 X-0.6289 Y1.9837  
G01 X-0.6295 Y1.9815  
G01 X-0.6298 Y1.9809  
G01 X-0.6588 Y1.8941  
G01 X-0.6735 Y1.8279  
G01 X-0.6716 Y1.8252  
G01 X-0.6692 Y1.8193  
G01 X-0.6680 Y1.8132  
G01 X-0.6680 Y1.8068  
G01 X-0.6692 Y1.8007  
G01 X-0.6716 Y1.7948  
G01 X-0.6751 Y1.7896  
G01 X-0.6796 Y1.7851  
G01 X-0.6848 Y1.7816  
G01 X-0.6907 Y1.7792  
G01 X-0.6968 Y1.7780  
G01 X-0.7032 Y1.7780  
G01 X-0.7093 Y1.7792  
G01 X-0.7152 Y1.7816  
G01 X-0.7204 Y1.7851  
G00 Z0.0500  
G00 X-0.5785 Y1.7801  
G01 Z-0.0040 F10    
G01 X-0.5501 Y1.8085  F20    
G01 X-0.5126 Y1.8085  
G01 X-0.4620 Y1.8591  
G01 X-0.4620 Y1.8733  
G01 X-0.4433 Y1.8920  
G01 X-0.4167 Y1.8920  
G01 X-0.3980 Y1.8733  
G01 X-0.3980 Y1.8467  
G01 X-0.4167 Y1.8280  
G01 X-0.4309 Y1.8280  
G01 X-0.4815 Y1.7774  
G01 X-0.4815 Y1.7399  
G01 X-0.5099 Y1.7115  
G01 X-0.5501 Y1.7115  
G01 X-0.5785 Y1.7399  
G01 X-0.5785 Y1.7801  
G00 Z0.0500  
G00 X-0.4620 Y1.6733  
G01 Z-0.0040 F10    
G01 X-0.4433 Y1.6920  F20    
G01 X-0.4167 Y1.6920  
G01 X-0.4121 Y1.6874  
G01 X-0.1945 Y1.7438  
G01 X-0.1919 Y1.7488  
G01 X-0.1874 Y1.7551  
G01 X-0.1819 Y1.7605  
G01 X-0.1757 Y1.7651  
G01 X-0.1688 Y1.7686  
G01 X-0.1615 Y1.7709  
G01 X-0.1539 Y1.7721  
G01 X-0.1461 Y1.7721  
G01 X-0.1385 Y1.7709  
G01 X-0.1312 Y1.7686  
G01 X-0.1243 Y1.7651  
G01 X-0.1181 Y1.7605  
G01 X-0.1126 Y1.7551  
G01 X-0.1081 Y1.7488  
G01 X-0.1046 Y1.7420  
G01 X-0.1022 Y1.7346  
G01 X-0.1010 Y1.7270  
G01 X-0.1010 Y1.7193  
G01 X-0.1022 Y1.7117  
G01 X-0.1046 Y1.7043  
G01 X-0.1081 Y1.6975  
G01 X-0.1126 Y1.6912  
G01 X-0.1181 Y1.6858  
G01 X-0.1243 Y1.6812  
G01 X-0.1312 Y1.6777  
G01 X-0.1385 Y1.6754  
G01 X-0.1461 Y1.6741  
G01 X-0.1539 Y1.6741  
G01 X-0.1615 Y1.6754  
G01 X-0.1688 Y1.6777  
G01 X-0.1757 Y1.6812  
G01 X-0.1819 Y1.6858  
G01 X-0.1874 Y1.6912  
G01 X-0.1919 Y1.6975  
G01 X-0.1926 Y1.6988  
G01 X-0.3996 Y1.6452  
G01 X-0.4167 Y1.6280  
G01 X-0.4433 Y1.6280  
G01 X-0.4620 Y1.6467  
G01 X-0.4620 Y1.6733  
G00 Z0.0500  
G00 X-0.4633 Y1.9380  
G01 Z-0.0040 F10    
G01 X-0.4820 Y1.9567  F20    
G01 X-0.4820 Y1.9833  
G01 X-0.4633 Y2.0020  
G01 X-0.4367 Y2.0020  
G01 X-0.4180 Y1.9833  
G01 X-0.4180 Y1.9786  
G01 X-0.3254 Y1.9323  
G01 X-0.1950 Y1.9395  
G01 X-0.1919 Y1.9457  
G01 X-0.1874 Y1.9519  
G01 X-0.1819 Y1.9574  
G01 X-0.1757 Y1.9619  
G01 X-0.1688 Y1.9654  
G01 X-0.1615 Y1.9678  
G01 X-0.1539 Y1.9690  
G01 X-0.1461 Y1.9690  
G01 X-0.1385 Y1.9678  
G01 X-0.1312 Y1.9654  
G01 X-0.1243 Y1.9619  
G01 X-0.1181 Y1.9574  
G01 X-0.1126 Y1.9519  
G01 X-0.1081 Y1.9457  
G01 X-0.1046 Y1.9388  
G01 X-0.1022 Y1.9315  
G01 X-0.1010 Y1.9239  
G01 X-0.1010 Y1.9161  
G01 X-0.1022 Y1.9085  
G01 X-0.1046 Y1.9012  
G01 X-0.1081 Y1.8943  
G01 X-0.1126 Y1.8881  
G01 X-0.1181 Y1.8826  
G01 X-0.1243 Y1.8781  
G01 X-0.1312 Y1.8746  
G01 X-0.1385 Y1.8722  
G01 X-0.1461 Y1.8710  
G01 X-0.1539 Y1.8710  
G01 X-0.1615 Y1.8722  
G01 X-0.1688 Y1.8746  
G01 X-0.1757 Y1.8781  
G01 X-0.1819 Y1.8826  
G01 X-0.1874 Y1.8881  
G01 X-0.1919 Y1.8943  
G01 X-0.1926 Y1.8956  
G01 X-0.3288 Y1.8880  
G01 X-0.3316 Y1.8879  
G01 X-0.3345 Y1.8885  
G01 X-0.3372 Y1.8890  
G01 X-0.3399 Y1.8903  
G01 X-0.4362 Y1.9385  
G01 X-0.4367 Y1.9380  
G01 X-0.4633 Y1.9380  
G00 Z0.0500  
G00 X-0.4680 Y2.4967  
G01 Z-0.0040 F10    
G01 X-0.4867 Y2.4780  F20    
G01 X-0.5133 Y2.4780  
G01 X-0.5320 Y2.4967  
G01 X-0.5320 Y2.5233  
G01 X-0.5234 Y2.5318  
G01 X-0.5267 Y2.5609  
G01 X-0.5270 Y2.5621  
G01 X-0.5270 Y2.5638  
G01 X-0.5272 Y2.5654  
G01 X-0.5270 Y2.5667  
G01 X-0.5270 Y2.6430  
G01 X-0.5272 Y2.6439  
G01 X-0.5270 Y2.6459  
G01 X-0.5270 Y2.6479  
G01 X-0.5268 Y2.6488  
G01 X-0.5267 Y2.6497  
G01 X-0.5260 Y2.6516  
G01 X-0.5255 Y2.6535  
G01 X-0.5250 Y2.6543  
G01 X-0.5247 Y2.6552  
G01 X-0.5236 Y2.6568  
G01 X-0.5226 Y2.6585  
G01 X-0.5219 Y2.6592  
G01 X-0.5214 Y2.6599  
G01 X-0.5199 Y2.6612  
G01 X-0.5185 Y2.6626  
G01 X-0.5177 Y2.6631  
G01 X-0.4543 Y2.7167  
G01 X-0.4523 Y2.7185  
G01 X-0.4521 Y2.7186  
G01 X-0.4520 Y2.7187  
G01 X-0.4495 Y2.7198  
G01 X-0.4471 Y2.7210  
G01 X-0.4469 Y2.7211  
G01 X-0.4468 Y2.7211  
G01 X-0.4441 Y2.7216  
G01 X-0.4414 Y2.7221  
G01 X-0.4412 Y2.7221  
G01 X-0.4411 Y2.7222  
G01 X-0.4383 Y2.7219  
G01 X-0.1923 Y2.7050  
G01 X-0.1919 Y2.7057  
G01 X-0.1874 Y2.7119  
G01 X-0.1819 Y2.7174  
G01 X-0.1757 Y2.7219  
G01 X-0.1688 Y2.7254  
G01 X-0.1615 Y2.7278  
G01 X-0.1539 Y2.7290  
G01 X-0.1461 Y2.7290  
G01 X-0.1385 Y2.7278  
G01 X-0.1312 Y2.7254  
G01 X-0.1243 Y2.7219  
G01 X-0.1181 Y2.7174  
G01 X-0.1126 Y2.7119  
G01 X-0.1081 Y2.7057  
G01 X-0.1046 Y2.6988  
G01 X-0.1022 Y2.6915  
G01 X-0.1010 Y2.6839  
G01 X-0.1010 Y2.6761  
G01 X-0.1022 Y2.6685  
G01 X-0.1046 Y2.6612  
G01 X-0.1081 Y2.6543  
G01 X-0.1126 Y2.6481  
G01 X-0.1181 Y2.6426  
G01 X-0.1243 Y2.6381  
G01 X-0.1312 Y2.6346  
G01 X-0.1385 Y2.6322  
G01 X-0.1461 Y2.6310  
G01 X-0.1539 Y2.6310  
G01 X-0.1615 Y2.6322  
G01 X-0.1688 Y2.6346  
G01 X-0.1757 Y2.6381  
G01 X-0.1819 Y2.6426  
G01 X-0.1874 Y2.6481  
G01 X-0.1919 Y2.6543  
G01 X-0.1954 Y2.6611  
G01 X-0.4326 Y2.6774  
G01 X-0.4830 Y2.6348  
G01 X-0.4830 Y2.5662  
G01 X-0.4795 Y2.5348  
G01 X-0.4680 Y2.5233  
G01 X-0.4680 Y2.4967  
G00 Z0.0500  
G00 X-0.4620 Y2.5767  
G01 Z-0.0040 F10    
G01 X-0.4620 Y2.6033  F20    
G01 X-0.4433 Y2.6220  
G01 X-0.4167 Y2.6220  
G01 X-0.3980 Y2.6033  
G01 X-0.3980 Y2.5951  
G01 X-0.2997 Y2.5296  
G01 X-0.2551 Y2.5117  
G01 X-0.1924 Y2.5078  
G01 X-0.1919 Y2.5088  
G01 X-0.1874 Y2.5151  
G01 X-0.1819 Y2.5205  
G01 X-0.1757 Y2.5251  
G01 X-0.1688 Y2.5286  
G01 X-0.1615 Y2.5309  
G01 X-0.1539 Y2.5321  
G01 X-0.1461 Y2.5321  
G01 X-0.1385 Y2.5309  
G01 X-0.1312 Y2.5286  
G01 X-0.1243 Y2.5251  
G01 X-0.1181 Y2.5205  
G01 X-0.1126 Y2.5151  
G01 X-0.1081 Y2.5088  
G01 X-0.1046 Y2.5020  
G01 X-0.1022 Y2.4946  
G01 X-0.1010 Y2.4870  
G01 X-0.1010 Y2.4793  
G01 X-0.1022 Y2.4717  
G01 X-0.1046 Y2.4643  
G01 X-0.1081 Y2.4575  
G01 X-0.1126 Y2.4512  
G01 X-0.1181 Y2.4458  
G01 X-0.1243 Y2.4412  
G01 X-0.1312 Y2.4377  
G01 X-0.1385 Y2.4354  
G01 X-0.1461 Y2.4341  
G01 X-0.1539 Y2.4341  
G01 X-0.1615 Y2.4354  
G01 X-0.1688 Y2.4377  
G01 X-0.1757 Y2.4412  
G01 X-0.1819 Y2.4458  
G01 X-0.1874 Y2.4512  
G01 X-0.1919 Y2.4575  
G01 X-0.1952 Y2.4639  
G01 X-0.2591 Y2.4679  
G01 X-0.2597 Y2.4678  
G01 X-0.2620 Y2.4681  
G01 X-0.2643 Y2.4682  
G01 X-0.2649 Y2.4684  
G01 X-0.2655 Y2.4685  
G01 X-0.2676 Y2.4693  
G01 X-0.2697 Y2.4701  
G01 X-0.2703 Y2.4704  
G01 X-0.3176 Y2.4894  
G01 X-0.3198 Y2.4901  
G01 X-0.3203 Y2.4904  
G01 X-0.3209 Y2.4906  
G01 X-0.3227 Y2.4920  
G01 X-0.4217 Y2.5580  
G01 X-0.4433 Y2.5580  
G01 X-0.4620 Y2.5767  
G00 Z0.0500  
G00 X-0.4433 Y2.7580  
G01 Z-0.0040 F10    
G01 X-0.4620 Y2.7767  F20    
G01 X-0.4620 Y2.8033  
G01 X-0.4536 Y2.8117  
G01 X-0.4586 Y2.8815  
G01 X-0.4601 Y2.8815  
G01 X-0.4885 Y2.9099  
G01 X-0.4885 Y2.9501  
G01 X-0.4601 Y2.9785  
G01 X-0.4199 Y2.9785  
G01 X-0.3915 Y2.9501  
G01 X-0.3915 Y2.9099  
G01 X-0.4148 Y2.8866  
G01 X-0.4097 Y2.8150  
G01 X-0.3980 Y2.8033  
G01 X-0.3980 Y2.7767  
G01 X-0.4167 Y2.7580  
G01 X-0.4433 Y2.7580  
G00 Z0.0500  
G00 X-1.0099 Y2.4785  
G01 Z-0.0040 F10    
G01 X-0.9815 Y2.4501  F20    
G01 X-0.9815 Y2.4099  
G01 X-1.0099 Y2.3815  
G01 X-1.0158 Y2.3815  
G01 X-1.0244 Y2.3297  
G01 X-1.0180 Y2.3233  
G01 X-1.0180 Y2.2967  
G01 X-1.0367 Y2.2780  
G01 X-1.0633 Y2.2780  
G01 X-1.0820 Y2.2967  
G01 X-1.0820 Y2.3233  
G01 X-1.0677 Y2.3375  
G01 X-1.0589 Y2.3903  
G01 X-1.0785 Y2.4099  
G01 X-1.0785 Y2.4501  
G01 X-1.0501 Y2.4785  
G01 X-1.0099 Y2.4785  
G00 Z0.0500  
G00 X-0.6320 Y0.7233  
G01 Z-0.0040 F10    
G01 X-0.6133 Y0.7420  F20    
G01 X-0.5867 Y0.7420  
G01 X-0.5680 Y0.7233  
G01 X-0.5680 Y0.6967  
G01 X-0.5780 Y0.6867  
G01 X-0.5780 Y0.6066  
G01 X-0.5515 Y0.5801  
G01 X-0.5515 Y0.5399  
G01 X-0.5799 Y0.5115  
G01 X-0.6201 Y0.5115  
G01 X-0.6485 Y0.5399  
G01 X-0.6485 Y0.5801  
G01 X-0.6220 Y0.6066  
G01 X-0.6220 Y0.6867  
G01 X-0.6320 Y0.6967  
G01 X-0.6320 Y0.7233  
G00 Z0.0500  
G00 X-0.6201 Y0.4085  
G01 Z-0.0040 F10    
G01 X-0.5799 Y0.4085  F20    
G01 X-0.5534 Y0.3820  
G01 X-0.4733 Y0.3820  
G01 X-0.4633 Y0.3920  
G01 X-0.4367 Y0.3920  
G01 X-0.4180 Y0.3733  
G01 X-0.4180 Y0.3467  
G01 X-0.4367 Y0.3280  
G01 X-0.4633 Y0.3280  
G01 X-0.4733 Y0.3380  
G01 X-0.5534 Y0.3380  
G01 X-0.5799 Y0.3115  
G01 X-0.6201 Y0.3115  
G01 X-0.6485 Y0.3399  
G01 X-0.6485 Y0.3801  
G01 X-0.6201 Y0.4085  
G00 Z0.0500  
G00 X-0.1115 Y0.1703  
G01 Z-0.0040 F10    
G01 X-0.1171 Y0.1646  F20    
G01 X-0.1235 Y0.1600  
G01 X-0.1306 Y0.1563  
G01 X-0.1382 Y0.1539  
G01 X-0.1460 Y0.1526  
G01 X-0.1540 Y0.1526  
G01 X-0.1618 Y0.1539  
G01 X-0.1694 Y0.1563  
G01 X-0.1765 Y0.1600  
G01 X-0.1829 Y0.1646  
G01 X-0.1885 Y0.1703  
G01 X-0.1921 Y0.1752  
G01 X-0.4222 Y0.1404  
G01 X-0.4361 Y0.1265  
G01 X-0.4639 Y0.1265  
G01 X-0.4835 Y0.1461  
G01 X-0.4835 Y0.1739  
G01 X-0.4639 Y0.1935  
G01 X-0.4361 Y0.1935  
G01 X-0.4295 Y0.1869  
G01 X-0.1970 Y0.2220  
G01 X-0.1968 Y0.2225  
G01 X-0.1932 Y0.2296  
G01 X-0.1885 Y0.2360  
G01 X-0.1829 Y0.2417  
G01 X-0.1765 Y0.2463  
G01 X-0.1694 Y0.2499  
G01 X-0.1618 Y0.2524  
G01 X-0.1540 Y0.2536  
G01 X-0.1460 Y0.2536  
G01 X-0.1382 Y0.2524  
G01 X-0.1306 Y0.2499  
G01 X-0.1235 Y0.2463  
G01 X-0.1171 Y0.2417  
G01 X-0.1115 Y0.2360  
G01 X-0.1068 Y0.2296  
G01 X-0.1032 Y0.2225  
G01 X-0.1007 Y0.2150  
G01 X-0.0995 Y0.2071  
G01 X-0.0995 Y0.1992  
G01 X-0.1007 Y0.1913  
G01 X-0.1032 Y0.1838  
G01 X-0.1068 Y0.1767  
G01 X-0.1115 Y0.1703  
G00 Z0.0500  
G00 X-0.1115 Y0.3671  
G01 Z-0.0040 F10    
G01 X-0.1171 Y0.3615  F20    
G01 X-0.1235 Y0.3568  
G01 X-0.1306 Y0.3532  
G01 X-0.1382 Y0.3507  
G01 X-0.1460 Y0.3495  
G01 X-0.1540 Y0.3495  
G01 X-0.1618 Y0.3507  
G01 X-0.1694 Y0.3532  
G01 X-0.1765 Y0.3568  
G01 X-0.1829 Y0.3615  
G01 X-0.1885 Y0.3671  
G01 X-0.1932 Y0.3735  
G01 X-0.1968 Y0.3806  
G01 X-0.1976 Y0.3831  
G01 X-0.3617 Y0.4065  
G01 X-0.3623 Y0.4065  
G01 X-0.3640 Y0.4068  
G01 X-0.3656 Y0.4071  
G01 X-0.3662 Y0.4073  
G01 X-0.3669 Y0.4074  
G01 X-0.3684 Y0.4080  
G01 X-0.3700 Y0.4086  
G01 X-0.3705 Y0.4089  
G01 X-0.3711 Y0.4092  
G01 X-0.3725 Y0.4101  
G01 X-0.3740 Y0.4110  
G01 X-0.3744 Y0.4114  
G01 X-0.3750 Y0.4117  
G01 X-0.3762 Y0.4129  
G01 X-0.3774 Y0.4140  
G01 X-0.3778 Y0.4146  
G01 X-0.4562 Y0.4930  
G01 X-0.4575 Y0.4941  
G01 X-0.4578 Y0.4946  
G01 X-0.4583 Y0.4950  
G01 X-0.4592 Y0.4965  
G01 X-0.4602 Y0.4978  
G01 X-0.4605 Y0.4984  
G01 X-0.4608 Y0.4989  
G01 X-0.4615 Y0.5005  
G01 X-0.4622 Y0.5020  
G01 X-0.4624 Y0.5026  
G01 X-0.4626 Y0.5031  
G01 X-0.4629 Y0.5048  
G01 X-0.4634 Y0.5065  
G01 X-0.4634 Y0.5071  
G01 X-0.4635 Y0.5077  
G01 X-0.4635 Y0.5094  
G01 X-0.4723 Y0.6849  
G01 X-0.4835 Y0.6961  
G01 X-0.4835 Y0.7239  
G01 X-0.4639 Y0.7435  
G01 X-0.4361 Y0.7435  
G01 X-0.4165 Y0.7239  
G01 X-0.4165 Y0.6961  
G01 X-0.4253 Y0.6873  
G01 X-0.4170 Y0.5202  
G01 X-0.3489 Y0.4522  
G01 X-0.1909 Y0.4296  
G01 X-0.1885 Y0.4329  
G01 X-0.1829 Y0.4385  
G01 X-0.1765 Y0.4432  
G01 X-0.1694 Y0.4468  
G01 X-0.1618 Y0.4493  
G01 X-0.1540 Y0.4505  
G01 X-0.1460 Y0.4505  
G01 X-0.1382 Y0.4493  
G01 X-0.1306 Y0.4468  
G01 X-0.1235 Y0.4432  
G01 X-0.1171 Y0.4385  
G01 X-0.1115 Y0.4329  
G01 X-0.1068 Y0.4265  
G01 X-0.1032 Y0.4194  
G01 X-0.1007 Y0.4118  
G01 X-0.0995 Y0.4040  
G01 X-0.0995 Y0.3960  
G01 X-0.1007 Y0.3882  
G01 X-0.1032 Y0.3806  
G01 X-0.1068 Y0.3735  
G01 X-0.1115 Y0.3671  
G00 Z0.0500  
G00 X-0.1115 Y0.5640  
G01 Z-0.0040 F10    
G01 X-0.1171 Y0.5583  F20    
G01 X-0.1235 Y0.5537  
G01 X-0.1306 Y0.5501  
G01 X-0.1382 Y0.5476  
G01 X-0.1460 Y0.5464  
G01 X-0.1540 Y0.5464  
G01 X-0.1618 Y0.5476  
G01 X-0.1694 Y0.5501  
G01 X-0.1765 Y0.5537  
G01 X-0.1829 Y0.5583  
G01 X-0.1885 Y0.5640  
G01 X-0.1904 Y0.5665  
G01 X-0.2094 Y0.5589  
G01 X-0.2096 Y0.5588  
G01 X-0.2115 Y0.5581  
G01 X-0.2134 Y0.5573  
G01 X-0.2137 Y0.5573  
G01 X-0.2500 Y0.5437  
G01 X-0.2500 Y0.5293  
G01 X-0.2793 Y0.5000  
G01 X-0.3207 Y0.5000  
G01 X-0.3500 Y0.5293  
G01 X-0.3500 Y0.5707  
G01 X-0.3207 Y0.6000  
G01 X-0.2793 Y0.6000  
G01 X-0.2668 Y0.5875  
G01 X-0.2285 Y0.6019  
G01 X-0.2135 Y0.6079  
G01 X-0.4141 Y0.7915  
G01 X-0.6503 Y0.7915  
G01 X-0.7300 Y0.7117  
G01 X-0.7339 Y0.7092  
G01 X-0.7381 Y0.7074  
G01 X-0.7427 Y0.7065  
G01 X-0.8028 Y0.7065  
G01 X-0.8293 Y0.6800  
G01 X-0.8707 Y0.6800  
G01 X-0.9000 Y0.7093  
G01 X-0.9000 Y0.7507  
G01 X-0.8707 Y0.7800  
G01 X-0.8293 Y0.7800  
G01 X-0.8028 Y0.7535  
G01 X-0.7547 Y0.7535  
G01 X-0.6926 Y0.8156  
G01 X-0.7784 Y0.9615  
G01 X-0.9547 Y0.9615  
G01 X-0.9567 Y0.9614  
G01 X-0.9570 Y0.9615  
G01 X-0.9573 Y0.9615  
G01 X-0.9593 Y0.9619  
G01 X-0.9613 Y0.9622  
G01 X-0.9616 Y0.9623  
G01 X-0.9619 Y0.9624  
G01 X-0.9637 Y0.9632  
G01 X-0.9656 Y0.9639  
G01 X-0.9659 Y0.9641  
G01 X-0.9661 Y0.9642  
G01 X-0.9678 Y0.9653  
G01 X-0.9695 Y0.9664  
G01 X-0.9697 Y0.9666  
G01 X-0.9700 Y0.9667  
G01 X-0.9714 Y0.9682  
G01 X-0.9729 Y0.9696  
G01 X-0.9730 Y0.9698  
G01 X-0.9733 Y0.9700  
G01 X-0.9744 Y0.9717  
G01 X-1.2130 Y1.3098  
G01 X-1.2133 Y1.3100  
G01 X-1.2144 Y1.3117  
G01 X-1.2155 Y1.3133  
G01 X-1.2157 Y1.3136  
G01 X-1.2158 Y1.3139  
G01 X-1.2166 Y1.3157  
G01 X-1.2174 Y1.3176  
G01 X-1.2175 Y1.3179  
G01 X-1.2176 Y1.3181  
G01 X-1.2180 Y1.3201  
G01 X-1.2184 Y1.3221  
G01 X-1.2184 Y1.3224  
G01 X-1.2185 Y1.3227  
G01 X-1.2185 Y1.3247  
G01 X-1.2186 Y1.3267  
G01 X-1.2185 Y1.3270  
G01 X-1.2185 Y2.9739  
G01 X-1.2186 Y2.9750  
G01 X-1.2185 Y2.9762  
G01 X-1.2185 Y2.9773  
G01 X-1.2183 Y2.9785  
G01 X-1.2182 Y2.9796  
G01 X-1.2178 Y2.9807  
G01 X-1.2176 Y2.9819  
G01 X-1.2171 Y2.9829  
G01 X-1.2168 Y2.9841  
G01 X-1.2163 Y2.9851  
G01 X-1.2158 Y2.9861  
G01 X-1.2152 Y2.9871  
G01 X-1.2146 Y2.9881  
G01 X-1.2139 Y2.9890  
G01 X-1.2133 Y2.9900  
G01 X-1.2124 Y2.9908  
G01 X-1.2117 Y2.9917  
G01 X-1.2108 Y2.9924  
G01 X-1.2100 Y2.9933  
G01 X-1.2090 Y2.9939  
G01 X-1.1008 Y3.0824  
G01 X-1.1000 Y3.0833  
G01 X-1.0990 Y3.0839  
G01 X-1.0981 Y3.0847  
G01 X-1.0971 Y3.0852  
G01 X-1.0961 Y3.0858  
G01 X-1.0950 Y3.0863  
G01 X-1.0940 Y3.0868  
G01 X-1.0929 Y3.0872  
G01 X-1.0919 Y3.0876  
G01 X-1.0907 Y3.0878  
G01 X-1.0896 Y3.0882  
G01 X-1.0884 Y3.0883  
G01 X-1.0873 Y3.0885  
G01 X-1.0861 Y3.0885  
G01 X-1.0850 Y3.0886  
G01 X-1.0838 Y3.0885  
G01 X-0.7470 Y3.0885  
G01 X-0.7466 Y3.0886  
G01 X-0.7464 Y3.0886  
G01 X-0.7462 Y3.0886  
G01 X-0.7444 Y3.0885  
G01 X-0.7427 Y3.0885  
G01 X-0.7423 Y3.0884  
G01 X-0.5811 Y3.0835  
G01 X-0.5806 Y3.0836  
G01 X-0.5804 Y3.0836  
G01 X-0.5802 Y3.0836  
G01 X-0.5786 Y3.0835  
G01 X-0.5770 Y3.0834  
G01 X-0.5765 Y3.0833  
G01 X-0.5760 Y3.0833  
G01 X-0.5758 Y3.0832  
G01 X-0.5230 Y3.0784  
G01 X-0.3990 Y3.0685  
G01 X-0.3976 Y3.0685  
G01 X-0.3967 Y3.0683  
G01 X-0.3958 Y3.0682  
G01 X-0.3945 Y3.0679  
G01 X-0.3931 Y3.0676  
G01 X-0.3922 Y3.0672  
G01 X-0.3914 Y3.0670  
G01 X-0.3901 Y3.0663  
G01 X-0.3888 Y3.0658  
G01 X-0.3881 Y3.0653  
G01 X-0.3872 Y3.0649  
G01 X-0.3861 Y3.0640  
G01 X-0.1740 Y2.9213  
G01 X-0.1694 Y2.9237  
G01 X-0.1618 Y2.9261  
G01 X-0.1540 Y2.9274  
G01 X-0.1460 Y2.9274  
G01 X-0.1382 Y2.9261  
G01 X-0.1306 Y2.9237  
G01 X-0.1235 Y2.9200  
G01 X-0.1171 Y2.9154  
G01 X-0.1115 Y2.9097  
G01 X-0.1068 Y2.9033  
G01 X-0.1032 Y2.8962  
G01 X-0.1007 Y2.8887  
G01 X-0.0995 Y2.8808  
G01 X-0.0995 Y2.8729  
G01 X-0.1007 Y2.8650  
G01 X-0.1032 Y2.8575  
G01 X-0.1068 Y2.8504  
G01 X-0.1115 Y2.8440  
G01 X-0.1171 Y2.8383  
G01 X-0.1235 Y2.8337  
G01 X-0.1306 Y2.8301  
G01 X-0.1382 Y2.8276  
G01 X-0.1460 Y2.8264  
G01 X-0.1540 Y2.8264  
G01 X-0.1618 Y2.8276  
G01 X-0.1694 Y2.8301  
G01 X-0.1765 Y2.8337  
G01 X-0.1829 Y2.8383  
G01 X-0.1870 Y2.8424  
G01 X-0.2153 Y2.8346  
G01 X-0.2159 Y2.8344  
G01 X-0.2175 Y2.8340  
G01 X-0.2192 Y2.8336  
G01 X-0.2198 Y2.8335  
G01 X-0.2500 Y2.8269  
G01 X-0.2500 Y2.8193  
G01 X-0.2793 Y2.7900  
G01 X-0.3207 Y2.7900  
G01 X-0.3500 Y2.8193  
G01 X-0.3500 Y2.8607  
G01 X-0.3207 Y2.8900  
G01 X-0.2793 Y2.8900  
G01 X-0.2617 Y2.8724  
G01 X-0.2288 Y2.8797  
G01 X-0.2057 Y2.8860  
G01 X-0.4080 Y3.0221  
G01 X-0.5247 Y3.0314  
G01 X-0.5248 Y3.0314  
G01 X-0.5270 Y3.0316  
G01 X-0.5292 Y3.0318  
G01 X-0.5293 Y3.0318  
G01 X-0.5463 Y3.0333  
G01 X-0.5328 Y2.9928  
G01 X-0.5322 Y2.9910  
G01 X-0.5321 Y2.9906  
G01 X-0.5320 Y2.9902  
G01 X-0.5317 Y2.9883  
G01 X-0.5314 Y2.9864  
G01 X-0.5314 Y2.9860  
G01 X-0.5314 Y2.9856  
G01 X-0.5315 Y2.9837  
G01 X-0.5511 Y2.4799  
G01 X-0.2709 Y2.2190  
G01 X-0.1732 Y2.1617  
G01 X-0.1694 Y2.1637  
G01 X-0.1618 Y2.1661  
G01 X-0.1540 Y2.1674  
G01 X-0.1460 Y2.1674  
G01 X-0.1382 Y2.1661  
G01 X-0.1306 Y2.1637  
G01 X-0.1235 Y2.1600  
G01 X-0.1171 Y2.1554  
G01 X-0.1115 Y2.1497  
G01 X-0.1068 Y2.1433  
G01 X-0.1032 Y2.1362  
G01 X-0.1007 Y2.1287  
G01 X-0.0995 Y2.1208  
G01 X-0.0995 Y2.1129  
G01 X-0.1007 Y2.1050  
G01 X-0.1032 Y2.0975  
G01 X-0.1068 Y2.0904  
G01 X-0.1115 Y2.0840  
G01 X-0.1171 Y2.0783  
G01 X-0.1235 Y2.0737  
G01 X-0.1306 Y2.0701  
G01 X-0.1382 Y2.0676  
G01 X-0.1460 Y2.0664  
G01 X-0.1540 Y2.0664  
G01 X-0.1618 Y2.0676  
G01 X-0.1694 Y2.0701  
G01 X-0.1733 Y2.0721  
G01 X-0.2189 Y2.0493  
G01 X-0.2500 Y2.0315  
G01 X-0.2500 Y2.0093  
G01 X-0.2793 Y1.9800  
G01 X-0.3207 Y1.9800  
G01 X-0.3500 Y2.0093  
G01 X-0.3500 Y2.0507  
G01 X-0.3207 Y2.0800  
G01 X-0.2793 Y2.0800  
G01 X-0.2722 Y2.0729  
G01 X-0.2431 Y2.0896  
G01 X-0.2426 Y2.0900  
G01 X-0.2411 Y2.0907  
G01 X-0.2396 Y2.0916  
G01 X-0.2390 Y2.0918  
G01 X-0.2002 Y2.1112  
G01 X-0.2005 Y2.1129  
G01 X-0.2005 Y2.1208  
G01 X-0.2002 Y2.1230  
G01 X-0.2822 Y2.1711  
G01 X-0.4330 Y2.0386  
G01 X-0.4332 Y2.0384  
G01 X-0.4348 Y2.0371  
G01 X-0.4362 Y2.0358  
G01 X-0.4365 Y2.0356  
G01 X-0.4368 Y2.0354  
G01 X-0.4385 Y2.0345  
G01 X-0.4402 Y2.0335  
G01 X-0.4406 Y2.0334  
G01 X-0.4409 Y2.0332  
G01 X-0.4428 Y2.0326  
G01 X-0.4446 Y2.0320  
G01 X-0.4450 Y2.0320  
G01 X-0.4982 Y2.0156  
G01 X-0.5824 Y1.8379  
G01 X-0.6001 Y1.7315  
G01 X-0.5684 Y1.6919  
G01 X-0.4863 Y1.6291  
G01 X-0.4850 Y1.6283  
G01 X-0.4845 Y1.6277  
G01 X-0.4839 Y1.6273  
G01 X-0.4829 Y1.6261  
G01 X-0.4203 Y1.5635  
G01 X-0.4118 Y1.5635  
G01 X-0.4114 Y1.5636  
G01 X-0.4095 Y1.5635  
G01 X-0.4077 Y1.5635  
G01 X-0.4072 Y1.5634  
G01 X-0.4068 Y1.5634  
G01 X-0.4050 Y1.5630  
G01 X-0.4031 Y1.5626  
G01 X-0.4027 Y1.5624  
G01 X-0.4023 Y1.5623  
G01 X-0.4006 Y1.5615  
G01 X-0.3989 Y1.5608  
G01 X-0.3985 Y1.5606  
G01 X-0.3980 Y1.5604  
G01 X-0.3966 Y1.5593  
G01 X-0.3950 Y1.5583  
G01 X-0.3947 Y1.5579  
G01 X-0.1770 Y1.3996  
G01 X-0.1765 Y1.4000  
G01 X-0.1694 Y1.4037  
G01 X-0.1618 Y1.4061  
G01 X-0.1540 Y1.4074  
G01 X-0.1460 Y1.4074  
G01 X-0.1382 Y1.4061  
G01 X-0.1306 Y1.4037  
G01 X-0.1235 Y1.4000  
G01 X-0.1171 Y1.3954  
G01 X-0.1115 Y1.3897  
G01 X-0.1068 Y1.3833  
G01 X-0.1032 Y1.3762  
G01 X-0.1007 Y1.3687  
G01 X-0.0995 Y1.3608  
G01 X-0.0995 Y1.3529  
G01 X-0.1007 Y1.3450  
G01 X-0.1032 Y1.3375  
G01 X-0.1068 Y1.3304  
G01 X-0.1115 Y1.3240  
G01 X-0.1171 Y1.3183  
G01 X-0.1235 Y1.3137  
G01 X-0.1306 Y1.3101  
G01 X-0.1382 Y1.3076  
G01 X-0.1460 Y1.3064  
G01 X-0.1540 Y1.3064  
G01 X-0.1618 Y1.3076  
G01 X-0.1694 Y1.3101  
G01 X-0.1765 Y1.3137  
G01 X-0.1829 Y1.3183  
G01 X-0.1885 Y1.3240  
G01 X-0.1932 Y1.3304  
G01 X-0.1943 Y1.3325  
G01 X-0.1944 Y1.3323  
G01 X-0.1950 Y1.3318  
G01 X-0.1962 Y1.3309  
G01 X-0.1974 Y1.3300  
G01 X-0.1982 Y1.3296  
G01 X-0.1988 Y1.3292  
G01 X-0.2002 Y1.3286  
G01 X-0.2600 Y1.2987  
G01 X-0.2600 Y1.2793  
G01 X-0.2893 Y1.2500  
G01 X-0.3307 Y1.2500  
G01 X-0.3600 Y1.2793  
G01 X-0.3600 Y1.3207  
G01 X-0.3307 Y1.3500  
G01 X-0.2893 Y1.3500  
G01 X-0.2804 Y1.3411  
G01 X-0.2261 Y1.3682  
G01 X-0.2221 Y1.3743  
G01 X-0.4176 Y1.5165  
G01 X-0.4323 Y1.5165  
G01 X-0.4369 Y1.5174  
G01 X-0.4411 Y1.5192  
G01 X-0.4450 Y1.5217  
G01 X-0.5155 Y1.5923  
G01 X-0.5979 Y1.6553  
G01 X-0.5984 Y1.6555  
G01 X-0.5997 Y1.6567  
G01 X-0.6011 Y1.6577  
G01 X-0.6015 Y1.6582  
G01 X-0.6019 Y1.6585  
G01 X-0.6030 Y1.6599  
G01 X-0.6042 Y1.6612  
G01 X-0.6044 Y1.6617  
G01 X-0.6375 Y1.7031  
G01 X-0.7678 Y1.7217  
G01 X-0.7695 Y1.7218  
G01 X-0.7701 Y1.7220  
G01 X-0.7706 Y1.7221  
G01 X-0.7723 Y1.7226  
G01 X-0.7740 Y1.7232  
G01 X-0.7745 Y1.7234  
G01 X-0.7750 Y1.7236  
G01 X-0.7765 Y1.7245  
G01 X-0.7781 Y1.7253  
G01 X-0.7785 Y1.7257  
G01 X-0.7790 Y1.7260  
G01 X-0.7803 Y1.7271  
G01 X-0.7816 Y1.7283  
G01 X-0.7820 Y1.7287  
G01 X-0.7824 Y1.7290  
G01 X-0.7835 Y1.7305  
G01 X-0.7846 Y1.7318  
G01 X-0.7849 Y1.7323  
G01 X-0.7852 Y1.7328  
G01 X-0.7860 Y1.7343  
G01 X-0.8093 Y1.7777  
G01 X-0.8098 Y1.7778  
G01 X-0.8159 Y1.7803  
G01 X-0.8214 Y1.7840  
G01 X-0.8260 Y1.7886  
G01 X-0.8297 Y1.7941  
G01 X-0.8322 Y1.8002  
G01 X-0.8335 Y1.8067  
G01 X-0.8335 Y1.8133  
G01 X-0.8322 Y1.8198  
G01 X-0.8297 Y1.8259  
G01 X-0.8260 Y1.8314  
G01 X-0.8214 Y1.8360  
G01 X-0.8159 Y1.8397  
G01 X-0.8098 Y1.8422  
G01 X-0.8033 Y1.8435  
G01 X-0.7967 Y1.8435  
G01 X-0.7902 Y1.8422  
G01 X-0.7841 Y1.8397  
G01 X-0.7786 Y1.8360  
G01 X-0.7740 Y1.8314  
G01 X-0.7703 Y1.8259  
G01 X-0.7678 Y1.8198  
G01 X-0.7665 Y1.8133  
G01 X-0.7665 Y1.8067  
G01 X-0.7678 Y1.8002  
G01 X-0.7679 Y1.8000  
G01 X-0.7499 Y1.7666  
G01 X-0.6444 Y1.7515  
G01 X-0.6284 Y1.8475  
G01 X-0.6284 Y1.8485  
G01 X-0.6280 Y1.8498  
G01 X-0.6278 Y1.8511  
G01 X-0.6275 Y1.8520  
G01 X-0.6272 Y1.8530  
G01 X-0.6266 Y1.8542  
G01 X-0.6262 Y1.8555  
G01 X-0.6257 Y1.8563  
G01 X-0.5370 Y2.0434  
G01 X-0.5369 Y2.0439  
G01 X-0.5360 Y2.0455  
G01 X-0.5352 Y2.0472  
G01 X-0.5349 Y2.0476  
G01 X-0.5347 Y2.0480  
G01 X-0.5336 Y2.0494  
G01 X-0.5325 Y2.0509  
G01 X-0.5321 Y2.0512  
G01 X-0.5318 Y2.0516  
G01 X-0.5304 Y2.0528  
G01 X-0.5291 Y2.0540  
G01 X-0.5286 Y2.0542  
G01 X-0.5282 Y2.0546  
G01 X-0.5266 Y2.0554  
G01 X-0.5251 Y2.0564  
G01 X-0.5246 Y2.0565  
G01 X-0.5241 Y2.0568  
G01 X-0.5224 Y2.0573  
G01 X-0.5207 Y2.0579  
G01 X-0.5202 Y2.0580  
G01 X-0.4617 Y2.0760  
G01 X-0.3200 Y2.2005  
G01 X-0.5900 Y2.4518  
G01 X-0.5907 Y2.4523  
G01 X-0.5917 Y2.4534  
G01 X-0.5927 Y2.4544  
G01 X-0.5932 Y2.4551  
G01 X-0.5938 Y2.4557  
G01 X-0.5946 Y2.4570  
G01 X-0.5954 Y2.4581  
G01 X-0.5958 Y2.4589  
G01 X-0.5962 Y2.4597  
G01 X-0.5967 Y2.4610  
G01 X-0.5973 Y2.4623  
G01 X-0.5975 Y2.4632  
G01 X-0.5978 Y2.4640  
G01 X-0.5981 Y2.4654  
G01 X-0.5984 Y2.4668  
G01 X-0.5984 Y2.4677  
G01 X-0.5986 Y2.4686  
G01 X-0.5985 Y2.4700  
G01 X-0.5986 Y2.4715  
G01 X-0.5984 Y2.4723  
G01 X-0.5786 Y2.9816  
G01 X-0.5971 Y3.0370  
G01 X-0.7226 Y3.0408  
G01 X-0.7247 Y2.9976  
G01 X-0.7055 Y2.9784  
G01 X-0.7055 Y2.9416  
G01 X-0.7265 Y2.9206  
G01 X-0.7265 Y2.8994  
G01 X-0.7055 Y2.8784  
G01 X-0.7055 Y2.8416  
G01 X-0.7316 Y2.8155  
G01 X-0.7684 Y2.8155  
G01 X-0.7945 Y2.8416  
G01 X-0.7945 Y2.8784  
G01 X-0.7735 Y2.8994  
G01 X-0.7735 Y2.9206  
G01 X-0.7894 Y2.9365  
G01 X-0.8106 Y2.9365  
G01 X-0.8265 Y2.9206  
G01 X-0.8265 Y2.8994  
G01 X-0.8055 Y2.8784  
G01 X-0.8055 Y2.8416  
G01 X-0.8316 Y2.8155  
G01 X-0.8684 Y2.8155  
G01 X-0.8894 Y2.8365  
G01 X-0.9106 Y2.8365  
G01 X-0.9300 Y2.8171  
G01 X-0.9440 Y2.6491  
G01 X-0.9383 Y2.6435  
G01 X-0.8512 Y2.6435  
G01 X-0.8503 Y2.6449  
G01 X-0.8449 Y2.6503  
G01 X-0.8385 Y2.6546  
G01 X-0.8314 Y2.6575  
G01 X-0.8238 Y2.6590  
G01 X-0.8162 Y2.6590  
G01 X-0.8086 Y2.6575  
G01 X-0.8015 Y2.6546  
G01 X-0.7951 Y2.6503  
G01 X-0.7897 Y2.6449  
G01 X-0.7854 Y2.6385  
G01 X-0.7825 Y2.6314  
G01 X-0.7810 Y2.6238  
G01 X-0.7810 Y2.6162  
G01 X-0.7825 Y2.6086  
G01 X-0.7854 Y2.6015  
G01 X-0.7897 Y2.5951  
G01 X-0.7951 Y2.5897  
G01 X-0.8015 Y2.5854  
G01 X-0.8064 Y2.5834  
G01 X-0.8269 Y2.5151  
G01 X-0.8270 Y2.5148  
G01 X-0.8276 Y2.5129  
G01 X-0.8282 Y2.5110  
G01 X-0.8283 Y2.5107  
G01 X-0.8437 Y2.4645  
G01 X-0.8300 Y2.4507  
G01 X-0.8300 Y2.4093  
G01 X-0.8593 Y2.3800  
G01 X-0.9007 Y2.3800  
G01 X-0.9300 Y2.4093  
G01 X-0.9300 Y2.4507  
G01 X-0.9007 Y2.4800  
G01 X-0.8881 Y2.4800  
G01 X-0.8724 Y2.5271  
G01 X-0.8516 Y2.5965  
G01 X-0.9383 Y2.5965  
G01 X-0.9538 Y2.5810  
G01 X-0.9862 Y2.5810  
G01 X-1.0090 Y2.6038  
G01 X-1.0090 Y2.6362  
G01 X-0.9907 Y2.6544  
G01 X-0.9766 Y2.8237  
G01 X-0.9945 Y2.8416  
G01 X-0.9945 Y2.8784  
G01 X-0.9735 Y2.8994  
G01 X-0.9735 Y2.9206  
G01 X-0.9945 Y2.9416  
G01 X-0.9945 Y2.9784  
G01 X-0.9684 Y3.0045  
G01 X-0.9316 Y3.0045  
G01 X-0.9055 Y2.9784  
G01 X-0.9055 Y2.9416  
G01 X-0.9265 Y2.9206  
G01 X-0.9265 Y2.8994  
G01 X-0.9106 Y2.8835  
G01 X-0.8894 Y2.8835  
G01 X-0.8735 Y2.8994  
G01 X-0.8735 Y2.9206  
G01 X-0.8945 Y2.9416  
G01 X-0.8945 Y2.9784  
G01 X-0.8684 Y3.0045  
G01 X-0.8316 Y3.0045  
G01 X-0.8106 Y2.9835  
G01 X-0.7894 Y2.9835  
G01 X-0.7716 Y3.0014  
G01 X-0.7696 Y3.0415  
G01 X-1.0766 Y3.0415  
G01 X-1.1715 Y2.9639  
G01 X-1.1715 Y1.3325  
G01 X-0.9428 Y1.0085  
G01 X-0.7891 Y1.0085  
G01 X-0.7985 Y1.3833  
G01 X-0.7986 Y1.3846  
G01 X-0.7985 Y1.3856  
G01 X-0.7986 Y1.3867  
G01 X-0.7983 Y1.3879  
G01 X-0.7982 Y1.3892  
G01 X-0.7979 Y1.3902  
G01 X-0.7978 Y1.3913  
G01 X-0.7973 Y1.3924  
G01 X-0.7970 Y1.3936  
G01 X-0.7965 Y1.3946  
G01 X-0.7961 Y1.3956  
G01 X-0.7954 Y1.3966  
G01 X-0.7949 Y1.3977  
G01 X-0.7942 Y1.3986  
G01 X-0.7936 Y1.3995  
G01 X-0.7928 Y1.4004  
G01 X-0.7244 Y1.4870  
G01 X-0.7260 Y1.4886  
G01 X-0.7297 Y1.4941  
G01 X-0.7322 Y1.5002  
G01 X-0.7335 Y1.5067  
G01 X-0.7335 Y1.5133  
G01 X-0.7322 Y1.5198  
G01 X-0.7297 Y1.5259  
G01 X-0.7260 Y1.5314  
G01 X-0.7214 Y1.5360  
G01 X-0.7159 Y1.5397  
G01 X-0.7098 Y1.5422  
G01 X-0.7033 Y1.5435  
G01 X-0.6967 Y1.5435  
G01 X-0.6902 Y1.5422  
G01 X-0.6841 Y1.5397  
G01 X-0.6786 Y1.5360  
G01 X-0.6740 Y1.5314  
G01 X-0.6703 Y1.5259  
G01 X-0.6678 Y1.5198  
G01 X-0.6665 Y1.5133  
G01 X-0.6665 Y1.5067  
G01 X-0.6678 Y1.5002  
G01 X-0.6703 Y1.4941  
G01 X-0.6740 Y1.4886  
G01 X-0.6765 Y1.4861  
G01 X-0.6765 Y1.4814  
G01 X-0.6764 Y1.4804  
G01 X-0.6765 Y1.4791  
G01 X-0.6765 Y1.4777  
G01 X-0.6767 Y1.4768  
G01 X-0.6768 Y1.4758  
G01 X-0.6771 Y1.4745  
G01 X-0.6774 Y1.4731  
G01 X-0.6778 Y1.4723  
G01 X-0.6780 Y1.4714  
G01 X-0.6786 Y1.4701  
G01 X-0.6792 Y1.4689  
G01 X-0.6797 Y1.4681  
G01 X-0.6801 Y1.4673  
G01 X-0.6810 Y1.4662  
G01 X-0.6817 Y1.4650  
G01 X-0.6824 Y1.4644  
G01 X-0.7513 Y1.3771  
G01 X-0.7417 Y0.9917  
G01 X-0.6516 Y0.8385  
G01 X-0.4055 Y0.8385  
G01 X-0.4037 Y0.8386  
G01 X-0.4032 Y0.8385  
G01 X-0.4027 Y0.8385  
G01 X-0.4009 Y0.8381  
G01 X-0.3992 Y0.8379  
G01 X-0.3987 Y0.8377  
G01 X-0.3981 Y0.8376  
G01 X-0.3965 Y0.8369  
G01 X-0.3948 Y0.8363  
G01 X-0.3944 Y0.8360  
G01 X-0.3939 Y0.8358  
G01 X-0.3924 Y0.8348  
G01 X-0.3908 Y0.8339  
G01 X-0.3905 Y0.8335  
G01 X-0.3900 Y0.8333  
G01 X-0.3888 Y0.8320  
G01 X-0.1779 Y0.6390  
G01 X-0.1765 Y0.6400  
G01 X-0.1694 Y0.6437  
G01 X-0.1618 Y0.6461  
G01 X-0.1540 Y0.6474  
G01 X-0.1460 Y0.6474  
G01 X-0.1382 Y0.6461  
G01 X-0.1306 Y0.6437  
G01 X-0.1235 Y0.6400  
G01 X-0.1171 Y0.6354  
G01 X-0.1115 Y0.6297  
G01 X-0.1068 Y0.6233  
G01 X-0.1032 Y0.6162  
G01 X-0.1007 Y0.6087  
G01 X-0.0995 Y0.6008  
G01 X-0.0995 Y0.5929  
G01 X-0.1007 Y0.5850  
G01 X-0.1032 Y0.5775  
G01 X-0.1068 Y0.5704  
G01 X-0.1115 Y0.5640  
G00 Z0.0500  
G00 X-0.1115 Y0.9303  
G01 Z-0.0040 F10    
G01 X-0.1171 Y0.9246  F20    
G01 X-0.1235 Y0.9200  
G01 X-0.1306 Y0.9163  
G01 X-0.1382 Y0.9139  
G01 X-0.1460 Y0.9126  
G01 X-0.1540 Y0.9126  
G01 X-0.1618 Y0.9139  
G01 X-0.1626 Y0.9141  
G01 X-0.1850 Y0.8917  
G01 X-0.1889 Y0.8892  
G01 X-0.1931 Y0.8874  
G01 X-0.1977 Y0.8865  
G01 X-0.5761 Y0.8865  
G01 X-0.5861 Y0.8765  
G01 X-0.6139 Y0.8765  
G01 X-0.6335 Y0.8961  
G01 X-0.6335 Y0.9239  
G01 X-0.6139 Y0.9435  
G01 X-0.5861 Y0.9435  
G01 X-0.5761 Y0.9335  
G01 X-0.2097 Y0.9335  
G01 X-0.1975 Y0.9458  
G01 X-0.1993 Y0.9513  
G01 X-0.2005 Y0.9592  
G01 X-0.2005 Y0.9671  
G01 X-0.1993 Y0.9750  
G01 X-0.1968 Y0.9825  
G01 X-0.1932 Y0.9896  
G01 X-0.1885 Y0.9960  
G01 X-0.1829 Y1.0017  
G01 X-0.1765 Y1.0063  
G01 X-0.1694 Y1.0099  
G01 X-0.1618 Y1.0124  
G01 X-0.1540 Y1.0136  
G01 X-0.1460 Y1.0136  
G01 X-0.1382 Y1.0124  
G01 X-0.1306 Y1.0099  
G01 X-0.1235 Y1.0063  
G01 X-0.1171 Y1.0017  
G01 X-0.1115 Y0.9960  
G01 X-0.1068 Y0.9896  
G01 X-0.1032 Y0.9825  
G01 X-0.1007 Y0.9750  
G01 X-0.0995 Y0.9671  
G01 X-0.0995 Y0.9592  
G01 X-0.1007 Y0.9513  
G01 X-0.1032 Y0.9438  
G01 X-0.1068 Y0.9367  
G01 X-0.1115 Y0.9303  
G00 Z0.0500  
G00 X-0.1115 Y1.1271  
G01 Z-0.0040 F10    
G01 X-0.1171 Y1.1215  F20    
G01 X-0.1235 Y1.1168  
G01 X-0.1306 Y1.1132  
G01 X-0.1382 Y1.1107  
G01 X-0.1460 Y1.1095  
G01 X-0.1540 Y1.1095  
G01 X-0.1618 Y1.1107  
G01 X-0.1694 Y1.1132  
G01 X-0.1765 Y1.1168  
G01 X-0.1829 Y1.1215  
G01 X-0.1885 Y1.1271  
G01 X-0.1932 Y1.1335  
G01 X-0.1947 Y1.1365  
G01 X-0.4261 Y1.1365  
G01 X-0.4361 Y1.1265  
G01 X-0.4639 Y1.1265  
G01 X-0.4835 Y1.1461  
G01 X-0.4835 Y1.1739  
G01 X-0.4639 Y1.1935  
G01 X-0.4361 Y1.1935  
G01 X-0.4261 Y1.1835  
G01 X-0.1947 Y1.1835  
G01 X-0.1932 Y1.1865  
G01 X-0.1885 Y1.1929  
G01 X-0.1829 Y1.1985  
G01 X-0.1765 Y1.2032  
G01 X-0.1694 Y1.2068  
G01 X-0.1618 Y1.2093  
G01 X-0.1540 Y1.2105  
G01 X-0.1460 Y1.2105  
G01 X-0.1382 Y1.2093  
G01 X-0.1306 Y1.2068  
G01 X-0.1235 Y1.2032  
G01 X-0.1171 Y1.1985  
G01 X-0.1115 Y1.1929  
G01 X-0.1068 Y1.1865  
G01 X-0.1032 Y1.1794  
G01 X-0.1007 Y1.1718  
G01 X-0.0995 Y1.1640  
G01 X-0.0995 Y1.1560  
G01 X-0.1007 Y1.1482  
G01 X-0.1032 Y1.1406  
G01 X-0.1068 Y1.1335  
G01 X-0.1115 Y1.1271  
G00 Z0.0500  
G00 X-0.5015 Y1.1223  
G01 Z-0.0040 F10    
G01 X-0.4476 Y1.0435  F20    
G01 X-0.4361 Y1.0435  
G01 X-0.4165 Y1.0239  
G01 X-0.4165 Y0.9961  
G01 X-0.4361 Y0.9765  
G01 X-0.4639 Y0.9765  
G01 X-0.4835 Y0.9961  
G01 X-0.4835 Y1.0127  
G01 X-0.5432 Y1.0999  
G01 X-0.5445 Y1.1018  
G01 X-0.5457 Y1.1036  
G01 X-0.5458 Y1.1038  
G01 X-0.5458 Y1.1039  
G01 X-0.5467 Y1.1059  
G01 X-0.5475 Y1.1079  
G01 X-0.5475 Y1.1080  
G01 X-0.5476 Y1.1081  
G01 X-0.5480 Y1.1103  
G01 X-0.5485 Y1.1124  
G01 X-0.5485 Y1.1126  
G01 X-0.5485 Y1.1127  
G01 X-0.5485 Y1.1149  
G01 X-0.5485 Y1.1171  
G01 X-0.5485 Y1.1172  
G01 X-0.5485 Y1.3873  
G01 X-0.5476 Y1.3919  
G01 X-0.5458 Y1.3961  
G01 X-0.5433 Y1.4000  
G01 X-0.4835 Y1.4597  
G01 X-0.4835 Y1.4603  
G01 X-0.6373 Y1.6140  
G01 X-0.8800 Y1.6820  
G01 X-0.8810 Y1.6822  
G01 X-0.8823 Y1.6826  
G01 X-0.8836 Y1.6830  
G01 X-0.8844 Y1.6834  
G01 X-0.8853 Y1.6838  
G01 X-0.8865 Y1.6845  
G01 X-0.8877 Y1.6851  
G01 X-0.8885 Y1.6857  
G01 X-0.8893 Y1.6862  
G01 X-0.8903 Y1.6871  
G01 X-0.8913 Y1.6879  
G01 X-0.8920 Y1.6887  
G01 X-0.8927 Y1.6893  
G01 X-0.8935 Y1.6904  
G01 X-0.8943 Y1.6915  
G01 X-0.8948 Y1.6923  
G01 X-0.8954 Y1.6931  
G01 X-0.8960 Y1.6943  
G01 X-0.8966 Y1.6955  
G01 X-0.8969 Y1.6964  
G01 X-0.8973 Y1.6973  
G01 X-0.8976 Y1.6986  
G01 X-0.8981 Y1.6999  
G01 X-0.8982 Y1.7009  
G01 X-0.9173 Y1.7813  
G01 X-0.9214 Y1.7840  
G01 X-0.9260 Y1.7886  
G01 X-0.9297 Y1.7941  
G01 X-0.9322 Y1.8002  
G01 X-0.9335 Y1.8067  
G01 X-0.9335 Y1.8133  
G01 X-0.9322 Y1.8198  
G01 X-0.9297 Y1.8259  
G01 X-0.9260 Y1.8314  
G01 X-0.9235 Y1.8339  
G01 X-0.9235 Y1.9623  
G01 X-0.9226 Y1.9669  
G01 X-0.9208 Y1.9711  
G01 X-0.9183 Y1.9750  
G01 X-0.8835 Y2.0097  
G01 X-0.8835 Y2.0239  
G01 X-0.8639 Y2.0435  
G01 X-0.8361 Y2.0435  
G01 X-0.8165 Y2.0239  
G01 X-0.8165 Y2.0219  
G01 X-0.7735 Y2.0047  
G01 X-0.7735 Y2.1361  
G01 X-0.7835 Y2.1461  
G01 X-0.7835 Y2.1739  
G01 X-0.7639 Y2.1935  
G01 X-0.7497 Y2.1935  
G01 X-0.7150 Y2.2283  
G01 X-0.7111 Y2.2308  
G01 X-0.7069 Y2.2326  
G01 X-0.7023 Y2.2335  
G01 X-0.5239 Y2.2335  
G01 X-0.5139 Y2.2435  
G01 X-0.4861 Y2.2435  
G01 X-0.4665 Y2.2239  
G01 X-0.4665 Y2.1961  
G01 X-0.4861 Y2.1765  
G01 X-0.5139 Y2.1765  
G01 X-0.5239 Y2.1865  
G01 X-0.6903 Y2.1865  
G01 X-0.7165 Y2.1603  
G01 X-0.7165 Y2.1461  
G01 X-0.7265 Y2.1361  
G01 X-0.7265 Y1.9939  
G01 X-0.7165 Y1.9839  
G01 X-0.7165 Y1.9561  
G01 X-0.7361 Y1.9365  
G01 X-0.7639 Y1.9365  
G01 X-0.7835 Y1.9561  
G01 X-0.7835 Y1.9581  
G01 X-0.8342 Y1.9784  
G01 X-0.8361 Y1.9765  
G01 X-0.8503 Y1.9765  
G01 X-0.8765 Y1.9503  
G01 X-0.8765 Y1.8339  
G01 X-0.8740 Y1.8314  
G01 X-0.8703 Y1.8259  
G01 X-0.8678 Y1.8198  
G01 X-0.8665 Y1.8133  
G01 X-0.8665 Y1.8067  
G01 X-0.8678 Y1.8002  
G01 X-0.8703 Y1.7941  
G01 X-0.8716 Y1.7922  
G01 X-0.8553 Y1.7239  
G01 X-0.6195 Y1.6579  
G01 X-0.6181 Y1.6576  
G01 X-0.6173 Y1.6572  
G01 X-0.6164 Y1.6570  
G01 X-0.6152 Y1.6564  
G01 X-0.6139 Y1.6558  
G01 X-0.6131 Y1.6553  
G01 X-0.6123 Y1.6549  
G01 X-0.6112 Y1.6540  
G01 X-0.6100 Y1.6533  
G01 X-0.6094 Y1.6526  
G01 X-0.6087 Y1.6521  
G01 X-0.6077 Y1.6510  
G01 X-0.4503 Y1.4935  
G01 X-0.4361 Y1.4935  
G01 X-0.4165 Y1.4739  
G01 X-0.4165 Y1.4461  
G01 X-0.4361 Y1.4265  
G01 X-0.4503 Y1.4265  
G01 X-0.5015 Y1.3753  
G01 X-0.5015 Y1.1223  
G00 Z0.0500  
G00 X-0.5861 Y1.0935  
G01 Z-0.0040 F10    
G01 X-0.5665 Y1.0739  F20    
G01 X-0.5665 Y1.0461  
G01 X-0.5861 Y1.0265  
G01 X-0.6139 Y1.0265  
G01 X-0.6335 Y1.0461  
G01 X-0.6335 Y1.0603  
G01 X-0.6683 Y1.0950  
G01 X-0.6708 Y1.0989  
G01 X-0.6726 Y1.1031  
G01 X-0.6735 Y1.1077  
G01 X-0.6735 Y1.1861  
G01 X-0.6835 Y1.1961  
G01 X-0.6835 Y1.2239  
G01 X-0.6833 Y1.2241  
G01 X-0.7002 Y1.2579  
G01 X-0.7006 Y1.2584  
G01 X-0.7013 Y1.2600  
G01 X-0.7021 Y1.2616  
G01 X-0.7022 Y1.2621  
G01 X-0.7024 Y1.2626  
G01 X-0.7028 Y1.2643  
G01 X-0.7033 Y1.2660  
G01 X-0.7033 Y1.2666  
G01 X-0.7174 Y1.3300  
G01 X-0.7335 Y1.3461  
G01 X-0.7335 Y1.3739  
G01 X-0.7139 Y1.3935  
G01 X-0.6897 Y1.3935  
G01 X-0.6335 Y1.4497  
G01 X-0.6335 Y1.5203  
G01 X-0.6897 Y1.5765  
G01 X-0.7403 Y1.5765  
G01 X-0.7665 Y1.5503  
G01 X-0.7665 Y1.5177  
G01 X-0.7669 Y1.5155  
G01 X-0.7665 Y1.5133  
G01 X-0.7665 Y1.5067  
G01 X-0.7678 Y1.5002  
G01 X-0.7703 Y1.4941  
G01 X-0.7740 Y1.4886  
G01 X-0.7786 Y1.4840  
G01 X-0.7841 Y1.4803  
G01 X-0.7902 Y1.4778  
G01 X-0.7967 Y1.4765  
G01 X-0.8033 Y1.4765  
G01 X-0.8098 Y1.4778  
G01 X-0.8159 Y1.4803  
G01 X-0.8214 Y1.4840  
G01 X-0.8260 Y1.4886  
G01 X-0.8297 Y1.4941  
G01 X-0.8322 Y1.5002  
G01 X-0.8335 Y1.5067  
G01 X-0.8335 Y1.5133  
G01 X-0.8322 Y1.5198  
G01 X-0.8297 Y1.5259  
G01 X-0.8260 Y1.5314  
G01 X-0.8214 Y1.5360  
G01 X-0.8159 Y1.5397  
G01 X-0.8135 Y1.5407  
G01 X-0.8135 Y1.5623  
G01 X-0.8126 Y1.5669  
G01 X-0.8108 Y1.5711  
G01 X-0.8083 Y1.5750  
G01 X-0.8050 Y1.5783  
G01 X-0.7650 Y1.6183  
G01 X-0.7611 Y1.6208  
G01 X-0.7569 Y1.6226  
G01 X-0.7523 Y1.6235  
G01 X-0.6777 Y1.6235  
G01 X-0.6731 Y1.6226  
G01 X-0.6689 Y1.6208  
G01 X-0.6650 Y1.6183  
G01 X-0.6617 Y1.6150  
G01 X-0.5917 Y1.5450  
G01 X-0.5892 Y1.5411  
G01 X-0.5874 Y1.5369  
G01 X-0.5865 Y1.5323  
G01 X-0.5865 Y1.4377  
G01 X-0.5874 Y1.4331  
G01 X-0.5892 Y1.4289  
G01 X-0.5917 Y1.4250  
G01 X-0.5950 Y1.4217  
G01 X-0.6665 Y1.3503  
G01 X-0.6665 Y1.3461  
G01 X-0.6717 Y1.3409  
G01 X-0.6577 Y1.2779  
G01 X-0.6405 Y1.2435  
G01 X-0.6361 Y1.2435  
G01 X-0.6165 Y1.2239  
G01 X-0.6165 Y1.1961  
G01 X-0.6265 Y1.1861  
G01 X-0.6265 Y1.1197  
G01 X-0.6003 Y1.0935  
G01 X-0.5861 Y1.0935  
G00 Z0.0500  
G00 X-0.8765 Y1.0839  
G01 Z-0.0040 F10    
G01 X-0.8665 Y1.0739  F20    
G01 X-0.8665 Y1.0461  
G01 X-0.8861 Y1.0265  
G01 X-0.9139 Y1.0265  
G01 X-0.9335 Y1.0461  
G01 X-0.9335 Y1.0739  
G01 X-0.9235 Y1.0839  
G01 X-0.9235 Y1.1840  
G01 X-0.9736 Y1.1790  
G01 X-0.9861 Y1.1665  
G01 X-1.0139 Y1.1665  
G01 X-1.0335 Y1.1861  
G01 X-1.0335 Y1.2139  
G01 X-1.0139 Y1.2335  
G01 X-0.9861 Y1.2335  
G01 X-0.9784 Y1.2258  
G01 X-0.9035 Y1.2333  
G01 X-0.9023 Y1.2335  
G01 X-0.9012 Y1.2335  
G01 X-0.9000 Y1.2336  
G01 X-0.8989 Y1.2335  
G01 X-0.8785 Y1.2335  
G01 X-0.8785 Y1.4127  
G01 X-0.9181 Y1.4699  
G01 X-0.9183 Y1.4700  
G01 X-0.9194 Y1.4718  
G01 X-0.9206 Y1.4735  
G01 X-0.9207 Y1.4737  
G01 X-0.9208 Y1.4739  
G01 X-0.9216 Y1.4758  
G01 X-0.9225 Y1.4778  
G01 X-0.9225 Y1.4780  
G01 X-0.9226 Y1.4781  
G01 X-0.9230 Y1.4802  
G01 X-0.9235 Y1.4823  
G01 X-0.9235 Y1.4825  
G01 X-0.9235 Y1.4827  
G01 X-0.9235 Y1.4848  
G01 X-0.9235 Y1.4861  
G01 X-0.9260 Y1.4886  
G01 X-0.9297 Y1.4941  
G01 X-0.9322 Y1.5002  
G01 X-0.9335 Y1.5067  
G01 X-0.9335 Y1.5133  
G01 X-0.9322 Y1.5198  
G01 X-0.9297 Y1.5259  
G01 X-0.9260 Y1.5314  
G01 X-0.9214 Y1.5360  
G01 X-0.9159 Y1.5397  
G01 X-0.9098 Y1.5422  
G01 X-0.9033 Y1.5435  
G01 X-0.8967 Y1.5435  
G01 X-0.8902 Y1.5422  
G01 X-0.8841 Y1.5397  
G01 X-0.8786 Y1.5360  
G01 X-0.8740 Y1.5314  
G01 X-0.8703 Y1.5259  
G01 X-0.8678 Y1.5198  
G01 X-0.8665 Y1.5133  
G01 X-0.8665 Y1.5067  
G01 X-0.8678 Y1.5002  
G01 X-0.8703 Y1.4941  
G01 X-0.8740 Y1.4887  
G01 X-0.8369 Y1.4351  
G01 X-0.8367 Y1.4350  
G01 X-0.8356 Y1.4332  
G01 X-0.8344 Y1.4315  
G01 X-0.8343 Y1.4313  
G01 X-0.8342 Y1.4311  
G01 X-0.8334 Y1.4292  
G01 X-0.8325 Y1.4272  
G01 X-0.8325 Y1.4270  
G01 X-0.8324 Y1.4269  
G01 X-0.8320 Y1.4248  
G01 X-0.8315 Y1.4227  
G01 X-0.8315 Y1.4225  
G01 X-0.8315 Y1.4223  
G01 X-0.8315 Y1.4202  
G01 X-0.8315 Y1.4181  
G01 X-0.8315 Y1.4179  
G01 X-0.8315 Y1.2389  
G01 X-0.8165 Y1.2239  
G01 X-0.8165 Y1.1961  
G01 X-0.8361 Y1.1765  
G01 X-0.8639 Y1.1765  
G01 X-0.8739 Y1.1865  
G01 X-0.8765 Y1.1865  
G01 X-0.8765 Y1.0839  
G00 Z0.0500  
G00 X-0.8707 Y0.9300  
G01 Z-0.0040 F10    
G01 X-0.8293 Y0.9300  F20    
G01 X-0.8000 Y0.9007  
G01 X-0.8000 Y0.8593  
G01 X-0.8293 Y0.8300  
G01 X-0.8707 Y0.8300  
G01 X-0.9000 Y0.8593  
G01 X-0.9000 Y0.8630  
G01 X-0.9791 Y0.8735  
G01 X-0.9861 Y0.8665  
G01 X-1.0139 Y0.8665  
G01 X-1.0335 Y0.8861  
G01 X-1.0335 Y0.9139  
G01 X-1.0139 Y0.9335  
G01 X-0.9861 Y0.9335  
G01 X-0.9727 Y0.9201  
G01 X-0.8915 Y0.9092  
G01 X-0.8707 Y0.9300  
G00 Z0.0500  
G00 X-0.8967 Y1.3200  
G01 Z-0.0040 F10    
G01 X-0.9467 Y1.2700  F20    
G01 X-0.9500 Y1.2667  
G01 X-0.9539 Y1.2642  
G01 X-0.9581 Y1.2624  
G01 X-0.9627 Y1.2615  
G01 X-1.0338 Y1.2615  
G01 X-1.0348 Y1.2614  
G01 X-1.0361 Y1.2615  
G01 X-1.0373 Y1.2615  
G01 X-1.0384 Y1.2617  
G01 X-1.0394 Y1.2618  
G01 X-1.0406 Y1.2622  
G01 X-1.0419 Y1.2624  
G01 X-1.0428 Y1.2628  
G01 X-1.0439 Y1.2631  
G01 X-1.0450 Y1.2637  
G01 X-1.0461 Y1.2642  
G01 X-1.0470 Y1.2648  
G01 X-1.0480 Y1.2653  
G01 X-1.0489 Y1.2661  
G01 X-1.0500 Y1.2667  
G01 X-1.0507 Y1.2675  
G01 X-1.0516 Y1.2682  
G01 X-1.0524 Y1.2691  
G01 X-1.0533 Y1.2700  
G01 X-1.0538 Y1.2709  
G01 X-1.1524 Y1.3891  
G01 X-1.1533 Y1.3900  
G01 X-1.1538 Y1.3909  
G01 X-1.1545 Y1.3917  
G01 X-1.1551 Y1.3928  
G01 X-1.1558 Y1.3939  
G01 X-1.1562 Y1.3949  
G01 X-1.1567 Y1.3958  
G01 X-1.1571 Y1.3970  
G01 X-1.1576 Y1.3981  
G01 X-1.1578 Y1.3992  
G01 X-1.1581 Y1.4002  
G01 X-1.1583 Y1.4015  
G01 X-1.1585 Y1.4027  
G01 X-1.1585 Y1.4038  
G01 X-1.1586 Y1.4048  
G01 X-1.1585 Y1.4061  
G01 X-1.1585 Y2.4833  
G01 X-1.1586 Y2.4840  
G01 X-1.1585 Y2.4857  
G01 X-1.1585 Y2.4873  
G01 X-1.1584 Y2.4880  
G01 X-1.1583 Y2.4886  
G01 X-1.1579 Y2.4902  
G01 X-1.1576 Y2.4919  
G01 X-1.1573 Y2.4925  
G01 X-1.1572 Y2.4931  
G01 X-1.1565 Y2.4946  
G01 X-1.1558 Y2.4961  
G01 X-1.1555 Y2.4967  
G01 X-1.1048 Y2.6020  
G01 X-1.1075 Y2.6086  
G01 X-1.1090 Y2.6162  
G01 X-1.1090 Y2.6238  
G01 X-1.1075 Y2.6314  
G01 X-1.1046 Y2.6385  
G01 X-1.1003 Y2.6449  
G01 X-1.0949 Y2.6503  
G01 X-1.0908 Y2.6530  
G01 X-1.0766 Y2.8237  
G01 X-1.0945 Y2.8416  
G01 X-1.0945 Y2.8784  
G01 X-1.0735 Y2.8994  
G01 X-1.0735 Y2.9206  
G01 X-1.0945 Y2.9416  
G01 X-1.0945 Y2.9784  
G01 X-1.0684 Y3.0045  
G01 X-1.0316 Y3.0045  
G01 X-1.0055 Y2.9784  
G01 X-1.0055 Y2.9416  
G01 X-1.0265 Y2.9206  
G01 X-1.0265 Y2.8994  
G01 X-1.0055 Y2.8784  
G01 X-1.0055 Y2.8416  
G01 X-1.0300 Y2.8171  
G01 X-1.0440 Y2.6491  
G01 X-1.0397 Y2.6449  
G01 X-1.0354 Y2.6385  
G01 X-1.0325 Y2.6314  
G01 X-1.0310 Y2.6238  
G01 X-1.0310 Y2.6162  
G01 X-1.0325 Y2.6086  
G01 X-1.0354 Y2.6015  
G01 X-1.0397 Y2.5951  
G01 X-1.0451 Y2.5897  
G01 X-1.0515 Y2.5854  
G01 X-1.0586 Y2.5825  
G01 X-1.0623 Y2.5818  
G01 X-1.1115 Y2.4796  
G01 X-1.1115 Y1.4135  
G01 X-1.0240 Y1.3085  
G01 X-0.9747 Y1.3085  
G01 X-0.9385 Y1.3447  
G01 X-0.9385 Y1.3760  
G01 X-1.0171 Y1.4638  
G01 X-1.0183 Y1.4650  
G01 X-1.0186 Y1.4656  
G01 X-1.0191 Y1.4661  
G01 X-1.0199 Y1.4675  
G01 X-1.0208 Y1.4689  
G01 X-1.0211 Y1.4695  
G01 X-1.0214 Y1.4700  
G01 X-1.0220 Y1.4716  
G01 X-1.0226 Y1.4731  
G01 X-1.0227 Y1.4738  
G01 X-1.0229 Y1.4744  
G01 X-1.0232 Y1.4761  
G01 X-1.0235 Y1.4777  
G01 X-1.0235 Y1.4783  
G01 X-1.0236 Y1.4790  
G01 X-1.0235 Y1.4807  
G01 X-1.0235 Y1.4861  
G01 X-1.0260 Y1.4886  
G01 X-1.0297 Y1.4941  
G01 X-1.0322 Y1.5002  
G01 X-1.0335 Y1.5067  
G01 X-1.0335 Y1.5133  
G01 X-1.0322 Y1.5198  
G01 X-1.0297 Y1.5259  
G01 X-1.0260 Y1.5314  
G01 X-1.0214 Y1.5360  
G01 X-1.0159 Y1.5397  
G01 X-1.0098 Y1.5422  
G01 X-1.0033 Y1.5435  
G01 X-0.9967 Y1.5435  
G01 X-0.9902 Y1.5422  
G01 X-0.9841 Y1.5397  
G01 X-0.9786 Y1.5360  
G01 X-0.9740 Y1.5314  
G01 X-0.9703 Y1.5259  
G01 X-0.9678 Y1.5198  
G01 X-0.9665 Y1.5133  
G01 X-0.9665 Y1.5067  
G01 X-0.9678 Y1.5002  
G01 X-0.9703 Y1.4941  
G01 X-0.9740 Y1.4886  
G01 X-0.9752 Y1.4875  
G01 X-0.8979 Y1.4012  
G01 X-0.8967 Y1.4000  
G01 X-0.8964 Y1.3994  
G01 X-0.8959 Y1.3989  
G01 X-0.8951 Y1.3975  
G01 X-0.8942 Y1.3961  
G01 X-0.8939 Y1.3955  
G01 X-0.8936 Y1.3950  
G01 X-0.8930 Y1.3934  
G01 X-0.8924 Y1.3919  
G01 X-0.8923 Y1.3912  
G01 X-0.8921 Y1.3906  
G01 X-0.8918 Y1.3889  
G01 X-0.8915 Y1.3873  
G01 X-0.8915 Y1.3867  
G01 X-0.8914 Y1.3860  
G01 X-0.8915 Y1.3843  
G01 X-0.8915 Y1.3327  
G01 X-0.8924 Y1.3281  
G01 X-0.8942 Y1.3239  
G01 X-0.8967 Y1.3200  
G00 Z0.0500  
G00 X-0.9665 Y1.3461  
G01 Z-0.0040 F10    
G01 X-0.9861 Y1.3265  F20    
G01 X-1.0139 Y1.3265  
G01 X-1.0335 Y1.3461  
G01 X-1.0335 Y1.3603  
G01 X-1.0900 Y1.4167  
G01 X-1.0933 Y1.4200  
G01 X-1.0958 Y1.4239  
G01 X-1.0976 Y1.4281  
G01 X-1.0985 Y1.4327  
G01 X-1.0985 Y1.7373  
G01 X-1.0976 Y1.7419  
G01 X-1.0958 Y1.7461  
G01 X-1.0933 Y1.7500  
G01 X-1.0735 Y1.7697  
G01 X-1.0735 Y1.9861  
G01 X-1.0835 Y1.9961  
G01 X-1.0835 Y2.0239  
G01 X-1.0735 Y2.0339  
G01 X-1.0735 Y2.1361  
G01 X-1.0835 Y2.1461  
G01 X-1.0835 Y2.1739  
G01 X-1.0639 Y2.1935  
G01 X-1.0361 Y2.1935  
G01 X-1.0359 Y2.1933  
G01 X-0.7835 Y2.3195  
G01 X-0.7835 Y2.3239  
G01 X-0.7639 Y2.3435  
G01 X-0.7361 Y2.3435  
G01 X-0.7165 Y2.3239  
G01 X-0.7165 Y2.2961  
G01 X-0.7361 Y2.2765  
G01 X-0.7639 Y2.2765  
G01 X-0.7641 Y2.2767  
G01 X-1.0165 Y2.1505  
G01 X-1.0165 Y2.1461  
G01 X-1.0265 Y2.1361  
G01 X-1.0265 Y2.0339  
G01 X-1.0165 Y2.0239  
G01 X-1.0165 Y1.9961  
G01 X-1.0265 Y1.9861  
G01 X-1.0265 Y1.8306  
G01 X-1.0260 Y1.8314  
G01 X-1.0214 Y1.8360  
G01 X-1.0159 Y1.8397  
G01 X-1.0098 Y1.8422  
G01 X-1.0033 Y1.8435  
G01 X-0.9967 Y1.8435  
G01 X-0.9902 Y1.8422  
G01 X-0.9841 Y1.8397  
G01 X-0.9786 Y1.8360  
G01 X-0.9740 Y1.8314  
G01 X-0.9703 Y1.8259  
G01 X-0.9678 Y1.8198  
G01 X-0.9665 Y1.8133  
G01 X-0.9665 Y1.8067  
G01 X-0.9678 Y1.8002  
G01 X-0.9703 Y1.7941  
G01 X-0.9740 Y1.7886  
G01 X-0.9786 Y1.7840  
G01 X-0.9841 Y1.7803  
G01 X-0.9902 Y1.7778  
G01 X-0.9967 Y1.7765  
G01 X-1.0003 Y1.7765  
G01 X-1.0317 Y1.7450  
G01 X-1.0350 Y1.7417  
G01 X-1.0515 Y1.7253  
G01 X-1.0515 Y1.4447  
G01 X-1.0003 Y1.3935  
G01 X-0.9861 Y1.3935  
G01 X-0.9665 Y1.3739  
G01 X-0.9665 Y1.3461  
G00 Z0.0500  
G00 X-0.7214 Y1.7840  
G01 Z-0.0040 F10    
G01 X-0.7260 Y1.7886  F20    
G01 X-0.7297 Y1.7941  
G01 X-0.7322 Y1.8002  
G01 X-0.7335 Y1.8067  
G01 X-0.7335 Y1.8133  
G01 X-0.7322 Y1.8198  
G01 X-0.7297 Y1.8259  
G01 X-0.7260 Y1.8314  
G01 X-0.7214 Y1.8360  
G01 X-0.7178 Y1.8384  
G01 X-0.7032 Y1.9040  
G01 X-0.7030 Y1.9052  
G01 X-0.7027 Y1.9063  
G01 X-0.7024 Y1.9074  
G01 X-0.7019 Y1.9085  
G01 X-0.6735 Y1.9938  
G01 X-0.6735 Y2.0392  
G01 X-0.6736 Y2.0406  
G01 X-0.6735 Y2.0415  
G01 X-0.6735 Y2.0423  
G01 X-0.6732 Y2.0438  
G01 X-0.6730 Y2.0452  
G01 X-0.6728 Y2.0460  
G01 X-0.6726 Y2.0469  
G01 X-0.6720 Y2.0482  
G01 X-0.6716 Y2.0496  
G01 X-0.6712 Y2.0503  
G01 X-0.6708 Y2.0511  
G01 X-0.6700 Y2.0524  
G01 X-0.6693 Y2.0536  
G01 X-0.6687 Y2.0543  
G01 X-0.6683 Y2.0550  
G01 X-0.6672 Y2.0560  
G01 X-0.6663 Y2.0571  
G01 X-0.6656 Y2.0577  
G01 X-0.6650 Y2.0583  
G01 X-0.6638 Y2.0591  
G01 X-0.5760 Y2.1273  
G01 X-0.5758 Y2.1275  
G01 X-0.5742 Y2.1287  
G01 X-0.5726 Y2.1300  
G01 X-0.5724 Y2.1301  
G01 X-0.5721 Y2.1303  
G01 X-0.5703 Y2.1311  
G01 X-0.5685 Y2.1320  
G01 X-0.5682 Y2.1321  
G01 X-0.5679 Y2.1322  
G01 X-0.5660 Y2.1327  
G01 X-0.5640 Y2.1333  
G01 X-0.5637 Y2.1333  
G01 X-0.4920 Y2.1512  
G01 X-0.4335 Y2.2097  
G01 X-0.4335 Y2.2103  
G01 X-0.5097 Y2.2865  
G01 X-0.5723 Y2.2865  
G01 X-0.5769 Y2.2874  
G01 X-0.5811 Y2.2892  
G01 X-0.5850 Y2.2917  
G01 X-0.7350 Y2.4417  
G01 X-0.7383 Y2.4450  
G01 X-0.7408 Y2.4489  
G01 X-0.7426 Y2.4531  
G01 X-0.7435 Y2.4577  
G01 X-0.7435 Y2.5883  
G01 X-0.7590 Y2.6038  
G01 X-0.7590 Y2.6362  
G01 X-0.7362 Y2.6590  
G01 X-0.7142 Y2.6590  
G01 X-0.6735 Y2.6997  
G01 X-0.6735 Y2.8206  
G01 X-0.6945 Y2.8416  
G01 X-0.6945 Y2.8784  
G01 X-0.6735 Y2.8994  
G01 X-0.6735 Y2.9206  
G01 X-0.6945 Y2.9416  
G01 X-0.6945 Y2.9784  
G01 X-0.6684 Y3.0045  
G01 X-0.6316 Y3.0045  
G01 X-0.6055 Y2.9784  
G01 X-0.6055 Y2.9416  
G01 X-0.6265 Y2.9206  
G01 X-0.6265 Y2.8994  
G01 X-0.6055 Y2.8784  
G01 X-0.6055 Y2.8416  
G01 X-0.6265 Y2.8206  
G01 X-0.6265 Y2.6877  
G01 X-0.6274 Y2.6831  
G01 X-0.6292 Y2.6789  
G01 X-0.6317 Y2.6750  
G01 X-0.6810 Y2.6258  
G01 X-0.6810 Y2.6038  
G01 X-0.6965 Y2.5883  
G01 X-0.6965 Y2.4697  
G01 X-0.5603 Y2.3335  
G01 X-0.4977 Y2.3335  
G01 X-0.4931 Y2.3326  
G01 X-0.4889 Y2.3308  
G01 X-0.4850 Y2.3283  
G01 X-0.4817 Y2.3250  
G01 X-0.3917 Y2.2350  
G01 X-0.3892 Y2.2311  
G01 X-0.3874 Y2.2269  
G01 X-0.3865 Y2.2223  
G01 X-0.3865 Y2.1977  
G01 X-0.3874 Y2.1931  
G01 X-0.3892 Y2.1889  
G01 X-0.3917 Y2.1850  
G01 X-0.3950 Y2.1817  
G01 X-0.4630 Y2.1138  
G01 X-0.4641 Y2.1125  
G01 X-0.4646 Y2.1122  
G01 X-0.4650 Y2.1117  
G01 X-0.4665 Y2.1108  
G01 X-0.4679 Y2.1097  
G01 X-0.4684 Y2.1095  
G01 X-0.4689 Y2.1092  
G01 X-0.4705 Y2.1085  
G01 X-0.4721 Y2.1078  
G01 X-0.4726 Y2.1076  
G01 X-0.4731 Y2.1074  
G01 X-0.4749 Y2.1071  
G01 X-0.5495 Y2.0884  
G01 X-0.6265 Y2.0285  
G01 X-0.6265 Y1.9908  
G01 X-0.6264 Y1.9894  
G01 X-0.6265 Y1.9885  
G01 X-0.6265 Y1.9877  
G01 X-0.6268 Y1.9862  
G01 X-0.6270 Y1.9848  
G01 X-0.6272 Y1.9840  
G01 X-0.6274 Y1.9831  
G01 X-0.6280 Y1.9818  
G01 X-0.6573 Y1.8937  
G01 X-0.6719 Y1.8282  
G01 X-0.6703 Y1.8259  
G01 X-0.6678 Y1.8198  
G01 X-0.6665 Y1.8133  
G01 X-0.6665 Y1.8067  
G01 X-0.6678 Y1.8002  
G01 X-0.6703 Y1.7941  
G01 X-0.6740 Y1.7886  
G01 X-0.6786 Y1.7840  
G01 X-0.6841 Y1.7803  
G01 X-0.6902 Y1.7778  
G01 X-0.6967 Y1.7765  
G01 X-0.7033 Y1.7765  
G01 X-0.7098 Y1.7778  
G01 X-0.7159 Y1.7803  
G01 X-0.7214 Y1.7840  
G00 Z0.0500  
G00 X-0.5800 Y1.7807  
G01 Z-0.0040 F10    
G01 X-0.5507 Y1.8100  F20    
G01 X-0.5132 Y1.8100  
G01 X-0.4635 Y1.8597  
G01 X-0.4635 Y1.8739  
G01 X-0.4439 Y1.8935  
G01 X-0.4161 Y1.8935  
G01 X-0.3965 Y1.8739  
G01 X-0.3965 Y1.8461  
G01 X-0.4161 Y1.8265  
G01 X-0.4303 Y1.8265  
G01 X-0.4800 Y1.7768  
G01 X-0.4800 Y1.7393  
G01 X-0.5093 Y1.7100  
G01 X-0.5507 Y1.7100  
G01 X-0.5800 Y1.7393  
G01 X-0.5800 Y1.7807  
G00 Z0.0500  
G00 X-0.4635 Y1.6739  
G01 Z-0.0040 F10    
G01 X-0.4439 Y1.6935  F20    
G01 X-0.4161 Y1.6935  
G01 X-0.4117 Y1.6890  
G01 X-0.1955 Y1.7451  
G01 X-0.1932 Y1.7496  
G01 X-0.1885 Y1.7560  
G01 X-0.1829 Y1.7617  
G01 X-0.1765 Y1.7663  
G01 X-0.1694 Y1.7699  
G01 X-0.1618 Y1.7724  
G01 X-0.1540 Y1.7736  
G01 X-0.1460 Y1.7736  
G01 X-0.1382 Y1.7724  
G01 X-0.1306 Y1.7699  
G01 X-0.1235 Y1.7663  
G01 X-0.1171 Y1.7617  
G01 X-0.1115 Y1.7560  
G01 X-0.1068 Y1.7496  
G01 X-0.1032 Y1.7425  
G01 X-0.1007 Y1.7350  
G01 X-0.0995 Y1.7271  
G01 X-0.0995 Y1.7192  
G01 X-0.1007 Y1.7113  
G01 X-0.1032 Y1.7038  
G01 X-0.1068 Y1.6967  
G01 X-0.1115 Y1.6903  
G01 X-0.1171 Y1.6846  
G01 X-0.1235 Y1.6800  
G01 X-0.1306 Y1.6763  
G01 X-0.1382 Y1.6739  
G01 X-0.1460 Y1.6726  
G01 X-0.1540 Y1.6726  
G01 X-0.1618 Y1.6739  
G01 X-0.1694 Y1.6763  
G01 X-0.1765 Y1.6800  
G01 X-0.1829 Y1.6846  
G01 X-0.1885 Y1.6903  
G01 X-0.1932 Y1.6967  
G01 X-0.1934 Y1.6971  
G01 X-0.3988 Y1.6438  
G01 X-0.4161 Y1.6265  
G01 X-0.4439 Y1.6265  
G01 X-0.4635 Y1.6461  
G01 X-0.4635 Y1.6739  
G00 Z0.0500  
G00 X-0.4639 Y1.9365  
G01 Z-0.0040 F10    
G01 X-0.4835 Y1.9561  F20    
G01 X-0.4835 Y1.9839  
G01 X-0.4639 Y2.0035  
G01 X-0.4361 Y2.0035  
G01 X-0.4165 Y1.9839  
G01 X-0.4165 Y1.9795  
G01 X-0.3251 Y1.9338  
G01 X-0.1960 Y1.9410  
G01 X-0.1932 Y1.9465  
G01 X-0.1885 Y1.9529  
G01 X-0.1829 Y1.9585  
G01 X-0.1765 Y1.9632  
G01 X-0.1694 Y1.9668  
G01 X-0.1618 Y1.9693  
G01 X-0.1540 Y1.9705  
G01 X-0.1460 Y1.9705  
G01 X-0.1382 Y1.9693  
G01 X-0.1306 Y1.9668  
G01 X-0.1235 Y1.9632  
G01 X-0.1171 Y1.9585  
G01 X-0.1115 Y1.9529  
G01 X-0.1068 Y1.9465  
G01 X-0.1032 Y1.9394  
G01 X-0.1007 Y1.9318  
G01 X-0.0995 Y1.9240  
G01 X-0.0995 Y1.9160  
G01 X-0.1007 Y1.9082  
G01 X-0.1032 Y1.9006  
G01 X-0.1068 Y1.8935  
G01 X-0.1115 Y1.8871  
G01 X-0.1171 Y1.8815  
G01 X-0.1235 Y1.8768  
G01 X-0.1306 Y1.8732  
G01 X-0.1382 Y1.8707  
G01 X-0.1460 Y1.8695  
G01 X-0.1540 Y1.8695  
G01 X-0.1618 Y1.8707  
G01 X-0.1694 Y1.8732  
G01 X-0.1765 Y1.8768  
G01 X-0.1829 Y1.8815  
G01 X-0.1885 Y1.8871  
G01 X-0.1932 Y1.8935  
G01 X-0.1935 Y1.8940  
G01 X-0.3279 Y1.8866  
G01 X-0.3294 Y1.8864  
G01 X-0.3302 Y1.8865  
G01 X-0.3310 Y1.8864  
G01 X-0.3325 Y1.8866  
G01 X-0.3340 Y1.8867  
G01 X-0.3348 Y1.8869  
G01 X-0.3356 Y1.8871  
G01 X-0.3370 Y1.8876  
G01 X-0.3384 Y1.8879  
G01 X-0.3392 Y1.8883  
G01 X-0.3400 Y1.8886  
G01 X-0.3412 Y1.8893  
G01 X-0.4359 Y1.9367  
G01 X-0.4361 Y1.9365  
G01 X-0.4639 Y1.9365  
G00 Z0.0500  
G00 X-0.4665 Y2.4961  
G01 Z-0.0040 F10    
G01 X-0.4861 Y2.4765  F20    
G01 X-0.5139 Y2.4765  
G01 X-0.5335 Y2.4961  
G01 X-0.5335 Y2.5239  
G01 X-0.5250 Y2.5324  
G01 X-0.5282 Y2.5614  
G01 X-0.5285 Y2.5627  
G01 X-0.5285 Y2.5637  
G01 X-0.5286 Y2.5647  
G01 X-0.5285 Y2.5660  
G01 X-0.5285 Y2.6437  
G01 X-0.5286 Y2.6446  
G01 X-0.5285 Y2.6460  
G01 X-0.5285 Y2.6473  
G01 X-0.5283 Y2.6483  
G01 X-0.5282 Y2.6493  
G01 X-0.5279 Y2.6505  
G01 X-0.5276 Y2.6519  
G01 X-0.5272 Y2.6528  
G01 X-0.5269 Y2.6537  
G01 X-0.5263 Y2.6549  
G01 X-0.5258 Y2.6561  
G01 X-0.5253 Y2.6569  
G01 X-0.5248 Y2.6578  
G01 X-0.5240 Y2.6589  
G01 X-0.5233 Y2.6600  
G01 X-0.5226 Y2.6607  
G01 X-0.5219 Y2.6614  
G01 X-0.5209 Y2.6623  
G01 X-0.5200 Y2.6633  
G01 X-0.5192 Y2.6638  
G01 X-0.4553 Y2.7178  
G01 X-0.4537 Y2.7192  
G01 X-0.4535 Y2.7193  
G01 X-0.4534 Y2.7194  
G01 X-0.4515 Y2.7205  
G01 X-0.4497 Y2.7215  
G01 X-0.4495 Y2.7216  
G01 X-0.4494 Y2.7217  
G01 X-0.4473 Y2.7223  
G01 X-0.4453 Y2.7230  
G01 X-0.4451 Y2.7230  
G01 X-0.4450 Y2.7231  
G01 X-0.4428 Y2.7233  
G01 X-0.4407 Y2.7236  
G01 X-0.4405 Y2.7236  
G01 X-0.4404 Y2.7236  
G01 X-0.4382 Y2.7234  
G01 X-0.1931 Y2.7065  
G01 X-0.1885 Y2.7129  
G01 X-0.1829 Y2.7185  
G01 X-0.1765 Y2.7232  
G01 X-0.1694 Y2.7268  
G01 X-0.1618 Y2.7293  
G01 X-0.1540 Y2.7305  
G01 X-0.1460 Y2.7305  
G01 X-0.1382 Y2.7293  
G01 X-0.1306 Y2.7268  
G01 X-0.1235 Y2.7232  
G01 X-0.1171 Y2.7185  
G01 X-0.1115 Y2.7129  
G01 X-0.1068 Y2.7065  
G01 X-0.1032 Y2.6994  
G01 X-0.1007 Y2.6918  
G01 X-0.0995 Y2.6840  
G01 X-0.0995 Y2.6760  
G01 X-0.1007 Y2.6682  
G01 X-0.1032 Y2.6606  
G01 X-0.1068 Y2.6535  
G01 X-0.1115 Y2.6471  
G01 X-0.1171 Y2.6415  
G01 X-0.1235 Y2.6368  
G01 X-0.1306 Y2.6332  
G01 X-0.1382 Y2.6307  
G01 X-0.1460 Y2.6295  
G01 X-0.1540 Y2.6295  
G01 X-0.1618 Y2.6307  
G01 X-0.1694 Y2.6332  
G01 X-0.1765 Y2.6368  
G01 X-0.1829 Y2.6415  
G01 X-0.1885 Y2.6471  
G01 X-0.1932 Y2.6535  
G01 X-0.1963 Y2.6596  
G01 X-0.4321 Y2.6759  
G01 X-0.4815 Y2.6341  
G01 X-0.4815 Y2.5663  
G01 X-0.4781 Y2.5354  
G01 X-0.4665 Y2.5239  
G01 X-0.4665 Y2.4961  
G00 Z0.0500  
G00 X-0.4635 Y2.5761  
G01 Z-0.0040 F10    
G01 X-0.4635 Y2.6039  F20    
G01 X-0.4439 Y2.6235  
G01 X-0.4161 Y2.6235  
G01 X-0.3965 Y2.6039  
G01 X-0.3965 Y2.5959  
G01 X-0.2990 Y2.5309  
G01 X-0.2548 Y2.5132  
G01 X-0.1933 Y2.5094  
G01 X-0.1932 Y2.5096  
G01 X-0.1885 Y2.5160  
G01 X-0.1829 Y2.5217  
G01 X-0.1765 Y2.5263  
G01 X-0.1694 Y2.5299  
G01 X-0.1618 Y2.5324  
G01 X-0.1540 Y2.5336  
G01 X-0.1460 Y2.5336  
G01 X-0.1382 Y2.5324  
G01 X-0.1306 Y2.5299  
G01 X-0.1235 Y2.5263  
G01 X-0.1171 Y2.5217  
G01 X-0.1115 Y2.5160  
G01 X-0.1068 Y2.5096  
G01 X-0.1032 Y2.5025  
G01 X-0.1007 Y2.4950  
G01 X-0.0995 Y2.4871  
G01 X-0.0995 Y2.4792  
G01 X-0.1007 Y2.4713  
G01 X-0.1032 Y2.4638  
G01 X-0.1068 Y2.4567  
G01 X-0.1115 Y2.4503  
G01 X-0.1171 Y2.4446  
G01 X-0.1235 Y2.4400  
G01 X-0.1306 Y2.4363  
G01 X-0.1382 Y2.4339  
G01 X-0.1460 Y2.4326  
G01 X-0.1540 Y2.4326  
G01 X-0.1618 Y2.4339  
G01 X-0.1694 Y2.4363  
G01 X-0.1765 Y2.4400  
G01 X-0.1829 Y2.4446  
G01 X-0.1885 Y2.4503  
G01 X-0.1932 Y2.4567  
G01 X-0.1961 Y2.4625  
G01 X-0.2606 Y2.4665  
G01 X-0.2620 Y2.4665  
G01 X-0.2629 Y2.4666  
G01 X-0.2638 Y2.4667  
G01 X-0.2652 Y2.4671  
G01 X-0.2666 Y2.4673  
G01 X-0.2674 Y2.4676  
G01 X-0.2682 Y2.4679  
G01 X-0.2695 Y2.4685  
G01 X-0.3167 Y2.4874  
G01 X-0.3168 Y2.4874  
G01 X-0.3189 Y2.4882  
G01 X-0.3209 Y2.4890  
G01 X-0.3210 Y2.4891  
G01 X-0.3211 Y2.4892  
G01 X-0.3229 Y2.4904  
G01 X-0.3248 Y2.4916  
G01 X-0.4221 Y2.5565  
G01 X-0.4439 Y2.5565  
G01 X-0.4635 Y2.5761  
G00 Z0.0500  
G00 X-0.4439 Y2.7565  
G01 Z-0.0040 F10    
G01 X-0.4635 Y2.7761  F20    
G01 X-0.4635 Y2.8039  
G01 X-0.4551 Y2.8122  
G01 X-0.4600 Y2.8800  
G01 X-0.4607 Y2.8800  
G01 X-0.4900 Y2.9093  
G01 X-0.4900 Y2.9507  
G01 X-0.4607 Y2.9800  
G01 X-0.4193 Y2.9800  
G01 X-0.3900 Y2.9507  
G01 X-0.3900 Y2.9093  
G01 X-0.4133 Y2.8860  
G01 X-0.4083 Y2.8156  
G01 X-0.3965 Y2.8039  
G01 X-0.3965 Y2.7761  
G01 X-0.4161 Y2.7565  
G01 X-0.4439 Y2.7565  
G00 Z0.0500  
G00 X-1.0093 Y2.4800  
G01 Z-0.0040 F10    
G01 X-0.9800 Y2.4507  F20    
G01 X-0.9800 Y2.4093  
G01 X-1.0093 Y2.3800  
G01 X-1.0145 Y2.3800  
G01 X-1.0228 Y2.3302  
G01 X-1.0165 Y2.3239  
G01 X-1.0165 Y2.2961  
G01 X-1.0361 Y2.2765  
G01 X-1.0639 Y2.2765  
G01 X-1.0835 Y2.2961  
G01 X-1.0835 Y2.3239  
G01 X-1.0691 Y2.3383  
G01 X-1.0605 Y2.3898  
G01 X-1.0800 Y2.4093  
G01 X-1.0800 Y2.4507  
G01 X-1.0507 Y2.4800  
G01 X-1.0093 Y2.4800  
G00 Z0.0500  
G00 X-0.6335 Y0.7239  
G01 Z-0.0040 F10    
G01 X-0.6139 Y0.7435  F20    
G01 X-0.5861 Y0.7435  
G01 X-0.5665 Y0.7239  
G01 X-0.5665 Y0.6961  
G01 X-0.5765 Y0.6861  
G01 X-0.5765 Y0.6072  
G01 X-0.5500 Y0.5807  
G01 X-0.5500 Y0.5393  
G01 X-0.5793 Y0.5100  
G01 X-0.6207 Y0.5100  
G01 X-0.6500 Y0.5393  
G01 X-0.6500 Y0.5807  
G01 X-0.6235 Y0.6072  
G01 X-0.6235 Y0.6861  
G01 X-0.6335 Y0.6961  
G01 X-0.6335 Y0.7239  
G00 Z0.0500  
G00 X-0.6207 Y0.4100  
G01 Z-0.0040 F10    
G01 X-0.5793 Y0.4100  F20    
G01 X-0.5528 Y0.3835  
G01 X-0.4739 Y0.3835  
G01 X-0.4639 Y0.3935  
G01 X-0.4361 Y0.3935  
G01 X-0.4165 Y0.3739  
G01 X-0.4165 Y0.3461  
G01 X-0.4361 Y0.3265  
G01 X-0.4639 Y0.3265  
G01 X-0.4739 Y0.3365  
G01 X-0.5528 Y0.3365  
G01 X-0.5793 Y0.3100  
G01 X-0.6207 Y0.3100  
G01 X-0.6500 Y0.3393  
G01 X-0.6500 Y0.3807  
G01 X-0.6207 Y0.4100  
G00 Z0.0500  
G00 X-0.1103 Y0.1693  
G01 Z-0.0040 F10    
G01 X-0.1161 Y0.1635  F20    
G01 X-0.1227 Y0.1587  
G01 X-0.1300 Y0.1550  
G01 X-0.1378 Y0.1524  
G01 X-0.1459 Y0.1511  
G01 X-0.1541 Y0.1511  
G01 X-0.1622 Y0.1524  
G01 X-0.1700 Y0.1550  
G01 X-0.1773 Y0.1587  
G01 X-0.1839 Y0.1635  
G01 X-0.1897 Y0.1693  
G01 X-0.1928 Y0.1735  
G01 X-0.4215 Y0.1390  
G01 X-0.4355 Y0.1250  
G01 X-0.4645 Y0.1250  
G01 X-0.4850 Y0.1455  
G01 X-0.4850 Y0.1745  
G01 X-0.4645 Y0.1950  
G01 X-0.4355 Y0.1950  
G01 X-0.4290 Y0.1885  
G01 X-0.1981 Y0.2233  
G01 X-0.1945 Y0.2304  
G01 X-0.1897 Y0.2370  
G01 X-0.1839 Y0.2428  
G01 X-0.1773 Y0.2476  
G01 X-0.1700 Y0.2513  
G01 X-0.1622 Y0.2539  
G01 X-0.1541 Y0.2551  
G01 X-0.1459 Y0.2551  
G01 X-0.1378 Y0.2539  
G01 X-0.1300 Y0.2513  
G01 X-0.1227 Y0.2476  
G01 X-0.1161 Y0.2428  
G01 X-0.1103 Y0.2370  
G01 X-0.1055 Y0.2304  
G01 X-0.1018 Y0.2231  
G01 X-0.0993 Y0.2153  
G01 X-0.0980 Y0.2072  
G01 X-0.0980 Y0.1991  
G01 X-0.0993 Y0.1910  
G01 X-0.1018 Y0.1832  
G01 X-0.1055 Y0.1759  
G01 X-0.1103 Y0.1693  
G00 Z0.0500  
G00 X-0.1103 Y0.3661  
G01 Z-0.0040 F10    
G01 X-0.1161 Y0.3603  F20    
G01 X-0.1227 Y0.3555  
G01 X-0.1300 Y0.3518  
G01 X-0.1378 Y0.3493  
G01 X-0.1459 Y0.3480  
G01 X-0.1541 Y0.3480  
G01 X-0.1622 Y0.3493  
G01 X-0.1700 Y0.3518  
G01 X-0.1773 Y0.3555  
G01 X-0.1839 Y0.3603  
G01 X-0.1897 Y0.3661  
G01 X-0.1945 Y0.3727  
G01 X-0.1982 Y0.3800  
G01 X-0.1987 Y0.3817  
G01 X-0.3618 Y0.4050  
G01 X-0.3625 Y0.4050  
G01 X-0.3642 Y0.4053  
G01 X-0.3660 Y0.4056  
G01 X-0.3666 Y0.4058  
G01 X-0.3673 Y0.4060  
G01 X-0.3689 Y0.4066  
G01 X-0.3706 Y0.4072  
G01 X-0.3712 Y0.4076  
G01 X-0.3718 Y0.4078  
G01 X-0.3733 Y0.4088  
G01 X-0.3749 Y0.4097  
G01 X-0.3754 Y0.4102  
G01 X-0.3759 Y0.4106  
G01 X-0.3772 Y0.4118  
G01 X-0.3785 Y0.4130  
G01 X-0.3789 Y0.4136  
G01 X-0.4572 Y0.4919  
G01 X-0.4586 Y0.4931  
G01 X-0.4590 Y0.4936  
G01 X-0.4594 Y0.4941  
G01 X-0.4604 Y0.4956  
G01 X-0.4615 Y0.4971  
G01 X-0.4618 Y0.4976  
G01 X-0.4622 Y0.4982  
G01 X-0.4629 Y0.4999  
G01 X-0.4636 Y0.5015  
G01 X-0.4638 Y0.5021  
G01 X-0.4640 Y0.5027  
G01 X-0.4644 Y0.5045  
G01 X-0.4648 Y0.5063  
G01 X-0.4649 Y0.5069  
G01 X-0.4650 Y0.5075  
G01 X-0.4650 Y0.5094  
G01 X-0.4737 Y0.6842  
G01 X-0.4850 Y0.6955  
G01 X-0.4850 Y0.7245  
G01 X-0.4645 Y0.7450  
G01 X-0.4355 Y0.7450  
G01 X-0.4150 Y0.7245  
G01 X-0.4150 Y0.6955  
G01 X-0.4238 Y0.6867  
G01 X-0.4155 Y0.5209  
G01 X-0.3482 Y0.4536  
G01 X-0.1916 Y0.4312  
G01 X-0.1897 Y0.4339  
G01 X-0.1839 Y0.4397  
G01 X-0.1773 Y0.4445  
G01 X-0.1700 Y0.4482  
G01 X-0.1622 Y0.4507  
G01 X-0.1541 Y0.4520  
G01 X-0.1459 Y0.4520  
G01 X-0.1378 Y0.4507  
G01 X-0.1300 Y0.4482  
G01 X-0.1227 Y0.4445  
G01 X-0.1161 Y0.4397  
G01 X-0.1103 Y0.4339  
G01 X-0.1055 Y0.4273  
G01 X-0.1018 Y0.4200  
G01 X-0.0993 Y0.4122  
G01 X-0.0980 Y0.4041  
G01 X-0.0980 Y0.3959  
G01 X-0.0993 Y0.3878  
G01 X-0.1018 Y0.3800  
G01 X-0.1055 Y0.3727  
G01 X-0.1103 Y0.3661  
G00 Z0.0500  
G00 X-0.1103 Y0.5630  
G01 Z-0.0040 F10    
G01 X-0.1161 Y0.5572  F20    
G01 X-0.1227 Y0.5524  
G01 X-0.1300 Y0.5487  
G01 X-0.1378 Y0.5461  
G01 X-0.1459 Y0.5449  
G01 X-0.1541 Y0.5449  
G01 X-0.1622 Y0.5461  
G01 X-0.1700 Y0.5487  
G01 X-0.1773 Y0.5524  
G01 X-0.1839 Y0.5572  
G01 X-0.1897 Y0.5630  
G01 X-0.1909 Y0.5647  
G01 X-0.2087 Y0.5576  
G01 X-0.2089 Y0.5575  
G01 X-0.2110 Y0.5567  
G01 X-0.2130 Y0.5559  
G01 X-0.2133 Y0.5558  
G01 X-0.2485 Y0.5426  
G01 X-0.2485 Y0.5287  
G01 X-0.2787 Y0.4985  
G01 X-0.3213 Y0.4985  
G01 X-0.3515 Y0.5287  
G01 X-0.3515 Y0.5713  
G01 X-0.3213 Y0.6015  
G01 X-0.2787 Y0.6015  
G01 X-0.2664 Y0.5893  
G01 X-0.2290 Y0.6033  
G01 X-0.2162 Y0.6084  
G01 X-0.4147 Y0.7900  
G01 X-0.6496 Y0.7900  
G01 X-0.7291 Y0.7106  
G01 X-0.7332 Y0.7078  
G01 X-0.7377 Y0.7060  
G01 X-0.7425 Y0.7050  
G01 X-0.8022 Y0.7050  
G01 X-0.8287 Y0.6785  
G01 X-0.8713 Y0.6785  
G01 X-0.9015 Y0.7087  
G01 X-0.9015 Y0.7513  
G01 X-0.8713 Y0.7815  
G01 X-0.8287 Y0.7815  
G01 X-0.8022 Y0.7550  
G01 X-0.7554 Y0.7550  
G01 X-0.6945 Y0.8159  
G01 X-0.7793 Y0.9600  
G01 X-0.9547 Y0.9600  
G01 X-0.9568 Y0.9599  
G01 X-0.9571 Y0.9600  
G01 X-0.9575 Y0.9600  
G01 X-0.9596 Y0.9604  
G01 X-0.9617 Y0.9608  
G01 X-0.9620 Y0.9609  
G01 X-0.9623 Y0.9610  
G01 X-0.9643 Y0.9618  
G01 X-0.9663 Y0.9625  
G01 X-0.9665 Y0.9627  
G01 X-0.9668 Y0.9628  
G01 X-0.9686 Y0.9640  
G01 X-0.9704 Y0.9652  
G01 X-0.9707 Y0.9654  
G01 X-0.9709 Y0.9656  
G01 X-0.9725 Y0.9671  
G01 X-0.9740 Y0.9686  
G01 X-0.9742 Y0.9688  
G01 X-0.9744 Y0.9691  
G01 X-0.9756 Y0.9708  
G01 X-1.2142 Y1.3088  
G01 X-1.2144 Y1.3091  
G01 X-1.2156 Y1.3108  
G01 X-1.2168 Y1.3126  
G01 X-1.2170 Y1.3129  
G01 X-1.2172 Y1.3132  
G01 X-1.2180 Y1.3151  
G01 X-1.2188 Y1.3171  
G01 X-1.2189 Y1.3174  
G01 X-1.2190 Y1.3177  
G01 X-1.2195 Y1.3198  
G01 X-1.2199 Y1.3219  
G01 X-1.2199 Y1.3222  
G01 X-1.2200 Y1.3225  
G01 X-1.2200 Y1.3247  
G01 X-1.2201 Y1.3268  
G01 X-1.2200 Y1.3271  
G01 X-1.2200 Y2.9738  
G01 X-1.2201 Y2.9750  
G01 X-1.2200 Y2.9762  
G01 X-1.2200 Y2.9775  
G01 X-1.2198 Y2.9787  
G01 X-1.2196 Y2.9799  
G01 X-1.2193 Y2.9811  
G01 X-1.2190 Y2.9823  
G01 X-1.2186 Y2.9834  
G01 X-1.2182 Y2.9846  
G01 X-1.2176 Y2.9857  
G01 X-1.2172 Y2.9868  
G01 X-1.2165 Y2.9879  
G01 X-1.2159 Y2.9890  
G01 X-1.2151 Y2.9899  
G01 X-1.2144 Y2.9909  
G01 X-1.2135 Y2.9918  
G01 X-1.2127 Y2.9928  
G01 X-1.2118 Y2.9936  
G01 X-1.2109 Y2.9944  
G01 X-1.2099 Y2.9951  
G01 X-1.1018 Y3.0836  
G01 X-1.1009 Y3.0844  
G01 X-1.0999 Y3.0851  
G01 X-1.0989 Y3.0859  
G01 X-1.0979 Y3.0865  
G01 X-1.0968 Y3.0872  
G01 X-1.0957 Y3.0876  
G01 X-1.0946 Y3.0882  
G01 X-1.0934 Y3.0886  
G01 X-1.0923 Y3.0890  
G01 X-1.0911 Y3.0893  
G01 X-1.0899 Y3.0896  
G01 X-1.0887 Y3.0898  
G01 X-1.0875 Y3.0900  
G01 X-1.0862 Y3.0900  
G01 X-1.0850 Y3.0901  
G01 X-1.0838 Y3.0900  
G01 X-0.7471 Y3.0900  
G01 X-0.7467 Y3.0901  
G01 X-0.7465 Y3.0901  
G01 X-0.7463 Y3.0901  
G01 X-0.7444 Y3.0900  
G01 X-0.7425 Y3.0900  
G01 X-0.7422 Y3.0899  
G01 X-0.5812 Y3.0850  
G01 X-0.5807 Y3.0851  
G01 X-0.5804 Y3.0851  
G01 X-0.5802 Y3.0851  
G01 X-0.5785 Y3.0850  
G01 X-0.5768 Y3.0849  
G01 X-0.5763 Y3.0848  
G01 X-0.5758 Y3.0848  
G01 X-0.5755 Y3.0847  
G01 X-0.5229 Y3.0799  
G01 X-0.3990 Y3.0700  
G01 X-0.3975 Y3.0700  
G01 X-0.3965 Y3.0698  
G01 X-0.3956 Y3.0697  
G01 X-0.3941 Y3.0693  
G01 X-0.3926 Y3.0690  
G01 X-0.3917 Y3.0686  
G01 X-0.3908 Y3.0684  
G01 X-0.3895 Y3.0677  
G01 X-0.3881 Y3.0671  
G01 X-0.3873 Y3.0666  
G01 X-0.3864 Y3.0661  
G01 X-0.3852 Y3.0652  
G01 X-0.1739 Y2.9230  
G01 X-0.1700 Y2.9250  
G01 X-0.1622 Y2.9276  
G01 X-0.1541 Y2.9289  
G01 X-0.1459 Y2.9289  
G01 X-0.1378 Y2.9276  
G01 X-0.1300 Y2.9250  
G01 X-0.1227 Y2.9213  
G01 X-0.1161 Y2.9165  
G01 X-0.1103 Y2.9107  
G01 X-0.1055 Y2.9041  
G01 X-0.1018 Y2.8968  
G01 X-0.0993 Y2.8890  
G01 X-0.0980 Y2.8809  
G01 X-0.0980 Y2.8728  
G01 X-0.0993 Y2.8647  
G01 X-0.1018 Y2.8569  
G01 X-0.1055 Y2.8496  
G01 X-0.1103 Y2.8430  
G01 X-0.1161 Y2.8372  
G01 X-0.1227 Y2.8324  
G01 X-0.1300 Y2.8287  
G01 X-0.1378 Y2.8261  
G01 X-0.1459 Y2.8249  
G01 X-0.1541 Y2.8249  
G01 X-0.1622 Y2.8261  
G01 X-0.1700 Y2.8287  
G01 X-0.1773 Y2.8324  
G01 X-0.1839 Y2.8372  
G01 X-0.1874 Y2.8407  
G01 X-0.2148 Y2.8332  
G01 X-0.2154 Y2.8330  
G01 X-0.2172 Y2.8326  
G01 X-0.2189 Y2.8321  
G01 X-0.2196 Y2.8320  
G01 X-0.2485 Y2.8257  
G01 X-0.2485 Y2.8187  
G01 X-0.2787 Y2.7885  
G01 X-0.3213 Y2.7885  
G01 X-0.3515 Y2.8187  
G01 X-0.3515 Y2.8613  
G01 X-0.3213 Y2.8915  
G01 X-0.2787 Y2.8915  
G01 X-0.2613 Y2.8741  
G01 X-0.2291 Y2.8811  
G01 X-0.2092 Y2.8866  
G01 X-0.4085 Y3.0206  
G01 X-0.5247 Y3.0299  
G01 X-0.5248 Y3.0299  
G01 X-0.5271 Y3.0301  
G01 X-0.5294 Y3.0303  
G01 X-0.5296 Y3.0303  
G01 X-0.5442 Y3.0316  
G01 X-0.5314 Y2.9933  
G01 X-0.5307 Y2.9914  
G01 X-0.5306 Y2.9910  
G01 X-0.5305 Y2.9906  
G01 X-0.5302 Y2.9885  
G01 X-0.5299 Y2.9865  
G01 X-0.5299 Y2.9861  
G01 X-0.5299 Y2.9857  
G01 X-0.5300 Y2.9836  
G01 X-0.5496 Y2.4805  
G01 X-0.2700 Y2.2202  
G01 X-0.1732 Y2.1634  
G01 X-0.1700 Y2.1650  
G01 X-0.1622 Y2.1676  
G01 X-0.1541 Y2.1689  
G01 X-0.1459 Y2.1689  
G01 X-0.1378 Y2.1676  
G01 X-0.1300 Y2.1650  
G01 X-0.1227 Y2.1613  
G01 X-0.1161 Y2.1565  
G01 X-0.1103 Y2.1507  
G01 X-0.1055 Y2.1441  
G01 X-0.1018 Y2.1368  
G01 X-0.0993 Y2.1290  
G01 X-0.0980 Y2.1209  
G01 X-0.0980 Y2.1128  
G01 X-0.0993 Y2.1047  
G01 X-0.1018 Y2.0969  
G01 X-0.1055 Y2.0896  
G01 X-0.1103 Y2.0830  
G01 X-0.1161 Y2.0772  
G01 X-0.1227 Y2.0724  
G01 X-0.1300 Y2.0687  
G01 X-0.1378 Y2.0661  
G01 X-0.1459 Y2.0649  
G01 X-0.1541 Y2.0649  
G01 X-0.1622 Y2.0661  
G01 X-0.1700 Y2.0687  
G01 X-0.1733 Y2.0704  
G01 X-0.2182 Y2.0479  
G01 X-0.2485 Y2.0306  
G01 X-0.2485 Y2.0087  
G01 X-0.2787 Y1.9785  
G01 X-0.3213 Y1.9785  
G01 X-0.3515 Y2.0087  
G01 X-0.3515 Y2.0513  
G01 X-0.3213 Y2.0815  
G01 X-0.2787 Y2.0815  
G01 X-0.2720 Y2.0748  
G01 X-0.2439 Y2.0908  
G01 X-0.2434 Y2.0913  
G01 X-0.2418 Y2.0920  
G01 X-0.2403 Y2.0929  
G01 X-0.2396 Y2.0931  
G01 X-0.2019 Y2.1120  
G01 X-0.2020 Y2.1128  
G01 X-0.2020 Y2.1209  
G01 X-0.2018 Y2.1222  
G01 X-0.2821 Y2.1693  
G01 X-0.4319 Y2.0376  
G01 X-0.4322 Y2.0373  
G01 X-0.4338 Y2.0360  
G01 X-0.4353 Y2.0346  
G01 X-0.4357 Y2.0344  
G01 X-0.4360 Y2.0342  
G01 X-0.4378 Y2.0332  
G01 X-0.4396 Y2.0321  
G01 X-0.4400 Y2.0320  
G01 X-0.4403 Y2.0318  
G01 X-0.4423 Y2.0312  
G01 X-0.4443 Y2.0305  
G01 X-0.4446 Y2.0305  
G01 X-0.4971 Y2.0143  
G01 X-0.5809 Y1.8374  
G01 X-0.5985 Y1.7319  
G01 X-0.5674 Y1.6930  
G01 X-0.4854 Y1.6303  
G01 X-0.4841 Y1.6294  
G01 X-0.4835 Y1.6289  
G01 X-0.4829 Y1.6284  
G01 X-0.4818 Y1.6271  
G01 X-0.4196 Y1.5650  
G01 X-0.4120 Y1.5650  
G01 X-0.4115 Y1.5651  
G01 X-0.4095 Y1.5650  
G01 X-0.4075 Y1.5650  
G01 X-0.4070 Y1.5649  
G01 X-0.4065 Y1.5649  
G01 X-0.4046 Y1.5644  
G01 X-0.4027 Y1.5640  
G01 X-0.4022 Y1.5638  
G01 X-0.4018 Y1.5637  
G01 X-0.4000 Y1.5629  
G01 X-0.3982 Y1.5622  
G01 X-0.3977 Y1.5619  
G01 X-0.3973 Y1.5617  
G01 X-0.3957 Y1.5605  
G01 X-0.3941 Y1.5594  
G01 X-0.3937 Y1.5591  
G01 X-0.1770 Y1.4015  
G01 X-0.1700 Y1.4050  
G01 X-0.1622 Y1.4076  
G01 X-0.1541 Y1.4089  
G01 X-0.1459 Y1.4089  
G01 X-0.1378 Y1.4076  
G01 X-0.1300 Y1.4050  
