(/Applications/pcbgcode.repo/pcb-gcode.ulp)
(Copyright 2005 - 2012 by John Johnson)
(See readme.txt for licensing terms.)
(This file generated from the board:)
(.../4chan_mixer/eagle/4chan_mixer.brd)
(Current profile is .../pcbgcode.repo/profiles/mach.pp  )
(This file generated 3/23/16 9:23 PM)
(Settings from pcb-machine.h)
(spindle on time = 0.0000)
(  Tool Size)
(0.0040  )
(spindle speed = 30000.0000)
(tool change at 0.0000  0.0000  3.0000  )
(feed rate xy = F20    )
(feed rate z  = F10    )
(Z Axis Settings)
(  High     Up        Down     Drill)
(0.2500  	0.0500  	-0.0030 	-0.0730 )
(Settings from pcb-defaults.h)
(isolate min = 0.0050)
(isolate max = 0.0150)
(isolate step = 0.0015)
(Generated bottom outlines, bottom drill, )
(Unit of measure: inch)
(Inch Mode)
G20
(Absolute Coordinates)
G90
S30000
G00 Z0.2500  
G00 X0.0000  Y0.0000  
M03
G04 P0.000000
G00 Z0.0500  
G00 X-0.1321 Y0.1478  
G01 Z-0.0030 F10    
G01 X-0.1353 Y0.1446  F20    
G01 X-0.1391 Y0.1421  
G01 X-0.1433 Y0.1404  
G01 X-0.1477 Y0.1395  
G01 X-0.4238 Y0.1395  
G01 X-0.4363 Y0.1270  
G01 X-0.4637 Y0.1270  
G01 X-0.4830 Y0.1463  
G01 X-0.4830 Y0.1737  
G01 X-0.4637 Y0.1930  
G01 X-0.4363 Y0.1930  
G01 X-0.4288 Y0.1855  
G01 X-0.1968 Y0.1855  
G01 X-0.1988 Y0.1914  
G01 X-0.2000 Y0.1992  
G01 X-0.2000 Y0.2071  
G01 X-0.1988 Y0.2149  
G01 X-0.1963 Y0.2223  
G01 X-0.1928 Y0.2294  
G01 X-0.1881 Y0.2357  
G01 X-0.1826 Y0.2413  
G01 X-0.1762 Y0.2459  
G01 X-0.1692 Y0.2495  
G01 X-0.1617 Y0.2519  
G01 X-0.1539 Y0.2531  
G01 X-0.1461 Y0.2531  
G01 X-0.1383 Y0.2519  
G01 X-0.1308 Y0.2495  
G01 X-0.1238 Y0.2459  
G01 X-0.1174 Y0.2413  
G01 X-0.1119 Y0.2357  
G01 X-0.1072 Y0.2294  
G01 X-0.1037 Y0.2223  
G01 X-0.1012 Y0.2149  
G01 X-0.1000 Y0.2071  
G01 X-0.1000 Y0.1992  
G01 X-0.1012 Y0.1914  
G01 X-0.1037 Y0.1840  
G01 X-0.1072 Y0.1769  
G01 X-0.1119 Y0.1706  
G01 X-0.1174 Y0.1650  
G01 X-0.1238 Y0.1604  
G01 X-0.1273 Y0.1586  
G01 X-0.1279 Y0.1558  
G01 X-0.1296 Y0.1516  
G01 X-0.1321 Y0.1478  
G00 Z0.0500  
G00 X-0.1308 Y0.3537  
G01 Z-0.0030 F10    
G01 X-0.1383 Y0.3512  F20    
G01 X-0.1461 Y0.3500  
G01 X-0.1539 Y0.3500  
G01 X-0.1617 Y0.3512  
G01 X-0.1692 Y0.3537  
G01 X-0.1762 Y0.3572  
G01 X-0.1826 Y0.3619  
G01 X-0.1881 Y0.3674  
G01 X-0.1928 Y0.3738  
G01 X-0.1944 Y0.3770  
G01 X-0.2648 Y0.3770  
G01 X-0.2692 Y0.3779  
G01 X-0.2734 Y0.3796  
G01 X-0.2772 Y0.3821  
G01 X-0.2804 Y0.3853  
G01 X-0.4054 Y0.5103  
G01 X-0.4079 Y0.5141  
G01 X-0.4096 Y0.5183  
G01 X-0.4105 Y0.5227  
G01 X-0.4105 Y0.6280  
G01 X-0.4595 Y0.6770  
G01 X-0.4637 Y0.6770  
G01 X-0.4830 Y0.6963  
G01 X-0.4830 Y0.7237  
G01 X-0.4637 Y0.7430  
G01 X-0.4363 Y0.7430  
G01 X-0.4170 Y0.7237  
G01 X-0.4170 Y0.6995  
G01 X-0.3728 Y0.6554  
G01 X-0.3696 Y0.6522  
G01 X-0.3671 Y0.6484  
G01 X-0.3654 Y0.6442  
G01 X-0.3645 Y0.6398  
G01 X-0.3645 Y0.5345  
G01 X-0.2530 Y0.4230  
G01 X-0.1944 Y0.4230  
G01 X-0.1928 Y0.4262  
G01 X-0.1881 Y0.4326  
G01 X-0.1826 Y0.4381  
G01 X-0.1762 Y0.4428  
G01 X-0.1692 Y0.4463  
G01 X-0.1617 Y0.4488  
G01 X-0.1539 Y0.4500  
G01 X-0.1461 Y0.4500  
G01 X-0.1383 Y0.4488  
G01 X-0.1308 Y0.4463  
G01 X-0.1238 Y0.4428  
G01 X-0.1174 Y0.4381  
G01 X-0.1119 Y0.4326  
G01 X-0.1072 Y0.4262  
G01 X-0.1037 Y0.4192  
G01 X-0.1012 Y0.4117  
G01 X-0.1000 Y0.4039  
G01 X-0.1000 Y0.3961  
G01 X-0.1012 Y0.3883  
G01 X-0.1037 Y0.3808  
G01 X-0.1072 Y0.3738  
G01 X-0.1119 Y0.3674  
G01 X-0.1174 Y0.3619  
G01 X-0.1238 Y0.3572  
G01 X-0.1308 Y0.3537  
G00 Z0.0500  
G00 X-0.1321 Y0.5353  
G01 Z-0.0030 F10    
G01 X-0.1353 Y0.5321  F20    
G01 X-0.1391 Y0.5296  
G01 X-0.1433 Y0.5279  
G01 X-0.1477 Y0.5270  
G01 X-0.2530 Y0.5270  
G01 X-0.2795 Y0.5005  
G01 X-0.3205 Y0.5005  
G01 X-0.3495 Y0.5295  
G01 X-0.3495 Y0.5705  
G01 X-0.3205 Y0.5995  
G01 X-0.2795 Y0.5995  
G01 X-0.2530 Y0.5730  
G01 X-0.1940 Y0.5730  
G01 X-0.1963 Y0.5777  
G01 X-0.1988 Y0.5851  
G01 X-0.2000 Y0.5929  
G01 X-0.2000 Y0.6008  
G01 X-0.1988 Y0.6086  
G01 X-0.1963 Y0.6160  
G01 X-0.1928 Y0.6231  
G01 X-0.1881 Y0.6294  
G01 X-0.1826 Y0.6350  
G01 X-0.1762 Y0.6396  
G01 X-0.1692 Y0.6432  
G01 X-0.1617 Y0.6456  
G01 X-0.1539 Y0.6469  
G01 X-0.1482 Y0.6469  
G01 X-0.0855 Y0.7095  
G01 X-0.0855 Y0.8145  
G01 X-0.7420 Y0.8145  
G01 X-0.7421 Y0.8141  
G01 X-0.7446 Y0.8103  
G01 X-0.8025 Y0.7525  
G01 X-0.8005 Y0.7505  
G01 X-0.8005 Y0.7095  
G01 X-0.8295 Y0.6805  
G01 X-0.8705 Y0.6805  
G01 X-0.8995 Y0.7095  
G01 X-0.8995 Y0.7505  
G01 X-0.8705 Y0.7795  
G01 X-0.8405 Y0.7795  
G01 X-0.7855 Y0.8345  
G01 X-0.7855 Y1.4398  
G01 X-0.7846 Y1.4442  
G01 X-0.7829 Y1.4484  
G01 X-0.7804 Y1.4522  
G01 X-0.7772 Y1.4554  
G01 X-0.7318 Y1.5007  
G01 X-0.7330 Y1.5067  
G01 X-0.7330 Y1.5133  
G01 X-0.7317 Y1.5196  
G01 X-0.7292 Y1.5256  
G01 X-0.7256 Y1.5310  
G01 X-0.7210 Y1.5356  
G01 X-0.7156 Y1.5392  
G01 X-0.7096 Y1.5417  
G01 X-0.7033 Y1.5430  
G01 X-0.6967 Y1.5430  
G01 X-0.6904 Y1.5417  
G01 X-0.6844 Y1.5392  
G01 X-0.6790 Y1.5356  
G01 X-0.6744 Y1.5310  
G01 X-0.6708 Y1.5256  
G01 X-0.6683 Y1.5196  
G01 X-0.6670 Y1.5133  
G01 X-0.6670 Y1.5067  
G01 X-0.6683 Y1.5004  
G01 X-0.6708 Y1.4944  
G01 X-0.6744 Y1.4890  
G01 X-0.6790 Y1.4844  
G01 X-0.6844 Y1.4808  
G01 X-0.6884 Y1.4791  
G01 X-0.7395 Y1.4280  
G01 X-0.7395 Y0.8605  
G01 X-0.0855 Y0.8605  
G01 X-0.0855 Y1.1905  
G01 X-0.1647 Y1.2696  
G01 X-0.1679 Y1.2728  
G01 X-0.1704 Y1.2766  
G01 X-0.1705 Y1.2770  
G01 X-0.2630 Y1.2770  
G01 X-0.2895 Y1.2505  
G01 X-0.3305 Y1.2505  
G01 X-0.3595 Y1.2795  
G01 X-0.3595 Y1.3205  
G01 X-0.3563 Y1.3237  
G01 X-0.4022 Y1.3696  
G01 X-0.4054 Y1.3728  
G01 X-0.4079 Y1.3766  
G01 X-0.4096 Y1.3808  
G01 X-0.4105 Y1.3852  
G01 X-0.4105 Y1.4780  
G01 X-0.6470 Y1.7145  
G01 X-0.7898 Y1.7145  
G01 X-0.7942 Y1.7154  
G01 X-0.7984 Y1.7171  
G01 X-0.8022 Y1.7196  
G01 X-0.8054 Y1.7228  
G01 X-0.8079 Y1.7266  
G01 X-0.8096 Y1.7308  
G01 X-0.8105 Y1.7352  
G01 X-0.8105 Y1.7786  
G01 X-0.8156 Y1.7808  
G01 X-0.8210 Y1.7844  
G01 X-0.8256 Y1.7890  
G01 X-0.8292 Y1.7944  
G01 X-0.8317 Y1.8004  
G01 X-0.8330 Y1.8067  
G01 X-0.8330 Y1.8130  
G01 X-0.8522 Y1.8321  
G01 X-0.8554 Y1.8353  
G01 X-0.8579 Y1.8391  
G01 X-0.8596 Y1.8433  
G01 X-0.8605 Y1.8477  
G01 X-0.8605 Y1.8938  
G01 X-0.8730 Y1.9063  
G01 X-0.8730 Y1.9337  
G01 X-0.8537 Y1.9530  
G01 X-0.8263 Y1.9530  
G01 X-0.8213 Y1.9480  
G01 X-0.7330 Y1.9480  
G01 X-0.7329 Y1.9484  
G01 X-0.7304 Y1.9522  
G01 X-0.5554 Y2.1272  
G01 X-0.5522 Y2.1304  
G01 X-0.5484 Y2.1329  
G01 X-0.5442 Y2.1346  
G01 X-0.5398 Y2.1355  
G01 X-0.4605 Y2.1355  
G01 X-0.4605 Y2.2280  
G01 X-0.5470 Y2.3145  
G01 X-0.5655 Y2.3145  
G01 X-0.5895 Y2.2905  
G01 X-0.6305 Y2.2905  
G01 X-0.6595 Y2.3195  
G01 X-0.6595 Y2.3270  
G01 X-0.8398 Y2.3270  
G01 X-0.8442 Y2.3279  
G01 X-0.8484 Y2.3296  
G01 X-0.8522 Y2.3321  
G01 X-0.8554 Y2.3353  
G01 X-0.8579 Y2.3391  
G01 X-0.8596 Y2.3433  
G01 X-0.8605 Y2.3477  
G01 X-0.8605 Y2.4028  
G01 X-0.8612 Y2.4030  
G01 X-0.8682 Y2.4059  
G01 X-0.8745 Y2.4101  
G01 X-0.8789 Y2.4145  
G01 X-1.1015 Y2.4145  
G01 X-1.1015 Y2.4141  
G01 X-1.1241 Y2.3915  
G01 X-1.1385 Y2.3915  
G01 X-1.2395 Y2.2905  
G01 X-1.2395 Y2.0970  
G01 X-1.0821 Y1.9397  
G01 X-1.0796 Y1.9359  
G01 X-1.0779 Y1.9317  
G01 X-1.0770 Y1.9273  
G01 X-1.0770 Y1.6852  
G01 X-1.0779 Y1.6808  
G01 X-1.0796 Y1.6766  
G01 X-1.0821 Y1.6728  
G01 X-1.0853 Y1.6696  
G01 X-1.1020 Y1.6530  
G01 X-1.1020 Y1.6187  
G01 X-1.0970 Y1.6137  
G01 X-1.0970 Y1.5863  
G01 X-1.1163 Y1.5670  
G01 X-1.1437 Y1.5670  
G01 X-1.1630 Y1.5863  
G01 X-1.1630 Y1.6137  
G01 X-1.1480 Y1.6287  
G01 X-1.1480 Y1.6648  
G01 X-1.1471 Y1.6692  
G01 X-1.1454 Y1.6734  
G01 X-1.1429 Y1.6772  
G01 X-1.1230 Y1.6970  
G01 X-1.1230 Y1.9155  
G01 X-1.2772 Y2.0696  
G01 X-1.2804 Y2.0728  
G01 X-1.2829 Y2.0766  
G01 X-1.2846 Y2.0808  
G01 X-1.2855 Y2.0852  
G01 X-1.2855 Y2.3023  
G01 X-1.2846 Y2.3067  
G01 X-1.2829 Y2.3109  
G01 X-1.2804 Y2.3147  
G01 X-1.1785 Y2.4165  
G01 X-1.1785 Y2.4459  
G01 X-1.1559 Y2.4685  
G01 X-1.1241 Y2.4685  
G01 X-1.1161 Y2.4605  
G01 X-0.9230 Y2.4605  
G01 X-0.9230 Y2.8360  
G01 X-0.9582 Y2.8360  
G01 X-0.9652 Y2.8430  
G01 X-0.9714 Y2.8430  
G01 X-0.9740 Y2.8441  
G01 X-0.9759 Y2.8460  
G01 X-0.9770 Y2.8486  
G01 X-0.9770 Y2.8548  
G01 X-0.9840 Y2.8618  
G01 X-0.9840 Y2.8982  
G01 X-0.9770 Y2.9052  
G01 X-0.9770 Y2.9548  
G01 X-0.9840 Y2.9618  
G01 X-0.9840 Y2.9982  
G01 X-0.9770 Y3.0052  
G01 X-0.9770 Y3.0114  
G01 X-0.9759 Y3.0140  
G01 X-0.9740 Y3.0159  
G01 X-0.9714 Y3.0170  
G01 X-0.9652 Y3.0170  
G01 X-0.9582 Y3.0240  
G01 X-0.9218 Y3.0240  
G01 X-0.9148 Y3.0170  
G01 X-0.8652 Y3.0170  
G01 X-0.8582 Y3.0240  
G01 X-0.8218 Y3.0240  
G01 X-0.8148 Y3.0170  
G01 X-0.7652 Y3.0170  
G01 X-0.7605 Y3.0217  
G01 X-0.7605 Y3.0648  
G01 X-0.7596 Y3.0692  
G01 X-0.7579 Y3.0734  
G01 X-0.7554 Y3.0772  
G01 X-0.7522 Y3.0804  
G01 X-0.7484 Y3.0829  
G01 X-0.7442 Y3.0846  
G01 X-0.7398 Y3.0855  
G01 X-0.6102 Y3.0855  
G01 X-0.6058 Y3.0846  
G01 X-0.6016 Y3.0829  
G01 X-0.5978 Y3.0804  
G01 X-0.5946 Y3.0772  
G01 X-0.5446 Y3.0272  
G01 X-0.5421 Y3.0234  
G01 X-0.5420 Y3.0230  
G01 X-0.3270 Y3.0230  
G01 X-0.3105 Y3.0395  
G01 X-0.2695 Y3.0395  
G01 X-0.2405 Y3.0105  
G01 X-0.1477 Y3.0105  
G01 X-0.1433 Y3.0096  
G01 X-0.1391 Y3.0079  
G01 X-0.1353 Y3.0054  
G01 X-0.1321 Y3.0022  
G01 X-0.1296 Y2.9984  
G01 X-0.1279 Y2.9942  
G01 X-0.1270 Y2.9898  
G01 X-0.1270 Y2.9212  
G01 X-0.1238 Y2.9196  
G01 X-0.1174 Y2.9150  
G01 X-0.1119 Y2.9094  
G01 X-0.1072 Y2.9031  
G01 X-0.1037 Y2.8960  
G01 X-0.1012 Y2.8886  
G01 X-0.1000 Y2.8808  
G01 X-0.1000 Y2.8729  
G01 X-0.1012 Y2.8651  
G01 X-0.1037 Y2.8577  
G01 X-0.1072 Y2.8506  
G01 X-0.1119 Y2.8443  
G01 X-0.1174 Y2.8387  
G01 X-0.1238 Y2.8341  
G01 X-0.1308 Y2.8305  
G01 X-0.1383 Y2.8281  
G01 X-0.1461 Y2.8269  
G01 X-0.1539 Y2.8269  
G01 X-0.1617 Y2.8281  
G01 X-0.1692 Y2.8305  
G01 X-0.1762 Y2.8341  
G01 X-0.1826 Y2.8387  
G01 X-0.1881 Y2.8443  
G01 X-0.1928 Y2.8506  
G01 X-0.1963 Y2.8577  
G01 X-0.1988 Y2.8651  
G01 X-0.2000 Y2.8729  
G01 X-0.2000 Y2.8808  
G01 X-0.1988 Y2.8886  
G01 X-0.1963 Y2.8960  
G01 X-0.1928 Y2.9031  
G01 X-0.1881 Y2.9094  
G01 X-0.1826 Y2.9150  
G01 X-0.1762 Y2.9196  
G01 X-0.1730 Y2.9212  
G01 X-0.1730 Y2.9645  
G01 X-0.2455 Y2.9645  
G01 X-0.2695 Y2.9405  
G01 X-0.3105 Y2.9405  
G01 X-0.3395 Y2.9695  
G01 X-0.3395 Y2.9770  
G01 X-0.5648 Y2.9770  
G01 X-0.5692 Y2.9779  
G01 X-0.5734 Y2.9796  
G01 X-0.5772 Y2.9821  
G01 X-0.5804 Y2.9853  
G01 X-0.5829 Y2.9891  
G01 X-0.5846 Y2.9933  
G01 X-0.5855 Y2.9977  
G01 X-0.5855 Y3.0030  
G01 X-0.6220 Y3.0395  
G01 X-0.7145 Y3.0395  
G01 X-0.7145 Y3.0170  
G01 X-0.7086 Y3.0170  
G01 X-0.7060 Y3.0159  
G01 X-0.7041 Y3.0140  
G01 X-0.7030 Y3.0114  
G01 X-0.7030 Y3.0052  
G01 X-0.6960 Y2.9982  
G01 X-0.6960 Y2.9618  
G01 X-0.7030 Y2.9548  
G01 X-0.7030 Y2.9052  
G01 X-0.6960 Y2.8982  
G01 X-0.6960 Y2.8618  
G01 X-0.7030 Y2.8548  
G01 X-0.7030 Y2.8486  
G01 X-0.7041 Y2.8460  
G01 X-0.7060 Y2.8441  
G01 X-0.7086 Y2.8430  
G01 X-0.7148 Y2.8430  
G01 X-0.7218 Y2.8360  
G01 X-0.7582 Y2.8360  
G01 X-0.7652 Y2.8430  
G01 X-0.8148 Y2.8430  
G01 X-0.8218 Y2.8360  
G01 X-0.8582 Y2.8360  
G01 X-0.8652 Y2.8430  
G01 X-0.8770 Y2.8430  
G01 X-0.8770 Y2.4674  
G01 X-0.8745 Y2.4699  
G01 X-0.8682 Y2.4741  
G01 X-0.8612 Y2.4770  
G01 X-0.8538 Y2.4785  
G01 X-0.8462 Y2.4785  
G01 X-0.8388 Y2.4770  
G01 X-0.8318 Y2.4741  
G01 X-0.8255 Y2.4699  
G01 X-0.8201 Y2.4645  
G01 X-0.8159 Y2.4582  
G01 X-0.8130 Y2.4512  
G01 X-0.8115 Y2.4438  
G01 X-0.8115 Y2.4362  
G01 X-0.8130 Y2.4288  
G01 X-0.8145 Y2.4251  
G01 X-0.8145 Y2.3730  
G01 X-0.6470 Y2.3730  
G01 X-0.6305 Y2.3895  
G01 X-0.5895 Y2.3895  
G01 X-0.5605 Y2.3605  
G01 X-0.5352 Y2.3605  
G01 X-0.5308 Y2.3596  
G01 X-0.5266 Y2.3579  
G01 X-0.5228 Y2.3554  
G01 X-0.5196 Y2.3522  
G01 X-0.4196 Y2.2522  
G01 X-0.4171 Y2.2484  
G01 X-0.4154 Y2.2442  
G01 X-0.4145 Y2.2398  
G01 X-0.4145 Y2.1355  
G01 X-0.1965 Y2.1355  
G01 X-0.1963 Y2.1360  
G01 X-0.1928 Y2.1431  
G01 X-0.1881 Y2.1494  
G01 X-0.1826 Y2.1550  
G01 X-0.1762 Y2.1596  
G01 X-0.1692 Y2.1632  
G01 X-0.1617 Y2.1656  
G01 X-0.1539 Y2.1669  
G01 X-0.1461 Y2.1669  
G01 X-0.1383 Y2.1656  
G01 X-0.1308 Y2.1632  
G01 X-0.1238 Y2.1596  
G01 X-0.1174 Y2.1550  
G01 X-0.1119 Y2.1494  
G01 X-0.1072 Y2.1431  
G01 X-0.1037 Y2.1360  
G01 X-0.1012 Y2.1286  
G01 X-0.1000 Y2.1208  
G01 X-0.1000 Y2.1129  
G01 X-0.1012 Y2.1051  
G01 X-0.1037 Y2.0977  
G01 X-0.1072 Y2.0906  
G01 X-0.1119 Y2.0843  
G01 X-0.1174 Y2.0787  
G01 X-0.1238 Y2.0741  
G01 X-0.1308 Y2.0705  
G01 X-0.1383 Y2.0681  
G01 X-0.1461 Y2.0669  
G01 X-0.1539 Y2.0669  
G01 X-0.1617 Y2.0681  
G01 X-0.1692 Y2.0705  
G01 X-0.1762 Y2.0741  
G01 X-0.1826 Y2.0787  
G01 X-0.1881 Y2.0843  
G01 X-0.1919 Y2.0895  
G01 X-0.2770 Y2.0895  
G01 X-0.2770 Y2.0770  
G01 X-0.2505 Y2.0505  
G01 X-0.2505 Y2.0095  
G01 X-0.2795 Y1.9805  
G01 X-0.3205 Y1.9805  
G01 X-0.3495 Y2.0095  
G01 X-0.3495 Y2.0505  
G01 X-0.3230 Y2.0770  
G01 X-0.3230 Y2.0895  
G01 X-0.5280 Y2.0895  
G01 X-0.6895 Y1.9280  
G01 X-0.6895 Y1.9227  
G01 X-0.6904 Y1.9183  
G01 X-0.6921 Y1.9141  
G01 X-0.6946 Y1.9103  
G01 X-0.6978 Y1.9071  
G01 X-0.7016 Y1.9046  
G01 X-0.7058 Y1.9029  
G01 X-0.7102 Y1.9020  
G01 X-0.8113 Y1.9020  
G01 X-0.8145 Y1.8988  
G01 X-0.8145 Y1.8595  
G01 X-0.7980 Y1.8430  
G01 X-0.7967 Y1.8430  
G01 X-0.7904 Y1.8417  
G01 X-0.7844 Y1.8392  
G01 X-0.7790 Y1.8356  
G01 X-0.7744 Y1.8310  
G01 X-0.7708 Y1.8256  
G01 X-0.7683 Y1.8196  
G01 X-0.7670 Y1.8133  
G01 X-0.7670 Y1.8106  
G01 X-0.7667 Y1.8100  
G01 X-0.7663 Y1.8091  
G01 X-0.7659 Y1.8079  
G01 X-0.7654 Y1.8067  
G01 X-0.7652 Y1.8057  
G01 X-0.7649 Y1.8048  
G01 X-0.7647 Y1.8035  
G01 X-0.7645 Y1.8023  
G01 X-0.7645 Y1.8013  
G01 X-0.7644 Y1.8003  
G01 X-0.7645 Y1.7990  
G01 X-0.7645 Y1.7605  
G01 X-0.6352 Y1.7605  
G01 X-0.6308 Y1.7596  
G01 X-0.6266 Y1.7579  
G01 X-0.6228 Y1.7554  
G01 X-0.6196 Y1.7522  
G01 X-0.3696 Y1.5022  
G01 X-0.3671 Y1.4984  
G01 X-0.3654 Y1.4942  
G01 X-0.3645 Y1.4898  
G01 X-0.3645 Y1.3970  
G01 X-0.3170 Y1.3495  
G01 X-0.2895 Y1.3495  
G01 X-0.2630 Y1.3230  
G01 X-0.1869 Y1.3230  
G01 X-0.1881 Y1.3243  
G01 X-0.1928 Y1.3306  
G01 X-0.1963 Y1.3377  
G01 X-0.1988 Y1.3451  
G01 X-0.2000 Y1.3529  
G01 X-0.2000 Y1.3608  
G01 X-0.1988 Y1.3686  
G01 X-0.1963 Y1.3760  
G01 X-0.1928 Y1.3831  
G01 X-0.1881 Y1.3894  
G01 X-0.1826 Y1.3950  
G01 X-0.1762 Y1.3996  
G01 X-0.1692 Y1.4032  
G01 X-0.1617 Y1.4056  
G01 X-0.1539 Y1.4069  
G01 X-0.1461 Y1.4069  
G01 X-0.1383 Y1.4056  
G01 X-0.1308 Y1.4032  
G01 X-0.1238 Y1.3996  
G01 X-0.1174 Y1.3950  
G01 X-0.1119 Y1.3894  
G01 X-0.1072 Y1.3831  
G01 X-0.1037 Y1.3760  
G01 X-0.1012 Y1.3686  
G01 X-0.1000 Y1.3608  
G01 X-0.1000 Y1.3529  
G01 X-0.1012 Y1.3451  
G01 X-0.1037 Y1.3377  
G01 X-0.1072 Y1.3306  
G01 X-0.1119 Y1.3243  
G01 X-0.1174 Y1.3187  
G01 X-0.1238 Y1.3141  
G01 X-0.1270 Y1.3125  
G01 X-0.1270 Y1.2970  
G01 X-0.0446 Y1.2147  
G01 X-0.0421 Y1.2109  
G01 X-0.0404 Y1.2067  
G01 X-0.0395 Y1.2023  
G01 X-0.0395 Y0.6977  
G01 X-0.0404 Y0.6933  
G01 X-0.0421 Y0.6891  
G01 X-0.0446 Y0.6853  
G01 X-0.1071 Y0.6228  
G01 X-0.1037 Y0.6160  
G01 X-0.1012 Y0.6086  
G01 X-0.1000 Y0.6008  
G01 X-0.1000 Y0.5929  
G01 X-0.1012 Y0.5851  
G01 X-0.1037 Y0.5777  
G01 X-0.1072 Y0.5706  
G01 X-0.1119 Y0.5643  
G01 X-0.1174 Y0.5587  
G01 X-0.1238 Y0.5541  
G01 X-0.1270 Y0.5525  
G01 X-0.1270 Y0.5477  
G01 X-0.1279 Y0.5433  
G01 X-0.1296 Y0.5391  
G01 X-0.1321 Y0.5353  
G00 Z0.0500  
G00 X-0.1321 Y0.8978  
G01 Z-0.0030 F10    
G01 X-0.1353 Y0.8946  F20    
G01 X-0.1391 Y0.8921  
G01 X-0.1433 Y0.8904  
G01 X-0.1477 Y0.8895  
G01 X-0.5738 Y0.8895  
G01 X-0.5863 Y0.8770  
G01 X-0.6137 Y0.8770  
G01 X-0.6330 Y0.8963  
G01 X-0.6330 Y0.9237  
G01 X-0.6137 Y0.9430  
G01 X-0.5863 Y0.9430  
G01 X-0.5788 Y0.9355  
G01 X-0.1917 Y0.9355  
G01 X-0.1928 Y0.9369  
G01 X-0.1963 Y0.9440  
G01 X-0.1988 Y0.9514  
G01 X-0.2000 Y0.9592  
G01 X-0.2000 Y0.9671  
G01 X-0.1988 Y0.9749  
G01 X-0.1963 Y0.9823  
G01 X-0.1928 Y0.9894  
G01 X-0.1881 Y0.9957  
G01 X-0.1826 Y1.0013  
G01 X-0.1762 Y1.0059  
G01 X-0.1692 Y1.0095  
G01 X-0.1617 Y1.0119  
G01 X-0.1539 Y1.0131  
G01 X-0.1461 Y1.0131  
G01 X-0.1383 Y1.0119  
G01 X-0.1308 Y1.0095  
G01 X-0.1238 Y1.0059  
G01 X-0.1174 Y1.0013  
G01 X-0.1119 Y0.9957  
G01 X-0.1072 Y0.9894  
G01 X-0.1037 Y0.9823  
G01 X-0.1012 Y0.9749  
G01 X-0.1000 Y0.9671  
G01 X-0.1000 Y0.9592  
G01 X-0.1012 Y0.9514  
G01 X-0.1037 Y0.9440  
G01 X-0.1072 Y0.9369  
G01 X-0.1119 Y0.9306  
G01 X-0.1174 Y0.9250  
G01 X-0.1238 Y0.9204  
G01 X-0.1270 Y0.9188  
G01 X-0.1270 Y0.9102  
G01 X-0.1279 Y0.9058  
G01 X-0.1296 Y0.9016  
G01 X-0.1321 Y0.8978  
G00 Z0.0500  
G00 X-0.1308 Y1.1137  
G01 Z-0.0030 F10    
G01 X-0.1383 Y1.1112  F20    
G01 X-0.1461 Y1.1100  
G01 X-0.1539 Y1.1100  
G01 X-0.1617 Y1.1112  
G01 X-0.1692 Y1.1137  
G01 X-0.1762 Y1.1172  
G01 X-0.1826 Y1.1219  
G01 X-0.1881 Y1.1274  
G01 X-0.1928 Y1.1338  
G01 X-0.1957 Y1.1395  
G01 X-0.4238 Y1.1395  
G01 X-0.4363 Y1.1270  
G01 X-0.4637 Y1.1270  
G01 X-0.4830 Y1.1463  
G01 X-0.4830 Y1.1737  
G01 X-0.4637 Y1.1930  
G01 X-0.4363 Y1.1930  
G01 X-0.4288 Y1.1855  
G01 X-0.1931 Y1.1855  
G01 X-0.1928 Y1.1862  
G01 X-0.1881 Y1.1926  
G01 X-0.1826 Y1.1981  
G01 X-0.1762 Y1.2028  
G01 X-0.1692 Y1.2063  
G01 X-0.1617 Y1.2088  
G01 X-0.1539 Y1.2100  
G01 X-0.1461 Y1.2100  
G01 X-0.1383 Y1.2088  
G01 X-0.1308 Y1.2063  
G01 X-0.1238 Y1.2028  
G01 X-0.1174 Y1.1981  
G01 X-0.1119 Y1.1926  
G01 X-0.1072 Y1.1862  
G01 X-0.1037 Y1.1792  
G01 X-0.1012 Y1.1717  
G01 X-0.1000 Y1.1639  
G01 X-0.1000 Y1.1561  
G01 X-0.1012 Y1.1483  
G01 X-0.1037 Y1.1408  
G01 X-0.1072 Y1.1338  
G01 X-0.1119 Y1.1274  
G01 X-0.1174 Y1.1219  
G01 X-0.1238 Y1.1172  
G01 X-0.1308 Y1.1137  
G00 Z0.0500  
G00 X-0.4363 Y1.0430  
G01 Z-0.0030 F10    
G01 X-0.4170 Y1.0237  F20    
G01 X-0.4170 Y0.9963  
G01 X-0.4363 Y0.9770  
G01 X-0.4637 Y0.9770  
G01 X-0.4830 Y0.9963  
G01 X-0.4830 Y1.0130  
G01 X-0.5272 Y1.0571  
G01 X-0.5304 Y1.0603  
G01 X-0.5329 Y1.0641  
G01 X-0.5346 Y1.0683  
G01 X-0.5355 Y1.0727  
G01 X-0.5355 Y1.3898  
G01 X-0.5346 Y1.3942  
G01 X-0.5329 Y1.3984  
G01 X-0.5304 Y1.4022  
G01 X-0.4830 Y1.4495  
G01 X-0.4830 Y1.4505  
G01 X-0.6845 Y1.6520  
G01 X-0.8898 Y1.6520  
G01 X-0.8942 Y1.6529  
G01 X-0.8984 Y1.6546  
G01 X-0.9022 Y1.6571  
G01 X-0.9054 Y1.6603  
G01 X-0.9079 Y1.6641  
G01 X-0.9096 Y1.6683  
G01 X-0.9105 Y1.6727  
G01 X-0.9105 Y1.7786  
G01 X-0.9156 Y1.7808  
G01 X-0.9210 Y1.7844  
G01 X-0.9256 Y1.7890  
G01 X-0.9292 Y1.7944  
G01 X-0.9317 Y1.8004  
G01 X-0.9330 Y1.8067  
G01 X-0.9330 Y1.8133  
G01 X-0.9328 Y1.8140  
G01 X-0.9346 Y1.8183  
G01 X-0.9355 Y1.8227  
G01 X-0.9355 Y1.9898  
G01 X-0.9346 Y1.9942  
G01 X-0.9329 Y1.9984  
G01 X-0.9304 Y2.0022  
G01 X-0.8855 Y2.0470  
G01 X-0.8855 Y2.0488  
G01 X-0.9030 Y2.0663  
G01 X-0.9030 Y2.0937  
G01 X-0.8837 Y2.1130  
G01 X-0.8563 Y2.1130  
G01 X-0.8370 Y2.0937  
G01 X-0.8370 Y2.0730  
G01 X-0.7605 Y2.0730  
G01 X-0.7605 Y2.1523  
G01 X-0.7596 Y2.1567  
G01 X-0.7579 Y2.1609  
G01 X-0.7554 Y2.1647  
G01 X-0.7522 Y2.1679  
G01 X-0.7105 Y2.2095  
G01 X-0.7105 Y2.2138  
G01 X-0.7230 Y2.2263  
G01 X-0.7230 Y2.2537  
G01 X-0.7037 Y2.2730  
G01 X-0.6763 Y2.2730  
G01 X-0.6570 Y2.2537  
G01 X-0.6570 Y2.2355  
G01 X-0.5212 Y2.2355  
G01 X-0.5137 Y2.2430  
G01 X-0.4863 Y2.2430  
G01 X-0.4670 Y2.2237  
G01 X-0.4670 Y2.1963  
G01 X-0.4863 Y2.1770  
G01 X-0.5137 Y2.1770  
G01 X-0.5262 Y2.1895  
G01 X-0.6670 Y2.1895  
G01 X-0.6671 Y2.1891  
G01 X-0.6696 Y2.1853  
G01 X-0.6728 Y2.1821  
G01 X-0.7145 Y2.1405  
G01 X-0.7145 Y2.0712  
G01 X-0.6970 Y2.0537  
G01 X-0.6970 Y2.0263  
G01 X-0.7163 Y2.0070  
G01 X-0.7437 Y2.0070  
G01 X-0.7630 Y2.0263  
G01 X-0.7630 Y2.0270  
G01 X-0.8420 Y2.0270  
G01 X-0.8421 Y2.0266  
G01 X-0.8446 Y2.0228  
G01 X-0.8478 Y2.0196  
G01 X-0.8895 Y1.9780  
G01 X-0.8895 Y1.8414  
G01 X-0.8844 Y1.8392  
G01 X-0.8790 Y1.8356  
G01 X-0.8744 Y1.8310  
G01 X-0.8708 Y1.8256  
G01 X-0.8683 Y1.8196  
G01 X-0.8670 Y1.8133  
G01 X-0.8670 Y1.8106  
G01 X-0.8667 Y1.8100  
G01 X-0.8663 Y1.8091  
G01 X-0.8659 Y1.8079  
G01 X-0.8654 Y1.8067  
G01 X-0.8652 Y1.8057  
G01 X-0.8649 Y1.8048  
G01 X-0.8647 Y1.8035  
G01 X-0.8645 Y1.8023  
G01 X-0.8645 Y1.8013  
G01 X-0.8644 Y1.8003  
G01 X-0.8645 Y1.7990  
G01 X-0.8645 Y1.6980  
G01 X-0.6727 Y1.6980  
G01 X-0.6683 Y1.6971  
G01 X-0.6641 Y1.6954  
G01 X-0.6603 Y1.6929  
G01 X-0.6571 Y1.6897  
G01 X-0.4605 Y1.4930  
G01 X-0.4363 Y1.4930  
G01 X-0.4170 Y1.4737  
G01 X-0.4170 Y1.4463  
G01 X-0.4363 Y1.4270  
G01 X-0.4405 Y1.4270  
G01 X-0.4895 Y1.3780  
G01 X-0.4895 Y1.0845  
G01 X-0.4480 Y1.0430  
G01 X-0.4363 Y1.0430  
G00 Z0.0500  
G00 X-0.5670 Y1.0463  
G01 Z-0.0030 F10    
G01 X-0.5863 Y1.0270  F20    
G01 X-0.6137 Y1.0270  
G01 X-0.6330 Y1.0463  
G01 X-0.6330 Y1.0630  
G01 X-0.6647 Y1.0946  
G01 X-0.6679 Y1.0978  
G01 X-0.6704 Y1.1016  
G01 X-0.6721 Y1.1058  
G01 X-0.6730 Y1.1102  
G01 X-0.6730 Y1.1863  
G01 X-0.6830 Y1.1963  
G01 X-0.6830 Y1.2237  
G01 X-0.6730 Y1.2337  
G01 X-0.6730 Y1.2905  
G01 X-0.7095 Y1.3270  
G01 X-0.7137 Y1.3270  
G01 X-0.7330 Y1.3463  
G01 X-0.7330 Y1.3737  
G01 X-0.7137 Y1.3930  
G01 X-0.6863 Y1.3930  
G01 X-0.6670 Y1.3737  
G01 X-0.6670 Y1.3495  
G01 X-0.6605 Y1.3430  
G01 X-0.6605 Y1.5280  
G01 X-0.6679 Y1.5353  
G01 X-0.6704 Y1.5391  
G01 X-0.6721 Y1.5433  
G01 X-0.6730 Y1.5477  
G01 X-0.6730 Y1.5520  
G01 X-0.7280 Y1.5520  
G01 X-0.7670 Y1.5130  
G01 X-0.7670 Y1.5067  
G01 X-0.7683 Y1.5004  
G01 X-0.7708 Y1.4944  
G01 X-0.7744 Y1.4890  
G01 X-0.7790 Y1.4844  
G01 X-0.7844 Y1.4808  
G01 X-0.7904 Y1.4783  
G01 X-0.7967 Y1.4770  
G01 X-0.8033 Y1.4770  
G01 X-0.8096 Y1.4783  
G01 X-0.8156 Y1.4808  
G01 X-0.8210 Y1.4844  
G01 X-0.8256 Y1.4890  
G01 X-0.8292 Y1.4944  
G01 X-0.8317 Y1.5004  
G01 X-0.8330 Y1.5067  
G01 X-0.8330 Y1.5133  
G01 X-0.8317 Y1.5196  
G01 X-0.8292 Y1.5256  
G01 X-0.8256 Y1.5310  
G01 X-0.8210 Y1.5356  
G01 X-0.8156 Y1.5392  
G01 X-0.8096 Y1.5417  
G01 X-0.8033 Y1.5430  
G01 X-0.8020 Y1.5430  
G01 X-0.7554 Y1.5897  
G01 X-0.7522 Y1.5929  
G01 X-0.7484 Y1.5954  
G01 X-0.7442 Y1.5971  
G01 X-0.7398 Y1.5980  
G01 X-0.6477 Y1.5980  
G01 X-0.6433 Y1.5971  
G01 X-0.6391 Y1.5954  
G01 X-0.6353 Y1.5929  
G01 X-0.6321 Y1.5897  
G01 X-0.6296 Y1.5859  
G01 X-0.6279 Y1.5817  
G01 X-0.6270 Y1.5773  
G01 X-0.6270 Y1.5595  
G01 X-0.6228 Y1.5554  
G01 X-0.6196 Y1.5522  
G01 X-0.6171 Y1.5484  
G01 X-0.6154 Y1.5442  
G01 X-0.6145 Y1.5398  
G01 X-0.6145 Y1.2977  
G01 X-0.6154 Y1.2933  
G01 X-0.6171 Y1.2891  
G01 X-0.6196 Y1.2853  
G01 X-0.6228 Y1.2821  
G01 X-0.6266 Y1.2796  
G01 X-0.6270 Y1.2795  
G01 X-0.6270 Y1.2337  
G01 X-0.6170 Y1.2237  
G01 X-0.6170 Y1.1963  
G01 X-0.6270 Y1.1863  
G01 X-0.6270 Y1.1220  
G01 X-0.5980 Y1.0930  
G01 X-0.5863 Y1.0930  
G01 X-0.5670 Y1.0737  
G01 X-0.5670 Y1.0463  
G00 Z0.0500  
G00 X-0.8670 Y1.0463  
G01 Z-0.0030 F10    
G01 X-0.8863 Y1.0270  F20    
G01 X-0.9137 Y1.0270  
G01 X-0.9330 Y1.0463  
G01 X-0.9330 Y1.0737  
G01 X-0.9137 Y1.0930  
G01 X-0.9020 Y1.0930  
G01 X-0.8730 Y1.1220  
G01 X-0.8730 Y1.1770  
G01 X-0.9763 Y1.1770  
G01 X-0.9863 Y1.1670  
G01 X-1.0137 Y1.1670  
G01 X-1.0330 Y1.1863  
G01 X-1.0330 Y1.2137  
G01 X-1.0137 Y1.2330  
G01 X-0.9863 Y1.2330  
G01 X-0.9763 Y1.2230  
G01 X-0.8830 Y1.2230  
G01 X-0.8830 Y1.2237  
G01 X-0.8730 Y1.2337  
G01 X-0.8730 Y1.4405  
G01 X-0.9116 Y1.4791  
G01 X-0.9156 Y1.4808  
G01 X-0.9210 Y1.4844  
G01 X-0.9256 Y1.4890  
G01 X-0.9292 Y1.4944  
G01 X-0.9317 Y1.5004  
G01 X-0.9330 Y1.5067  
G01 X-0.9330 Y1.5133  
G01 X-0.9317 Y1.5196  
G01 X-0.9292 Y1.5256  
G01 X-0.9256 Y1.5310  
G01 X-0.9210 Y1.5356  
G01 X-0.9156 Y1.5392  
G01 X-0.9096 Y1.5417  
G01 X-0.9033 Y1.5430  
G01 X-0.8967 Y1.5430  
G01 X-0.8904 Y1.5417  
G01 X-0.8844 Y1.5392  
G01 X-0.8790 Y1.5356  
G01 X-0.8744 Y1.5310  
G01 X-0.8708 Y1.5256  
G01 X-0.8683 Y1.5196  
G01 X-0.8670 Y1.5133  
G01 X-0.8670 Y1.5067  
G01 X-0.8682 Y1.5007  
G01 X-0.8353 Y1.4679  
G01 X-0.8321 Y1.4647  
G01 X-0.8296 Y1.4609  
G01 X-0.8279 Y1.4567  
G01 X-0.8270 Y1.4523  
G01 X-0.8270 Y1.2337  
G01 X-0.8170 Y1.2237  
G01 X-0.8170 Y1.1963  
G01 X-0.8270 Y1.1863  
G01 X-0.8270 Y1.1102  
G01 X-0.8279 Y1.1058  
G01 X-0.8296 Y1.1016  
G01 X-0.8321 Y1.0978  
G01 X-0.8353 Y1.0946  
G01 X-0.8670 Y1.0630  
G01 X-0.8670 Y1.0463  
G00 Z0.0500  
G00 X-0.8705 Y0.9295  
G01 Z-0.0030 F10    
G01 X-0.8295 Y0.9295  F20    
G01 X-0.8005 Y0.9005  
G01 X-0.8005 Y0.8595  
G01 X-0.8295 Y0.8305  
G01 X-0.8705 Y0.8305  
G01 X-0.8995 Y0.8595  
G01 X-0.8995 Y0.8770  
G01 X-0.9763 Y0.8770  
G01 X-0.9863 Y0.8670  
G01 X-1.0137 Y0.8670  
G01 X-1.0330 Y0.8863  
G01 X-1.0330 Y0.9137  
G01 X-1.0137 Y0.9330  
G01 X-0.9863 Y0.9330  
G01 X-0.9763 Y0.9230  
G01 X-0.8770 Y0.9230  
G01 X-0.8705 Y0.9295  
G00 Z0.0500  
G00 X-0.9196 Y1.3103  
G01 Z-0.0030 F10    
G01 X-0.9571 Y1.2728  F20    
G01 X-0.9603 Y1.2696  
G01 X-0.9641 Y1.2671  
G01 X-0.9683 Y1.2654  
G01 X-0.9727 Y1.2645  
G01 X-1.1273 Y1.2645  
G01 X-1.1317 Y1.2654  
G01 X-1.1359 Y1.2671  
G01 X-1.1397 Y1.2696  
G01 X-1.1429 Y1.2728  
G01 X-1.1454 Y1.2766  
G01 X-1.1471 Y1.2808  
G01 X-1.1480 Y1.2852  
G01 X-1.1480 Y1.3713  
G01 X-1.1630 Y1.3863  
G01 X-1.1630 Y1.4055  
G01 X-1.3397 Y1.5821  
G01 X-1.3429 Y1.5853  
G01 X-1.3454 Y1.5891  
G01 X-1.3471 Y1.5933  
G01 X-1.3480 Y1.5977  
G01 X-1.3480 Y2.3523  
G01 X-1.3471 Y2.3567  
G01 X-1.3454 Y2.3609  
G01 X-1.3429 Y2.3647  
G01 X-1.2785 Y2.4290  
G01 X-1.2785 Y2.4338  
G01 X-1.2770 Y2.4412  
G01 X-1.2741 Y2.4482  
G01 X-1.2699 Y2.4545  
G01 X-1.2645 Y2.4599  
G01 X-1.2582 Y2.4641  
G01 X-1.2512 Y2.4670  
G01 X-1.2438 Y2.4685  
G01 X-1.2390 Y2.4685  
G01 X-1.2355 Y2.4720  
G01 X-1.2355 Y2.5640  
G01 X-1.2377 Y2.5657  
G01 X-1.2427 Y2.5707  
G01 X-1.2469 Y2.5764  
G01 X-1.2501 Y2.5827  
G01 X-1.2523 Y2.5895  
G01 X-1.2534 Y2.5965  
G01 X-1.2534 Y2.6035  
G01 X-1.2523 Y2.6105  
G01 X-1.2501 Y2.6173  
G01 X-1.2469 Y2.6236  
G01 X-1.2427 Y2.6293  
G01 X-1.2377 Y2.6343  
G01 X-1.2320 Y2.6385  
G01 X-1.2257 Y2.6417  
G01 X-1.2190 Y2.6439  
G01 X-1.2120 Y2.6450  
G01 X-1.2049 Y2.6450  
G01 X-1.1979 Y2.6439  
G01 X-1.1912 Y2.6417  
G01 X-1.1848 Y2.6385  
G01 X-1.1791 Y2.6343  
G01 X-1.1741 Y2.6293  
G01 X-1.1699 Y2.6236  
G01 X-1.1667 Y2.6173  
G01 X-1.1645 Y2.6105  
G01 X-1.1634 Y2.6035  
G01 X-1.1634 Y2.5965  
G01 X-1.1645 Y2.5895  
G01 X-1.1667 Y2.5827  
G01 X-1.1699 Y2.5764  
G01 X-1.1741 Y2.5707  
G01 X-1.1791 Y2.5657  
G01 X-1.1848 Y2.5615  
G01 X-1.1895 Y2.5591  
G01 X-1.1895 Y2.4602  
G01 X-1.1904 Y2.4558  
G01 X-1.1921 Y2.4516  
G01 X-1.1946 Y2.4478  
G01 X-1.1978 Y2.4446  
G01 X-1.2027 Y2.4398  
G01 X-1.2015 Y2.4338  
G01 X-1.2015 Y2.4262  
G01 X-1.2030 Y2.4188  
G01 X-1.2059 Y2.4118  
G01 X-1.2101 Y2.4055  
G01 X-1.2155 Y2.4001  
G01 X-1.2218 Y2.3959  
G01 X-1.2288 Y2.3930  
G01 X-1.2362 Y2.3915  
G01 X-1.2438 Y2.3915  
G01 X-1.2498 Y2.3927  
G01 X-1.3020 Y2.3405  
G01 X-1.3020 Y1.6095  
G01 X-1.1255 Y1.4330  
G01 X-1.1163 Y1.4330  
G01 X-1.0970 Y1.4137  
G01 X-1.0970 Y1.3863  
G01 X-1.1020 Y1.3813  
G01 X-1.1020 Y1.3105  
G01 X-0.9845 Y1.3105  
G01 X-0.9605 Y1.3345  
G01 X-0.9605 Y1.4280  
G01 X-1.0116 Y1.4791  
G01 X-1.0156 Y1.4808  
G01 X-1.0210 Y1.4844  
G01 X-1.0256 Y1.4890  
G01 X-1.0292 Y1.4944  
G01 X-1.0317 Y1.5004  
G01 X-1.0330 Y1.5067  
G01 X-1.0330 Y1.5133  
G01 X-1.0317 Y1.5196  
G01 X-1.0292 Y1.5256  
G01 X-1.0256 Y1.5310  
G01 X-1.0210 Y1.5356  
G01 X-1.0156 Y1.5392  
G01 X-1.0096 Y1.5417  
G01 X-1.0033 Y1.5430  
G01 X-0.9967 Y1.5430  
G01 X-0.9904 Y1.5417  
G01 X-0.9844 Y1.5392  
G01 X-0.9790 Y1.5356  
G01 X-0.9744 Y1.5310  
G01 X-0.9708 Y1.5256  
G01 X-0.9683 Y1.5196  
G01 X-0.9670 Y1.5133  
G01 X-0.9670 Y1.5067  
G01 X-0.9682 Y1.5007  
G01 X-0.9228 Y1.4554  
G01 X-0.9196 Y1.4522  
G01 X-0.9171 Y1.4484  
G01 X-0.9154 Y1.4442  
G01 X-0.9145 Y1.4398  
G01 X-0.9145 Y1.3227  
G01 X-0.9154 Y1.3183  
G01 X-0.9171 Y1.3141  
G01 X-0.9196 Y1.3103  
G00 Z0.0500  
G00 X-0.9670 Y1.3463  
G01 Z-0.0030 F10    
G01 X-0.9863 Y1.3270  F20    
G01 X-1.0137 Y1.3270  
G01 X-1.0330 Y1.3463  
G01 X-1.0330 Y1.3630  
G01 X-1.0772 Y1.4071  
G01 X-1.0804 Y1.4103  
G01 X-1.0829 Y1.4141  
G01 X-1.0846 Y1.4183  
G01 X-1.0855 Y1.4227  
G01 X-1.0855 Y1.6523  
G01 X-1.0846 Y1.6567  
G01 X-1.0829 Y1.6609  
G01 X-1.0804 Y1.6647  
G01 X-1.0230 Y1.7220  
G01 X-1.0230 Y1.7863  
G01 X-1.0256 Y1.7890  
G01 X-1.0292 Y1.7944  
G01 X-1.0317 Y1.8004  
G01 X-1.0330 Y1.8067  
G01 X-1.0330 Y1.8133  
G01 X-1.0317 Y1.8196  
G01 X-1.0292 Y1.8256  
G01 X-1.0256 Y1.8310  
G01 X-1.0230 Y1.8337  
G01 X-1.0230 Y2.0030  
G01 X-1.0670 Y2.0470  
G01 X-1.0837 Y2.0470  
G01 X-1.1012 Y2.0645  
G01 X-1.1898 Y2.0645  
G01 X-1.1942 Y2.0654  
G01 X-1.1984 Y2.0671  
G01 X-1.2022 Y2.0696  
G01 X-1.2054 Y2.0728  
G01 X-1.2079 Y2.0766  
G01 X-1.2096 Y2.0808  
G01 X-1.2105 Y2.0852  
G01 X-1.2105 Y2.1238  
G01 X-1.2230 Y2.1363  
G01 X-1.2230 Y2.1637  
G01 X-1.2037 Y2.1830  
G01 X-1.1763 Y2.1830  
G01 X-1.1570 Y2.1637  
G01 X-1.1570 Y2.1363  
G01 X-1.1645 Y2.1288  
G01 X-1.1645 Y2.1105  
G01 X-1.0980 Y2.1105  
G01 X-1.0980 Y2.1648  
G01 X-1.0971 Y2.1692  
G01 X-1.0954 Y2.1734  
G01 X-1.0929 Y2.1772  
G01 X-1.0897 Y2.1804  
G01 X-1.0230 Y2.2470  
G01 X-1.0230 Y2.2537  
G01 X-1.0037 Y2.2730  
G01 X-0.9763 Y2.2730  
G01 X-0.9570 Y2.2537  
G01 X-0.9570 Y2.2263  
G01 X-0.9763 Y2.2070  
G01 X-0.9980 Y2.2070  
G01 X-1.0520 Y2.1530  
G01 X-1.0520 Y2.1087  
G01 X-1.0370 Y2.0937  
G01 X-1.0370 Y2.0820  
G01 X-0.9853 Y2.0304  
G01 X-0.9821 Y2.0272  
G01 X-0.9796 Y2.0234  
G01 X-0.9779 Y2.0192  
G01 X-0.9770 Y2.0148  
G01 X-0.9770 Y1.8337  
G01 X-0.9744 Y1.8310  
G01 X-0.9708 Y1.8256  
G01 X-0.9683 Y1.8196  
G01 X-0.9670 Y1.8133  
G01 X-0.9670 Y1.8067  
G01 X-0.9683 Y1.8004  
G01 X-0.9708 Y1.7944  
G01 X-0.9744 Y1.7890  
G01 X-0.9770 Y1.7863  
G01 X-0.9770 Y1.7102  
G01 X-0.9779 Y1.7058  
G01 X-0.9796 Y1.7016  
G01 X-0.9821 Y1.6978  
G01 X-0.9853 Y1.6946  
G01 X-1.0395 Y1.6405  
G01 X-1.0395 Y1.4345  
G01 X-0.9980 Y1.3930  
G01 X-0.9863 Y1.3930  
G01 X-0.9670 Y1.3737  
G01 X-0.9670 Y1.3463  
G00 Z0.0500  
G00 X-1.1405 Y1.6995  
G01 Z-0.0030 F10    
G01 X-1.1695 Y1.6705  F20    
G01 X-1.2105 Y1.6705  
G01 X-1.2395 Y1.6995  
G01 X-1.2395 Y1.7405  
G01 X-1.2230 Y1.7570  
G01 X-1.2230 Y1.8637  
G01 X-1.2037 Y1.8830  
G01 X-1.1763 Y1.8830  
G01 X-1.1570 Y1.8637  
G01 X-1.1570 Y1.8363  
G01 X-1.1763 Y1.8170  
G01 X-1.1770 Y1.8170  
G01 X-1.1770 Y1.7695  
G01 X-1.1695 Y1.7695  
G01 X-1.1405 Y1.7405  
G01 X-1.1405 Y1.6995  
G00 Z0.0500  
G00 X-0.7210 Y1.7844  
G01 Z-0.0030 F10    
G01 X-0.7256 Y1.7890  F20    
G01 X-0.7292 Y1.7944  
G01 X-0.7317 Y1.8004  
G01 X-0.7330 Y1.8067  
G01 X-0.7330 Y1.8133  
G01 X-0.7317 Y1.8196  
G01 X-0.7292 Y1.8256  
G01 X-0.7256 Y1.8310  
G01 X-0.7230 Y1.8337  
G01 X-0.7230 Y1.8648  
G01 X-0.7221 Y1.8692  
G01 X-0.7204 Y1.8734  
G01 X-0.7179 Y1.8772  
G01 X-0.7147 Y1.8804  
G01 X-0.6730 Y1.9220  
G01 X-0.6730 Y1.9337  
G01 X-0.6537 Y1.9530  
G01 X-0.6263 Y1.9530  
G01 X-0.6213 Y1.9480  
G01 X-0.3852 Y1.9480  
G01 X-0.3808 Y1.9471  
G01 X-0.3766 Y1.9454  
G01 X-0.3728 Y1.9429  
G01 X-0.2905 Y1.8605  
G01 X-0.0855 Y1.8605  
G01 X-0.0855 Y2.1405  
G01 X-0.3595 Y2.4145  
G01 X-0.7211 Y2.4145  
G01 X-0.7341 Y2.4015  
G01 X-0.7659 Y2.4015  
G01 X-0.7885 Y2.4241  
G01 X-0.7885 Y2.4559  
G01 X-0.7659 Y2.4785  
G01 X-0.7540 Y2.4785  
G01 X-0.6521 Y2.5804  
G01 X-0.6533 Y2.5827  
G01 X-0.6555 Y2.5895  
G01 X-0.6566 Y2.5965  
G01 X-0.6566 Y2.6035  
G01 X-0.6555 Y2.6105  
G01 X-0.6533 Y2.6173  
G01 X-0.6501 Y2.6236  
G01 X-0.6459 Y2.6293  
G01 X-0.6409 Y2.6343  
G01 X-0.6352 Y2.6385  
G01 X-0.6288 Y2.6417  
G01 X-0.6221 Y2.6439  
G01 X-0.6151 Y2.6450  
G01 X-0.6080 Y2.6450  
G01 X-0.6010 Y2.6439  
G01 X-0.5943 Y2.6417  
G01 X-0.5880 Y2.6385  
G01 X-0.5823 Y2.6343  
G01 X-0.5773 Y2.6293  
G01 X-0.5731 Y2.6236  
G01 X-0.5699 Y2.6173  
G01 X-0.5677 Y2.6105  
G01 X-0.5666 Y2.6035  
G01 X-0.5666 Y2.5965  
G01 X-0.5677 Y2.5895  
G01 X-0.5699 Y2.5827  
G01 X-0.5731 Y2.5764  
G01 X-0.5773 Y2.5707  
G01 X-0.5823 Y2.5657  
G01 X-0.5880 Y2.5615  
G01 X-0.5943 Y2.5583  
G01 X-0.6010 Y2.5561  
G01 X-0.6080 Y2.5550  
G01 X-0.6125 Y2.5550  
G01 X-0.7070 Y2.4605  
G01 X-0.3477 Y2.4605  
G01 X-0.3433 Y2.4596  
G01 X-0.3391 Y2.4579  
G01 X-0.3353 Y2.4554  
G01 X-0.3321 Y2.4522  
G01 X-0.0446 Y2.1647  
G01 X-0.0421 Y2.1609  
G01 X-0.0404 Y2.1567  
G01 X-0.0395 Y2.1523  
G01 X-0.0395 Y1.8352  
G01 X-0.0404 Y1.8308  
G01 X-0.0421 Y1.8266  
G01 X-0.0446 Y1.8228  
G01 X-0.0478 Y1.8196  
G01 X-0.0516 Y1.8171  
G01 X-0.0558 Y1.8154  
G01 X-0.0602 Y1.8145  
G01 X-0.3023 Y1.8145  
G01 X-0.3067 Y1.8154  
G01 X-0.3109 Y1.8171  
G01 X-0.3147 Y1.8196  
G01 X-0.3179 Y1.8228  
G01 X-0.3970 Y1.9020  
G01 X-0.6113 Y1.9020  
G01 X-0.6263 Y1.8870  
G01 X-0.6430 Y1.8870  
G01 X-0.6770 Y1.8530  
G01 X-0.6770 Y1.8337  
G01 X-0.6744 Y1.8310  
G01 X-0.6708 Y1.8256  
G01 X-0.6683 Y1.8196  
G01 X-0.6670 Y1.8133  
G01 X-0.6670 Y1.8067  
G01 X-0.6683 Y1.8004  
G01 X-0.6708 Y1.7944  
G01 X-0.6744 Y1.7890  
G01 X-0.6790 Y1.7844  
G01 X-0.6844 Y1.7808  
G01 X-0.6904 Y1.7783  
G01 X-0.6967 Y1.7770  
G01 X-0.7033 Y1.7770  
G01 X-0.7096 Y1.7783  
G01 X-0.7156 Y1.7808  
G01 X-0.7210 Y1.7844  
G00 Z0.0500  
G00 X-0.5795 Y1.7805  
G01 Z-0.0030 F10    
G01 X-0.5505 Y1.8095  F20    
G01 X-0.5105 Y1.8095  
G01 X-0.4630 Y1.8570  
G01 X-0.4630 Y1.8737  
G01 X-0.4437 Y1.8930  
G01 X-0.4163 Y1.8930  
G01 X-0.3970 Y1.8737  
G01 X-0.3970 Y1.8463  
G01 X-0.4163 Y1.8270  
G01 X-0.4280 Y1.8270  
G01 X-0.4805 Y1.7745  
G01 X-0.4805 Y1.7395  
G01 X-0.5095 Y1.7105  
G01 X-0.5505 Y1.7105  
G01 X-0.5795 Y1.7395  
G01 X-0.5795 Y1.7805  
G00 Z0.0500  
G00 X-0.4630 Y1.6737  
G01 Z-0.0030 F10    
G01 X-0.4437 Y1.6930  F20    
G01 X-0.4163 Y1.6930  
G01 X-0.4088 Y1.6855  
G01 X-0.1831 Y1.6855  
G01 X-0.1881 Y1.6906  
G01 X-0.1928 Y1.6969  
G01 X-0.1963 Y1.7040  
G01 X-0.1988 Y1.7114  
G01 X-0.2000 Y1.7192  
G01 X-0.2000 Y1.7271  
G01 X-0.1988 Y1.7349  
G01 X-0.1963 Y1.7423  
G01 X-0.1928 Y1.7494  
G01 X-0.1881 Y1.7557  
G01 X-0.1826 Y1.7613  
G01 X-0.1762 Y1.7659  
G01 X-0.1692 Y1.7695  
G01 X-0.1617 Y1.7719  
G01 X-0.1539 Y1.7731  
G01 X-0.1461 Y1.7731  
G01 X-0.1383 Y1.7719  
G01 X-0.1308 Y1.7695  
G01 X-0.1238 Y1.7659  
G01 X-0.1174 Y1.7613  
G01 X-0.1119 Y1.7557  
G01 X-0.1072 Y1.7494  
G01 X-0.1037 Y1.7423  
G01 X-0.1012 Y1.7349  
G01 X-0.1000 Y1.7271  
G01 X-0.1000 Y1.7192  
G01 X-0.1012 Y1.7114  
G01 X-0.1037 Y1.7040  
G01 X-0.1072 Y1.6969  
G01 X-0.1119 Y1.6906  
G01 X-0.1174 Y1.6850  
G01 X-0.1238 Y1.6804  
G01 X-0.1270 Y1.6788  
G01 X-0.1270 Y1.6602  
G01 X-0.1279 Y1.6558  
G01 X-0.1296 Y1.6516  
G01 X-0.1321 Y1.6478  
G01 X-0.1353 Y1.6446  
G01 X-0.1391 Y1.6421  
G01 X-0.1433 Y1.6404  
G01 X-0.1477 Y1.6395  
G01 X-0.4038 Y1.6395  
G01 X-0.4163 Y1.6270  
G01 X-0.4437 Y1.6270  
G01 X-0.4630 Y1.6463  
G01 X-0.4630 Y1.6737  
G00 Z0.0500  
G00 X-0.4437 Y2.0070  
G01 Z-0.0030 F10    
G01 X-0.4630 Y2.0263  F20    
G01 X-0.4630 Y2.0537  
G01 X-0.4437 Y2.0730  
G01 X-0.4163 Y2.0730  
G01 X-0.3970 Y2.0537  
G01 X-0.3970 Y2.0420  
G01 X-0.3030 Y1.9480  
G01 X-0.1915 Y1.9480  
G01 X-0.1881 Y1.9526  
G01 X-0.1826 Y1.9581  
G01 X-0.1762 Y1.9628  
G01 X-0.1692 Y1.9663  
G01 X-0.1617 Y1.9688  
G01 X-0.1539 Y1.9700  
G01 X-0.1461 Y1.9700  
G01 X-0.1383 Y1.9688  
G01 X-0.1308 Y1.9663  
G01 X-0.1238 Y1.9628  
G01 X-0.1174 Y1.9581  
G01 X-0.1119 Y1.9526  
G01 X-0.1072 Y1.9462  
G01 X-0.1037 Y1.9392  
G01 X-0.1012 Y1.9317  
G01 X-0.1000 Y1.9239  
G01 X-0.1000 Y1.9161  
G01 X-0.1012 Y1.9083  
G01 X-0.1037 Y1.9008  
G01 X-0.1072 Y1.8938  
G01 X-0.1119 Y1.8874  
G01 X-0.1174 Y1.8819  
G01 X-0.1238 Y1.8772  
G01 X-0.1308 Y1.8737  
G01 X-0.1383 Y1.8712  
G01 X-0.1461 Y1.8700  
G01 X-0.1539 Y1.8700  
G01 X-0.1617 Y1.8712  
G01 X-0.1692 Y1.8737  
G01 X-0.1762 Y1.8772  
G01 X-0.1826 Y1.8819  
G01 X-0.1881 Y1.8874  
G01 X-0.1928 Y1.8938  
G01 X-0.1963 Y1.9008  
G01 X-0.1967 Y1.9020  
G01 X-0.3148 Y1.9020  
G01 X-0.3192 Y1.9029  
G01 X-0.3234 Y1.9046  
G01 X-0.3272 Y1.9071  
G01 X-0.3304 Y1.9103  
G01 X-0.4270 Y2.0070  
G01 X-0.4437 Y2.0070  
G00 Z0.0500  
G00 X-0.4670 Y2.4963  
G01 Z-0.0030 F10    
G01 X-0.4863 Y2.4770  F20    
G01 X-0.5137 Y2.4770  
G01 X-0.5330 Y2.4963  
G01 X-0.5330 Y2.5237  
G01 X-0.5230 Y2.5337  
G01 X-0.5230 Y2.6148  
G01 X-0.5221 Y2.6192  
G01 X-0.5204 Y2.6234  
G01 X-0.5179 Y2.6272  
G01 X-0.4554 Y2.6897  
G01 X-0.4522 Y2.6929  
G01 X-0.4484 Y2.6954  
G01 X-0.4442 Y2.6971  
G01 X-0.4398 Y2.6980  
G01 X-0.1967 Y2.6980  
G01 X-0.1963 Y2.6992  
G01 X-0.1928 Y2.7062  
G01 X-0.1881 Y2.7126  
G01 X-0.1826 Y2.7181  
G01 X-0.1762 Y2.7228  
G01 X-0.1692 Y2.7263  
G01 X-0.1617 Y2.7288  
G01 X-0.1539 Y2.7300  
G01 X-0.1461 Y2.7300  
G01 X-0.1383 Y2.7288  
G01 X-0.1308 Y2.7263  
G01 X-0.1238 Y2.7228  
G01 X-0.1174 Y2.7181  
G01 X-0.1119 Y2.7126  
G01 X-0.1072 Y2.7062  
G01 X-0.1037 Y2.6992  
G01 X-0.1012 Y2.6917  
G01 X-0.1000 Y2.6839  
G01 X-0.1000 Y2.6761  
G01 X-0.1012 Y2.6683  
G01 X-0.1037 Y2.6608  
G01 X-0.1072 Y2.6538  
G01 X-0.1119 Y2.6474  
G01 X-0.1174 Y2.6419  
G01 X-0.1238 Y2.6372  
G01 X-0.1308 Y2.6337  
G01 X-0.1383 Y2.6312  
G01 X-0.1461 Y2.6300  
G01 X-0.1539 Y2.6300  
G01 X-0.1617 Y2.6312  
G01 X-0.1692 Y2.6337  
G01 X-0.1762 Y2.6372  
G01 X-0.1826 Y2.6419  
G01 X-0.1881 Y2.6474  
G01 X-0.1915 Y2.6520  
G01 X-0.4280 Y2.6520  
G01 X-0.4770 Y2.6030  
G01 X-0.4770 Y2.5337  
G01 X-0.4670 Y2.5237  
G01 X-0.4670 Y2.4963  
G00 Z0.0500  
G00 X-0.4437 Y2.5570  
G01 Z-0.0030 F10    
G01 X-0.4630 Y2.5763  F20    
G01 X-0.4630 Y2.6037  
G01 X-0.4437 Y2.6230  
G01 X-0.4163 Y2.6230  
G01 X-0.4038 Y2.6105  
G01 X-0.1477 Y2.6105  
G01 X-0.1433 Y2.6096  
G01 X-0.1391 Y2.6079  
G01 X-0.1353 Y2.6054  
G01 X-0.1321 Y2.6022  
G01 X-0.1296 Y2.5984  
G01 X-0.1279 Y2.5942  
G01 X-0.1270 Y2.5898  
G01 X-0.1270 Y2.5275  
G01 X-0.1238 Y2.5259  
G01 X-0.1174 Y2.5213  
G01 X-0.1119 Y2.5157  
G01 X-0.1072 Y2.5094  
G01 X-0.1037 Y2.5023  
G01 X-0.1012 Y2.4949  
G01 X-0.1000 Y2.4871  
G01 X-0.1000 Y2.4792  
G01 X-0.1012 Y2.4714  
G01 X-0.1037 Y2.4640  
G01 X-0.1072 Y2.4569  
G01 X-0.1119 Y2.4506  
G01 X-0.1174 Y2.4450  
G01 X-0.1238 Y2.4404  
G01 X-0.1308 Y2.4368  
G01 X-0.1383 Y2.4344  
G01 X-0.1461 Y2.4331  
G01 X-0.1539 Y2.4331  
G01 X-0.1617 Y2.4344  
G01 X-0.1692 Y2.4368  
G01 X-0.1762 Y2.4404  
G01 X-0.1826 Y2.4450  
G01 X-0.1881 Y2.4506  
G01 X-0.1928 Y2.4569  
G01 X-0.1963 Y2.4640  
G01 X-0.1988 Y2.4714  
G01 X-0.2000 Y2.4792  
G01 X-0.2000 Y2.4871  
G01 X-0.1988 Y2.4949  
G01 X-0.1963 Y2.5023  
G01 X-0.1928 Y2.5094  
G01 X-0.1881 Y2.5157  
G01 X-0.1826 Y2.5213  
G01 X-0.1762 Y2.5259  
G01 X-0.1730 Y2.5275  
G01 X-0.1730 Y2.5645  
G01 X-0.4088 Y2.5645  
G01 X-0.4163 Y2.5570  
G01 X-0.4437 Y2.5570  
G00 Z0.0500  
G00 X-0.4437 Y2.7570  
G01 Z-0.0030 F10    
G01 X-0.4630 Y2.7763  F20    
G01 X-0.4630 Y2.8037  
G01 X-0.4437 Y2.8230  
G01 X-0.4163 Y2.8230  
G01 X-0.4038 Y2.8105  
G01 X-0.3395 Y2.8105  
G01 X-0.3305 Y2.8195  
G01 X-0.2895 Y2.8195  
G01 X-0.2605 Y2.7905  
G01 X-0.2605 Y2.7495  
G01 X-0.2895 Y2.7205  
G01 X-0.3305 Y2.7205  
G01 X-0.3595 Y2.7495  
G01 X-0.3595 Y2.7645  
G01 X-0.4088 Y2.7645  
G01 X-0.4163 Y2.7570  
G01 X-0.4437 Y2.7570  
G00 Z0.0500  
G00 X-0.6270 Y2.7477  
G01 Z-0.0030 F10    
G01 X-0.6279 Y2.7433  F20    
G01 X-0.6296 Y2.7391  
G01 X-0.6321 Y2.7353  
G01 X-0.6353 Y2.7321  
G01 X-0.7635 Y2.6040  
G01 X-0.7634 Y2.6035  
G01 X-0.7634 Y2.5965  
G01 X-0.7645 Y2.5895  
G01 X-0.7667 Y2.5827  
G01 X-0.7699 Y2.5764  
G01 X-0.7741 Y2.5707  
G01 X-0.7791 Y2.5657  
G01 X-0.7848 Y2.5615  
G01 X-0.7912 Y2.5583  
G01 X-0.7979 Y2.5561  
G01 X-0.8049 Y2.5550  
G01 X-0.8120 Y2.5550  
G01 X-0.8190 Y2.5561  
G01 X-0.8257 Y2.5583  
G01 X-0.8320 Y2.5615  
G01 X-0.8377 Y2.5657  
G01 X-0.8427 Y2.5707  
G01 X-0.8469 Y2.5764  
G01 X-0.8501 Y2.5827  
G01 X-0.8523 Y2.5895  
G01 X-0.8534 Y2.5965  
G01 X-0.8534 Y2.6035  
G01 X-0.8523 Y2.6105  
G01 X-0.8501 Y2.6173  
G01 X-0.8469 Y2.6236  
G01 X-0.8427 Y2.6293  
G01 X-0.8377 Y2.6343  
G01 X-0.8320 Y2.6385  
G01 X-0.8257 Y2.6417  
G01 X-0.8190 Y2.6439  
G01 X-0.8120 Y2.6450  
G01 X-0.8049 Y2.6450  
G01 X-0.7979 Y2.6439  
G01 X-0.7912 Y2.6417  
G01 X-0.7909 Y2.6416  
G01 X-0.6730 Y2.7595  
G01 X-0.6730 Y2.8508  
G01 X-0.6840 Y2.8618  
G01 X-0.6840 Y2.8982  
G01 X-0.6730 Y2.9092  
G01 X-0.6730 Y2.9508  
G01 X-0.6840 Y2.9618  
G01 X-0.6840 Y2.9982  
G01 X-0.6582 Y3.0240  
G01 X-0.6218 Y3.0240  
G01 X-0.5960 Y2.9982  
G01 X-0.5960 Y2.9618  
G01 X-0.6218 Y2.9360  
G01 X-0.6270 Y2.9360  
G01 X-0.6270 Y2.9240  
G01 X-0.6218 Y2.9240  
G01 X-0.5960 Y2.8982  
G01 X-0.5960 Y2.8618  
G01 X-0.6218 Y2.8360  
G01 X-0.6270 Y2.8360  
G01 X-0.6270 Y2.7477  
G00 Z0.0500  
G00 X-0.9823 Y2.6343  
G01 Z-0.0030 F10    
G01 X-0.9773 Y2.6293  F20    
G01 X-0.9731 Y2.6236  
G01 X-0.9699 Y2.6173  
G01 X-0.9677 Y2.6105  
G01 X-0.9666 Y2.6035  
G01 X-0.9666 Y2.5965  
G01 X-0.9677 Y2.5895  
G01 X-0.9699 Y2.5827  
G01 X-0.9731 Y2.5764  
G01 X-0.9773 Y2.5707  
G01 X-0.9823 Y2.5657  
G01 X-0.9880 Y2.5615  
G01 X-0.9943 Y2.5583  
G01 X-1.0010 Y2.5561  
G01 X-1.0080 Y2.5550  
G01 X-1.0151 Y2.5550  
G01 X-1.0221 Y2.5561  
G01 X-1.0288 Y2.5583  
G01 X-1.0352 Y2.5615  
G01 X-1.0409 Y2.5657  
G01 X-1.0459 Y2.5707  
G01 X-1.0501 Y2.5764  
G01 X-1.0533 Y2.5827  
G01 X-1.0555 Y2.5895  
G01 X-1.0566 Y2.5965  
G01 X-1.0566 Y2.6035  
G01 X-1.0555 Y2.6105  
G01 X-1.0533 Y2.6173  
G01 X-1.0501 Y2.6236  
G01 X-1.0480 Y2.6264  
G01 X-1.0480 Y2.8360  
G01 X-1.0582 Y2.8360  
G01 X-1.0840 Y2.8618  
G01 X-1.0840 Y2.8982  
G01 X-1.0730 Y2.9092  
G01 X-1.0730 Y2.9508  
G01 X-1.0840 Y2.9618  
G01 X-1.0840 Y2.9982  
G01 X-1.0582 Y3.0240  
G01 X-1.0218 Y3.0240  
G01 X-0.9960 Y2.9982  
G01 X-0.9960 Y2.9618  
G01 X-1.0218 Y2.9360  
G01 X-1.0270 Y2.9360  
G01 X-1.0270 Y2.9240  
G01 X-1.0218 Y2.9240  
G01 X-0.9960 Y2.8982  
G01 X-0.9960 Y2.8618  
G01 X-1.0020 Y2.8558  
G01 X-1.0020 Y2.6440  
G01 X-1.0010 Y2.6439  
G01 X-0.9943 Y2.6417  
G01 X-0.9880 Y2.6385  
G01 X-0.9823 Y2.6343  
G00 Z0.0500  
G00 X-1.0960 Y2.8618  
G01 Z-0.0030 F10    
G01 X-1.1218 Y2.8360  F20    
G01 X-1.1582 Y2.8360  
G01 X-1.1840 Y2.8618  
G01 X-1.1840 Y2.8982  
G01 X-1.1582 Y2.9240  
G01 X-1.1218 Y2.9240  
G01 X-1.0960 Y2.8982  
G01 X-1.0960 Y2.8618  
G00 Z0.0500  
G00 X-1.1960 Y2.8618  
G01 Z-0.0030 F10    
G01 X-1.2218 Y2.8360  F20    
G01 X-1.2582 Y2.8360  
G01 X-1.2840 Y2.8618  
G01 X-1.2840 Y2.8982  
G01 X-1.2582 Y2.9240  
G01 X-1.2218 Y2.9240  
G01 X-1.1960 Y2.8982  
G01 X-1.1960 Y2.8618  
G00 Z0.0500  
G00 X-1.2960 Y2.8618  
G01 Z-0.0030 F10    
G01 X-1.3218 Y2.8360  F20    
G01 X-1.3582 Y2.8360  
G01 X-1.3840 Y2.8618  
G01 X-1.3840 Y2.8982  
G01 X-1.3582 Y2.9240  
G01 X-1.3218 Y2.9240  
G01 X-1.2960 Y2.8982  
G01 X-1.2960 Y2.8618  
G00 Z0.0500  
G00 X-1.2960 Y2.9618  
G01 Z-0.0030 F10    
G01 X-1.3218 Y2.9360  F20    
G01 X-1.3582 Y2.9360  
G01 X-1.3840 Y2.9618  
G01 X-1.3840 Y2.9982  
G01 X-1.3582 Y3.0240  
G01 X-1.3218 Y3.0240  
G01 X-1.2960 Y2.9982  
G01 X-1.2960 Y2.9618  
G00 Z0.0500  
G00 X-1.2840 Y2.9618  
G01 Z-0.0030 F10    
G01 X-1.2840 Y2.9982  F20    
G01 X-1.2582 Y3.0240  
G01 X-1.2218 Y3.0240  
G01 X-1.1960 Y2.9982  
G01 X-1.1960 Y2.9618  
G01 X-1.2218 Y2.9360  
G01 X-1.2582 Y2.9360  
G01 X-1.2840 Y2.9618  
G00 Z0.0500  
G00 X-1.1840 Y2.9618  
G01 Z-0.0030 F10    
G01 X-1.1840 Y2.9982  F20    
G01 X-1.1582 Y3.0240  
G01 X-1.1218 Y3.0240  
G01 X-1.0960 Y2.9982  
G01 X-1.0960 Y2.9618  
G01 X-1.1218 Y2.9360  
G01 X-1.1582 Y2.9360  
G01 X-1.1840 Y2.9618  
G00 Z0.0500  
G00 X-0.6330 Y0.7237  
G01 Z-0.0030 F10    
G01 X-0.6137 Y0.7430  F20    
G01 X-0.5863 Y0.7430  
G01 X-0.5670 Y0.7237  
G01 X-0.5670 Y0.6963  
G01 X-0.5770 Y0.6863  
G01 X-0.5770 Y0.6070  
G01 X-0.5505 Y0.5805  
G01 X-0.5505 Y0.5395  
G01 X-0.5795 Y0.5105  
G01 X-0.6205 Y0.5105  
G01 X-0.6495 Y0.5395  
G01 X-0.6495 Y0.5805  
G01 X-0.6230 Y0.6070  
G01 X-0.6230 Y0.6863  
G01 X-0.6330 Y0.6963  
G01 X-0.6330 Y0.7237  
G00 Z0.0500  
G00 X-0.6205 Y0.4095  
G01 Z-0.0030 F10    
G01 X-0.5795 Y0.4095  F20    
G01 X-0.5555 Y0.3855  
G01 X-0.4712 Y0.3855  
G01 X-0.4637 Y0.3930  
G01 X-0.4363 Y0.3930  
G01 X-0.4170 Y0.3737  
G01 X-0.4170 Y0.3463  
G01 X-0.4363 Y0.3270  
G01 X-0.4637 Y0.3270  
G01 X-0.4762 Y0.3395  
G01 X-0.5505 Y0.3395  
G01 X-0.5795 Y0.3105  
G01 X-0.6205 Y0.3105  
G01 X-0.6495 Y0.3395  
G01 X-0.6495 Y0.3805  
G01 X-0.6205 Y0.4095  
G00 Z0.0500  
G00 X-0.1310 Y0.1469  
G01 Z-0.0030 F10    
G01 X-0.1344 Y0.1435  F20    
G01 X-0.1384 Y0.1408  
G01 X-0.1429 Y0.1389  
G01 X-0.1476 Y0.1380  
G01 X-0.4232 Y0.1380  
G01 X-0.4357 Y0.1255  
G01 X-0.4643 Y0.1255  
G01 X-0.4845 Y0.1457  
G01 X-0.4845 Y0.1743  
G01 X-0.4643 Y0.1945  
G01 X-0.4357 Y0.1945  
G01 X-0.4282 Y0.1870  
G01 X-0.1989 Y0.1870  
G01 X-0.2002 Y0.1911  
G01 X-0.2015 Y0.1991  
G01 X-0.2015 Y0.2072  
G01 X-0.2002 Y0.2152  
G01 X-0.1977 Y0.2229  
G01 X-0.1940 Y0.2301  
G01 X-0.1893 Y0.2367  
G01 X-0.1835 Y0.2424  
G01 X-0.1770 Y0.2472  
G01 X-0.1698 Y0.2509  
G01 X-0.1621 Y0.2534  
G01 X-0.1541 Y0.2546  
G01 X-0.1459 Y0.2546  
G01 X-0.1379 Y0.2534  
G01 X-0.1302 Y0.2509  
G01 X-0.1230 Y0.2472  
G01 X-0.1164 Y0.2424  
G01 X-0.1107 Y0.2367  
G01 X-0.1060 Y0.2301  
G01 X-0.1023 Y0.2229  
G01 X-0.0998 Y0.2152  
G01 X-0.0985 Y0.2072  
G01 X-0.0985 Y0.1991  
G01 X-0.0998 Y0.1911  
G01 X-0.1023 Y0.1834  
G01 X-0.1060 Y0.1762  
G01 X-0.1107 Y0.1696  
G01 X-0.1164 Y0.1639  
G01 X-0.1230 Y0.1591  
G01 X-0.1260 Y0.1576  
G01 X-0.1264 Y0.1554  
G01 X-0.1283 Y0.1509  
G01 X-0.1310 Y0.1469  
G00 Z0.0500  
G00 X-0.1302 Y0.3523  
G01 Z-0.0030 F10    
G01 X-0.1379 Y0.3498  F20    
G01 X-0.1459 Y0.3485  
G01 X-0.1541 Y0.3485  
G01 X-0.1621 Y0.3498  
G01 X-0.1698 Y0.3523  
G01 X-0.1770 Y0.3560  
G01 X-0.1835 Y0.3607  
G01 X-0.1893 Y0.3664  
G01 X-0.1940 Y0.3730  
G01 X-0.1953 Y0.3755  
G01 X-0.2649 Y0.3755  
G01 X-0.2696 Y0.3764  
G01 X-0.2741 Y0.3783  
G01 X-0.2781 Y0.3810  
G01 X-0.2815 Y0.3844  
G01 X-0.4065 Y0.5094  
G01 X-0.4092 Y0.5134  
G01 X-0.4111 Y0.5179  
G01 X-0.4120 Y0.5226  
G01 X-0.4120 Y0.6274  
G01 X-0.4601 Y0.6755  
G01 X-0.4643 Y0.6755  
G01 X-0.4845 Y0.6957  
G01 X-0.4845 Y0.7243  
G01 X-0.4643 Y0.7445  
G01 X-0.4357 Y0.7445  
G01 X-0.4155 Y0.7243  
G01 X-0.4155 Y0.7001  
G01 X-0.3719 Y0.6565  
G01 X-0.3685 Y0.6531  
G01 X-0.3658 Y0.6491  
G01 X-0.3639 Y0.6446  
G01 X-0.3630 Y0.6399  
G01 X-0.3630 Y0.5351  
G01 X-0.2524 Y0.4245  
G01 X-0.1953 Y0.4245  
G01 X-0.1940 Y0.4270  
G01 X-0.1893 Y0.4335  
G01 X-0.1835 Y0.4393  
G01 X-0.1770 Y0.4440  
G01 X-0.1698 Y0.4477  
G01 X-0.1621 Y0.4502  
G01 X-0.1541 Y0.4515  
G01 X-0.1459 Y0.4515  
G01 X-0.1379 Y0.4502  
G01 X-0.1302 Y0.4477  
G01 X-0.1230 Y0.4440  
G01 X-0.1164 Y0.4393  
G01 X-0.1107 Y0.4335  
G01 X-0.1060 Y0.4270  
G01 X-0.1023 Y0.4198  
G01 X-0.0998 Y0.4121  
G01 X-0.0985 Y0.4041  
G01 X-0.0985 Y0.3959  
G01 X-0.0998 Y0.3879  
G01 X-0.1023 Y0.3802  
G01 X-0.1060 Y0.3730  
G01 X-0.1107 Y0.3664  
G01 X-0.1164 Y0.3607  
G01 X-0.1230 Y0.3560  
G01 X-0.1302 Y0.3523  
G00 Z0.0500  
G00 X-0.1310 Y0.5344  
G01 Z-0.0030 F10    
G01 X-0.1344 Y0.5310  F20    
G01 X-0.1384 Y0.5283  
G01 X-0.1429 Y0.5264  
G01 X-0.1476 Y0.5255  
G01 X-0.2524 Y0.5255  
G01 X-0.2789 Y0.4990  
G01 X-0.3211 Y0.4990  
G01 X-0.3510 Y0.5289  
G01 X-0.3510 Y0.5711  
G01 X-0.3211 Y0.6010  
G01 X-0.2789 Y0.6010  
G01 X-0.2524 Y0.5745  
G01 X-0.1964 Y0.5745  
G01 X-0.1977 Y0.5771  
G01 X-0.2002 Y0.5848  
G01 X-0.2015 Y0.5928  
G01 X-0.2015 Y0.6009  
G01 X-0.2002 Y0.6089  
G01 X-0.1977 Y0.6166  
G01 X-0.1940 Y0.6238  
G01 X-0.1893 Y0.6304  
G01 X-0.1835 Y0.6361  
G01 X-0.1770 Y0.6409  
G01 X-0.1698 Y0.6446  
G01 X-0.1621 Y0.6471  
G01 X-0.1541 Y0.6484  
G01 X-0.1488 Y0.6484  
G01 X-0.0870 Y0.7101  
G01 X-0.0870 Y0.8130  
G01 X-0.7411 Y0.8130  
G01 X-0.7435 Y0.8094  
G01 X-0.8004 Y0.7525  
G01 X-0.7990 Y0.7511  
G01 X-0.7990 Y0.7089  
G01 X-0.8289 Y0.6790  
G01 X-0.8711 Y0.6790  
G01 X-0.9010 Y0.7089  
G01 X-0.9010 Y0.7511  
G01 X-0.8711 Y0.7810  
G01 X-0.8411 Y0.7810  
G01 X-0.7870 Y0.8351  
G01 X-0.7870 Y1.4399  
G01 X-0.7861 Y1.4446  
G01 X-0.7842 Y1.4491  
G01 X-0.7815 Y1.4531  
G01 X-0.7781 Y1.4565  
G01 X-0.7334 Y1.5012  
G01 X-0.7345 Y1.5066  
G01 X-0.7345 Y1.5134  
G01 X-0.7332 Y1.5201  
G01 X-0.7306 Y1.5263  
G01 X-0.7268 Y1.5320  
G01 X-0.7220 Y1.5368  
G01 X-0.7163 Y1.5406  
G01 X-0.7101 Y1.5432  
G01 X-0.7034 Y1.5445  
G01 X-0.6966 Y1.5445  
G01 X-0.6899 Y1.5432  
G01 X-0.6837 Y1.5406  
G01 X-0.6780 Y1.5368  
G01 X-0.6732 Y1.5320  
G01 X-0.6694 Y1.5263  
G01 X-0.6668 Y1.5201  
G01 X-0.6655 Y1.5134  
G01 X-0.6655 Y1.5066  
G01 X-0.6668 Y1.4999  
G01 X-0.6694 Y1.4937  
G01 X-0.6732 Y1.4880  
G01 X-0.6780 Y1.4832  
G01 X-0.6837 Y1.4794  
G01 X-0.6875 Y1.4778  
G01 X-0.7380 Y1.4274  
G01 X-0.7380 Y0.8620  
G01 X-0.0870 Y0.8620  
G01 X-0.0870 Y1.1899  
G01 X-0.1656 Y1.2685  
G01 X-0.1690 Y1.2719  
G01 X-0.1714 Y1.2755  
G01 X-0.2624 Y1.2755  
G01 X-0.2889 Y1.2490  
G01 X-0.3311 Y1.2490  
G01 X-0.3610 Y1.2789  
G01 X-0.3610 Y1.3211  
G01 X-0.3584 Y1.3237  
G01 X-0.4031 Y1.3685  
G01 X-0.4065 Y1.3719  
G01 X-0.4092 Y1.3759  
G01 X-0.4111 Y1.3804  
G01 X-0.4120 Y1.3851  
G01 X-0.4120 Y1.4774  
G01 X-0.6476 Y1.7130  
G01 X-0.7899 Y1.7130  
G01 X-0.7946 Y1.7139  
G01 X-0.7991 Y1.7158  
G01 X-0.8031 Y1.7185  
G01 X-0.8065 Y1.7219  
G01 X-0.8092 Y1.7259  
G01 X-0.8111 Y1.7304  
G01 X-0.8120 Y1.7351  
G01 X-0.8120 Y1.7776  
G01 X-0.8163 Y1.7794  
G01 X-0.8220 Y1.7832  
G01 X-0.8268 Y1.7880  
G01 X-0.8306 Y1.7937  
G01 X-0.8332 Y1.7999  
G01 X-0.8345 Y1.8066  
G01 X-0.8345 Y1.8124  
G01 X-0.8531 Y1.8310  
G01 X-0.8565 Y1.8344  
G01 X-0.8592 Y1.8384  
G01 X-0.8611 Y1.8429  
G01 X-0.8620 Y1.8476  
G01 X-0.8620 Y1.8932  
G01 X-0.8745 Y1.9057  
G01 X-0.8745 Y1.9343  
G01 X-0.8543 Y1.9545  
G01 X-0.8257 Y1.9545  
G01 X-0.8207 Y1.9495  
G01 X-0.7339 Y1.9495  
G01 X-0.7315 Y1.9531  
G01 X-0.5565 Y2.1281  
G01 X-0.5531 Y2.1315  
G01 X-0.5491 Y2.1342  
G01 X-0.5446 Y2.1361  
G01 X-0.5399 Y2.1370  
G01 X-0.4620 Y2.1370  
G01 X-0.4620 Y2.2274  
G01 X-0.5476 Y2.3130  
G01 X-0.5649 Y2.3130  
G01 X-0.5889 Y2.2890  
G01 X-0.6311 Y2.2890  
G01 X-0.6610 Y2.3189  
G01 X-0.6610 Y2.3255  
G01 X-0.8399 Y2.3255  
G01 X-0.8446 Y2.3264  
G01 X-0.8491 Y2.3283  
G01 X-0.8531 Y2.3310  
G01 X-0.8565 Y2.3344  
G01 X-0.8592 Y2.3384  
G01 X-0.8611 Y2.3429  
G01 X-0.8620 Y2.3476  
G01 X-0.8620 Y2.4017  
G01 X-0.8689 Y2.4046  
G01 X-0.8755 Y2.4089  
G01 X-0.8796 Y2.4130  
G01 X-1.1004 Y2.4130  
G01 X-1.1234 Y2.3900  
G01 X-1.1379 Y2.3900  
G01 X-1.2380 Y2.2899  
G01 X-1.2380 Y2.0976  
G01 X-1.0810 Y1.9406  
G01 X-1.0783 Y1.9366  
G01 X-1.0764 Y1.9321  
G01 X-1.0755 Y1.9274  
G01 X-1.0755 Y1.6851  
G01 X-1.0764 Y1.6804  
G01 X-1.0783 Y1.6759  
G01 X-1.0810 Y1.6719  
G01 X-1.0844 Y1.6685  
G01 X-1.1005 Y1.6524  
G01 X-1.1005 Y1.6193  
G01 X-1.0955 Y1.6143  
G01 X-1.0955 Y1.5857  
G01 X-1.1157 Y1.5655  
G01 X-1.1443 Y1.5655  
G01 X-1.1645 Y1.5857  
G01 X-1.1645 Y1.6143  
G01 X-1.1495 Y1.6293  
G01 X-1.1495 Y1.6649  
G01 X-1.1486 Y1.6696  
G01 X-1.1467 Y1.6741  
G01 X-1.1440 Y1.6781  
G01 X-1.1245 Y1.6976  
G01 X-1.1245 Y1.9149  
G01 X-1.2781 Y2.0685  
G01 X-1.2815 Y2.0719  
G01 X-1.2842 Y2.0759  
G01 X-1.2861 Y2.0804  
G01 X-1.2870 Y2.0851  
G01 X-1.2870 Y2.3024  
G01 X-1.2861 Y2.3071  
G01 X-1.2842 Y2.3116  
G01 X-1.2815 Y2.3156  
G01 X-1.1800 Y2.4171  
G01 X-1.1800 Y2.4466  
G01 X-1.1566 Y2.4700  
G01 X-1.1234 Y2.4700  
G01 X-1.1154 Y2.4620  
G01 X-0.9245 Y2.4620  
G01 X-0.9245 Y2.8345  
G01 X-0.9588 Y2.8345  
G01 X-0.9658 Y2.8415  
G01 X-0.9717 Y2.8415  
G01 X-0.9748 Y2.8428  
G01 X-0.9772 Y2.8452  
G01 X-0.9785 Y2.8483  
G01 X-0.9785 Y2.8542  
G01 X-0.9855 Y2.8612  
G01 X-0.9855 Y2.8988  
G01 X-0.9785 Y2.9058  
G01 X-0.9785 Y2.9542  
G01 X-0.9855 Y2.9612  
G01 X-0.9855 Y2.9988  
G01 X-0.9785 Y3.0058  
G01 X-0.9785 Y3.0117  
G01 X-0.9772 Y3.0148  
G01 X-0.9748 Y3.0172  
G01 X-0.9717 Y3.0185  
G01 X-0.9658 Y3.0185  
G01 X-0.9588 Y3.0255  
G01 X-0.9212 Y3.0255  
G01 X-0.9142 Y3.0185  
G01 X-0.8658 Y3.0185  
G01 X-0.8588 Y3.0255  
G01 X-0.8212 Y3.0255  
G01 X-0.8142 Y3.0185  
G01 X-0.7658 Y3.0185  
G01 X-0.7620 Y3.0223  
G01 X-0.7620 Y3.0649  
G01 X-0.7611 Y3.0696  
G01 X-0.7592 Y3.0741  
G01 X-0.7565 Y3.0781  
G01 X-0.7531 Y3.0815  
G01 X-0.7491 Y3.0842  
G01 X-0.7446 Y3.0861  
G01 X-0.7399 Y3.0870  
G01 X-0.6101 Y3.0870  
G01 X-0.6054 Y3.0861  
G01 X-0.6009 Y3.0842  
G01 X-0.5969 Y3.0815  
G01 X-0.5935 Y3.0781  
G01 X-0.5435 Y3.0281  
G01 X-0.5411 Y3.0245  
G01 X-0.3276 Y3.0245  
G01 X-0.3111 Y3.0410  
G01 X-0.2689 Y3.0410  
G01 X-0.2399 Y3.0120  
G01 X-0.1476 Y3.0120  
G01 X-0.1429 Y3.0111  
G01 X-0.1384 Y3.0092  
G01 X-0.1344 Y3.0065  
G01 X-0.1310 Y3.0031  
G01 X-0.1283 Y2.9991  
G01 X-0.1264 Y2.9946  
G01 X-0.1255 Y2.9899  
G01 X-0.1255 Y2.9222  
G01 X-0.1230 Y2.9209  
G01 X-0.1164 Y2.9161  
G01 X-0.1107 Y2.9104  
G01 X-0.1060 Y2.9038  
G01 X-0.1023 Y2.8966  
G01 X-0.0998 Y2.8889  
G01 X-0.0985 Y2.8809  
G01 X-0.0985 Y2.8728  
G01 X-0.0998 Y2.8648  
G01 X-0.1023 Y2.8571  
G01 X-0.1060 Y2.8499  
G01 X-0.1107 Y2.8433  
G01 X-0.1164 Y2.8376  
G01 X-0.1230 Y2.8328  
G01 X-0.1302 Y2.8291  
G01 X-0.1379 Y2.8266  
G01 X-0.1459 Y2.8254  
G01 X-0.1541 Y2.8254  
G01 X-0.1621 Y2.8266  
G01 X-0.1698 Y2.8291  
G01 X-0.1770 Y2.8328  
G01 X-0.1835 Y2.8376  
G01 X-0.1893 Y2.8433  
G01 X-0.1940 Y2.8499  
G01 X-0.1977 Y2.8571  
G01 X-0.2002 Y2.8648  
G01 X-0.2015 Y2.8728  
G01 X-0.2015 Y2.8809  
G01 X-0.2002 Y2.8889  
G01 X-0.1977 Y2.8966  
G01 X-0.1940 Y2.9038  
G01 X-0.1893 Y2.9104  
G01 X-0.1835 Y2.9161  
G01 X-0.1770 Y2.9209  
G01 X-0.1745 Y2.9222  
G01 X-0.1745 Y2.9630  
G01 X-0.2449 Y2.9630  
G01 X-0.2689 Y2.9390  
G01 X-0.3111 Y2.9390  
G01 X-0.3410 Y2.9689  
G01 X-0.3410 Y2.9755  
G01 X-0.5649 Y2.9755  
G01 X-0.5696 Y2.9764  
G01 X-0.5741 Y2.9783  
G01 X-0.5781 Y2.9810  
G01 X-0.5815 Y2.9844  
G01 X-0.5842 Y2.9884  
G01 X-0.5861 Y2.9929  
G01 X-0.5870 Y2.9976  
G01 X-0.5870 Y3.0024  
G01 X-0.6226 Y3.0380  
G01 X-0.7130 Y3.0380  
G01 X-0.7130 Y3.0185  
G01 X-0.7083 Y3.0185  
G01 X-0.7052 Y3.0172  
G01 X-0.7028 Y3.0148  
G01 X-0.7015 Y3.0117  
G01 X-0.7015 Y3.0058  
G01 X-0.6945 Y2.9988  
G01 X-0.6945 Y2.9612  
G01 X-0.7015 Y2.9542  
G01 X-0.7015 Y2.9058  
G01 X-0.6945 Y2.8988  
G01 X-0.6945 Y2.8612  
G01 X-0.7015 Y2.8542  
G01 X-0.7015 Y2.8483  
G01 X-0.7028 Y2.8452  
G01 X-0.7052 Y2.8428  
G01 X-0.7083 Y2.8415  
G01 X-0.7142 Y2.8415  
G01 X-0.7212 Y2.8345  
G01 X-0.7588 Y2.8345  
G01 X-0.7658 Y2.8415  
G01 X-0.8142 Y2.8415  
G01 X-0.8212 Y2.8345  
G01 X-0.8588 Y2.8345  
G01 X-0.8658 Y2.8415  
G01 X-0.8755 Y2.8415  
G01 X-0.8755 Y2.4711  
G01 X-0.8689 Y2.4754  
G01 X-0.8617 Y2.4785  
G01 X-0.8539 Y2.4800  
G01 X-0.8461 Y2.4800  
G01 X-0.8383 Y2.4785  
G01 X-0.8311 Y2.4754  
G01 X-0.8245 Y2.4711  
G01 X-0.8189 Y2.4655  
G01 X-0.8146 Y2.4589  
G01 X-0.8115 Y2.4517  
G01 X-0.8100 Y2.4439  
G01 X-0.8100 Y2.4361  
G01 X-0.8115 Y2.4283  
G01 X-0.8130 Y2.4248  
G01 X-0.8130 Y2.3745  
G01 X-0.6476 Y2.3745  
G01 X-0.6311 Y2.3910  
G01 X-0.5889 Y2.3910  
G01 X-0.5599 Y2.3620  
G01 X-0.5351 Y2.3620  
G01 X-0.5304 Y2.3611  
G01 X-0.5259 Y2.3592  
G01 X-0.5219 Y2.3565  
G01 X-0.5185 Y2.3531  
G01 X-0.4185 Y2.2531  
G01 X-0.4158 Y2.2491  
G01 X-0.4139 Y2.2446  
G01 X-0.4130 Y2.2399  
G01 X-0.4130 Y2.1370  
G01 X-0.1975 Y2.1370  
G01 X-0.1940 Y2.1438  
G01 X-0.1893 Y2.1504  
G01 X-0.1835 Y2.1561  
G01 X-0.1770 Y2.1609  
G01 X-0.1698 Y2.1646  
G01 X-0.1621 Y2.1671  
G01 X-0.1541 Y2.1684  
G01 X-0.1459 Y2.1684  
G01 X-0.1379 Y2.1671  
G01 X-0.1302 Y2.1646  
G01 X-0.1230 Y2.1609  
G01 X-0.1164 Y2.1561  
G01 X-0.1107 Y2.1504  
G01 X-0.1060 Y2.1438  
G01 X-0.1023 Y2.1366  
G01 X-0.0998 Y2.1289  
G01 X-0.0985 Y2.1209  
G01 X-0.0985 Y2.1128  
G01 X-0.0998 Y2.1048  
G01 X-0.1023 Y2.0971  
G01 X-0.1060 Y2.0899  
G01 X-0.1107 Y2.0833  
G01 X-0.1164 Y2.0776  
G01 X-0.1230 Y2.0728  
G01 X-0.1302 Y2.0691  
G01 X-0.1379 Y2.0666  
G01 X-0.1459 Y2.0654  
G01 X-0.1541 Y2.0654  
G01 X-0.1621 Y2.0666  
G01 X-0.1698 Y2.0691  
G01 X-0.1770 Y2.0728  
G01 X-0.1835 Y2.0776  
G01 X-0.1893 Y2.0833  
G01 X-0.1927 Y2.0880  
G01 X-0.2755 Y2.0880  
G01 X-0.2755 Y2.0776  
G01 X-0.2490 Y2.0511  
G01 X-0.2490 Y2.0089  
G01 X-0.2789 Y1.9790  
G01 X-0.3211 Y1.9790  
G01 X-0.3510 Y2.0089  
G01 X-0.3510 Y2.0511  
G01 X-0.3245 Y2.0776  
G01 X-0.3245 Y2.0880  
G01 X-0.5274 Y2.0880  
G01 X-0.6880 Y1.9274  
G01 X-0.6880 Y1.9226  
G01 X-0.6889 Y1.9179  
G01 X-0.6908 Y1.9134  
G01 X-0.6935 Y1.9094  
G01 X-0.6969 Y1.9060  
G01 X-0.7009 Y1.9033  
G01 X-0.7054 Y1.9014  
G01 X-0.7101 Y1.9005  
G01 X-0.8107 Y1.9005  
G01 X-0.8130 Y1.8982  
G01 X-0.8130 Y1.8601  
G01 X-0.7974 Y1.8445  
G01 X-0.7966 Y1.8445  
G01 X-0.7899 Y1.8432  
G01 X-0.7837 Y1.8406  
G01 X-0.7780 Y1.8368  
G01 X-0.7732 Y1.8320  
G01 X-0.7694 Y1.8263  
G01 X-0.7668 Y1.8201  
G01 X-0.7655 Y1.8134  
G01 X-0.7655 Y1.8109  
G01 X-0.7654 Y1.8106  
G01 X-0.7649 Y1.8097  
G01 X-0.7645 Y1.8084  
G01 X-0.7639 Y1.8071  
G01 X-0.7637 Y1.8061  
G01 X-0.7634 Y1.8051  
G01 X-0.7633 Y1.8037  
G01 X-0.7630 Y1.8024  
G01 X-0.7630 Y1.8014  
G01 X-0.7629 Y1.8003  
G01 X-0.7630 Y1.7989  
G01 X-0.7630 Y1.7620  
G01 X-0.6351 Y1.7620  
G01 X-0.6304 Y1.7611  
G01 X-0.6259 Y1.7592  
G01 X-0.6219 Y1.7565  
G01 X-0.6185 Y1.7531  
G01 X-0.3685 Y1.5031  
G01 X-0.3658 Y1.4991  
G01 X-0.3639 Y1.4946  
G01 X-0.3630 Y1.4899  
G01 X-0.3630 Y1.3976  
G01 X-0.3164 Y1.3510  
G01 X-0.2889 Y1.3510  
G01 X-0.2624 Y1.3245  
G01 X-0.1902 Y1.3245  
G01 X-0.1940 Y1.3299  
G01 X-0.1977 Y1.3371  
G01 X-0.2002 Y1.3448  
G01 X-0.2015 Y1.3528  
G01 X-0.2015 Y1.3609  
G01 X-0.2002 Y1.3689  
G01 X-0.1977 Y1.3766  
G01 X-0.1940 Y1.3838  
G01 X-0.1893 Y1.3904  
G01 X-0.1835 Y1.3961  
G01 X-0.1770 Y1.4009  
G01 X-0.1698 Y1.4046  
G01 X-0.1621 Y1.4071  
G01 X-0.1541 Y1.4084  
G01 X-0.1459 Y1.4084  
G01 X-0.1379 Y1.4071  
G01 X-0.1302 Y1.4046  
G01 X-0.1230 Y1.4009  
G01 X-0.1164 Y1.3961  
G01 X-0.1107 Y1.3904  
G01 X-0.1060 Y1.3838  
G01 X-0.1023 Y1.3766  
G01 X-0.0998 Y1.3689  
G01 X-0.0985 Y1.3609  
G01 X-0.0985 Y1.3528  
G01 X-0.0998 Y1.3448  
G01 X-0.1023 Y1.3371  
G01 X-0.1060 Y1.3299  
G01 X-0.1107 Y1.3233  
G01 X-0.1164 Y1.3176  
G01 X-0.1230 Y1.3128  
G01 X-0.1255 Y1.3115  
G01 X-0.1255 Y1.2976  
G01 X-0.0435 Y1.2156  
G01 X-0.0408 Y1.2116  
G01 X-0.0389 Y1.2071  
G01 X-0.0380 Y1.2024  
G01 X-0.0380 Y0.6976  
G01 X-0.0389 Y0.6929  
G01 X-0.0408 Y0.6884  
G01 X-0.0435 Y0.6844  
G01 X-0.1053 Y0.6226  
G01 X-0.1023 Y0.6166  
G01 X-0.0998 Y0.6089  
G01 X-0.0985 Y0.6009  
G01 X-0.0985 Y0.5928  
G01 X-0.0998 Y0.5848  
G01 X-0.1023 Y0.5771  
G01 X-0.1060 Y0.5699  
G01 X-0.1107 Y0.5633  
G01 X-0.1164 Y0.5576  
G01 X-0.1230 Y0.5528  
G01 X-0.1255 Y0.5515  
G01 X-0.1255 Y0.5476  
G01 X-0.1264 Y0.5429  
G01 X-0.1283 Y0.5384  
G01 X-0.1310 Y0.5344  
G00 Z0.0500  
G00 X-0.1310 Y0.8969  
G01 Z-0.0030 F10    
G01 X-0.1344 Y0.8935  F20    
G01 X-0.1384 Y0.8908  
G01 X-0.1429 Y0.8889  
G01 X-0.1476 Y0.8880  
G01 X-0.5732 Y0.8880  
G01 X-0.5857 Y0.8755  
G01 X-0.6143 Y0.8755  
G01 X-0.6345 Y0.8957  
G01 X-0.6345 Y0.9243  
G01 X-0.6143 Y0.9445  
G01 X-0.5857 Y0.9445  
G01 X-0.5782 Y0.9370  
G01 X-0.1945 Y0.9370  
G01 X-0.1977 Y0.9434  
G01 X-0.2002 Y0.9511  
G01 X-0.2015 Y0.9591  
G01 X-0.2015 Y0.9672  
G01 X-0.2002 Y0.9752  
G01 X-0.1977 Y0.9829  
G01 X-0.1940 Y0.9901  
G01 X-0.1893 Y0.9967  
G01 X-0.1835 Y1.0024  
G01 X-0.1770 Y1.0072  
G01 X-0.1698 Y1.0109  
G01 X-0.1621 Y1.0134  
G01 X-0.1541 Y1.0146  
G01 X-0.1459 Y1.0146  
G01 X-0.1379 Y1.0134  
G01 X-0.1302 Y1.0109  
G01 X-0.1230 Y1.0072  
G01 X-0.1164 Y1.0024  
G01 X-0.1107 Y0.9967  
G01 X-0.1060 Y0.9901  
G01 X-0.1023 Y0.9829  
G01 X-0.0998 Y0.9752  
G01 X-0.0985 Y0.9672  
G01 X-0.0985 Y0.9591  
G01 X-0.0998 Y0.9511  
G01 X-0.1023 Y0.9434  
G01 X-0.1060 Y0.9362  
G01 X-0.1107 Y0.9296  
G01 X-0.1164 Y0.9239  
G01 X-0.1230 Y0.9191  
G01 X-0.1255 Y0.9178  
G01 X-0.1255 Y0.9101  
G01 X-0.1264 Y0.9054  
G01 X-0.1283 Y0.9009  
G01 X-0.1310 Y0.8969  
G00 Z0.0500  
G00 X-0.1302 Y1.1123  
G01 Z-0.0030 F10    
G01 X-0.1379 Y1.1098  F20    
G01 X-0.1459 Y1.1085  
G01 X-0.1541 Y1.1085  
G01 X-0.1621 Y1.1098  
G01 X-0.1698 Y1.1123  
G01 X-0.1770 Y1.1160  
G01 X-0.1835 Y1.1207  
G01 X-0.1893 Y1.1264  
G01 X-0.1940 Y1.1330  
G01 X-0.1966 Y1.1380  
G01 X-0.4232 Y1.1380  
G01 X-0.4357 Y1.1255  
G01 X-0.4643 Y1.1255  
G01 X-0.4845 Y1.1457  
G01 X-0.4845 Y1.1743  
G01 X-0.4643 Y1.1945  
G01 X-0.4357 Y1.1945  
G01 X-0.4282 Y1.1870  
G01 X-0.1940 Y1.1870  
G01 X-0.1893 Y1.1935  
G01 X-0.1835 Y1.1993  
G01 X-0.1770 Y1.2040  
G01 X-0.1698 Y1.2077  
G01 X-0.1621 Y1.2102  
G01 X-0.1541 Y1.2115  
G01 X-0.1459 Y1.2115  
G01 X-0.1379 Y1.2102  
G01 X-0.1302 Y1.2077  
G01 X-0.1230 Y1.2040  
G01 X-0.1164 Y1.1993  
G01 X-0.1107 Y1.1935  
G01 X-0.1060 Y1.1870  
G01 X-0.1023 Y1.1798  
G01 X-0.0998 Y1.1721  
G01 X-0.0985 Y1.1641  
G01 X-0.0985 Y1.1559  
G01 X-0.0998 Y1.1479  
G01 X-0.1023 Y1.1402  
G01 X-0.1060 Y1.1330  
G01 X-0.1107 Y1.1264  
G01 X-0.1164 Y1.1207  
G01 X-0.1230 Y1.1160  
G01 X-0.1302 Y1.1123  
G00 Z0.0500  
G00 X-0.4357 Y1.0445  
G01 Z-0.0030 F10    
G01 X-0.4155 Y1.0243  F20    
G01 X-0.4155 Y0.9957  
G01 X-0.4357 Y0.9755  
G01 X-0.4643 Y0.9755  
G01 X-0.4845 Y0.9957  
G01 X-0.4845 Y1.0124  
G01 X-0.5281 Y1.0560  
G01 X-0.5315 Y1.0594  
G01 X-0.5342 Y1.0634  
G01 X-0.5361 Y1.0679  
G01 X-0.5370 Y1.0726  
G01 X-0.5370 Y1.3899  
G01 X-0.5361 Y1.3946  
G01 X-0.5342 Y1.3991  
G01 X-0.5315 Y1.4031  
G01 X-0.4846 Y1.4500  
G01 X-0.6851 Y1.6505  
G01 X-0.8899 Y1.6505  
G01 X-0.8946 Y1.6514  
G01 X-0.8991 Y1.6533  
G01 X-0.9031 Y1.6560  
G01 X-0.9065 Y1.6594  
G01 X-0.9092 Y1.6634  
G01 X-0.9111 Y1.6679  
G01 X-0.9120 Y1.6726  
G01 X-0.9120 Y1.7776  
G01 X-0.9163 Y1.7794  
G01 X-0.9220 Y1.7832  
G01 X-0.9268 Y1.7880  
G01 X-0.9306 Y1.7937  
G01 X-0.9332 Y1.7999  
G01 X-0.9345 Y1.8066  
G01 X-0.9345 Y1.8134  
G01 X-0.9344 Y1.8139  
G01 X-0.9361 Y1.8179  
G01 X-0.9370 Y1.8226  
G01 X-0.9370 Y1.9899  
G01 X-0.9361 Y1.9946  
G01 X-0.9342 Y1.9991  
G01 X-0.9315 Y2.0031  
G01 X-0.8870 Y2.0476  
G01 X-0.8870 Y2.0482  
G01 X-0.9045 Y2.0657  
G01 X-0.9045 Y2.0943  
G01 X-0.8843 Y2.1145  
G01 X-0.8557 Y2.1145  
G01 X-0.8355 Y2.0943  
G01 X-0.8355 Y2.0745  
G01 X-0.7620 Y2.0745  
G01 X-0.7620 Y2.1524  
G01 X-0.7611 Y2.1571  
G01 X-0.7592 Y2.1616  
G01 X-0.7565 Y2.1656  
G01 X-0.7531 Y2.1690  
G01 X-0.7120 Y2.2101  
G01 X-0.7120 Y2.2132  
G01 X-0.7245 Y2.2257  
G01 X-0.7245 Y2.2543  
G01 X-0.7043 Y2.2745  
G01 X-0.6757 Y2.2745  
G01 X-0.6555 Y2.2543  
G01 X-0.6555 Y2.2370  
G01 X-0.5218 Y2.2370  
G01 X-0.5143 Y2.2445  
G01 X-0.4857 Y2.2445  
G01 X-0.4655 Y2.2243  
G01 X-0.4655 Y2.1957  
G01 X-0.4857 Y2.1755  
G01 X-0.5143 Y2.1755  
G01 X-0.5268 Y2.1880  
G01 X-0.6661 Y2.1880  
G01 X-0.6685 Y2.1844  
G01 X-0.6719 Y2.1810  
G01 X-0.7130 Y2.1399  
G01 X-0.7130 Y2.0718  
G01 X-0.6955 Y2.0543  
G01 X-0.6955 Y2.0257  
G01 X-0.7157 Y2.0055  
G01 X-0.7443 Y2.0055  
G01 X-0.7643 Y2.0255  
G01 X-0.8411 Y2.0255  
G01 X-0.8435 Y2.0219  
G01 X-0.8469 Y2.0185  
G01 X-0.8880 Y1.9774  
G01 X-0.8880 Y1.8424  
G01 X-0.8837 Y1.8406  
G01 X-0.8780 Y1.8368  
G01 X-0.8732 Y1.8320  
G01 X-0.8694 Y1.8263  
G01 X-0.8668 Y1.8201  
G01 X-0.8655 Y1.8134  
G01 X-0.8655 Y1.8109  
G01 X-0.8654 Y1.8106  
G01 X-0.8649 Y1.8097  
G01 X-0.8645 Y1.8084  
G01 X-0.8639 Y1.8071  
G01 X-0.8637 Y1.8061  
G01 X-0.8634 Y1.8051  
G01 X-0.8633 Y1.8037  
G01 X-0.8630 Y1.8024  
G01 X-0.8630 Y1.8014  
G01 X-0.8629 Y1.8003  
G01 X-0.8630 Y1.7989  
G01 X-0.8630 Y1.6995  
G01 X-0.6726 Y1.6995  
G01 X-0.6679 Y1.6986  
G01 X-0.6634 Y1.6967  
G01 X-0.6594 Y1.6940  
G01 X-0.6560 Y1.6906  
G01 X-0.4599 Y1.4945  
G01 X-0.4357 Y1.4945  
G01 X-0.4155 Y1.4743  
G01 X-0.4155 Y1.4457  
G01 X-0.4357 Y1.4255  
G01 X-0.4399 Y1.4255  
G01 X-0.4880 Y1.3774  
G01 X-0.4880 Y1.0851  
G01 X-0.4474 Y1.0445  
G01 X-0.4357 Y1.0445  
G00 Z0.0500  
G00 X-0.5655 Y1.0457  
G01 Z-0.0030 F10    
G01 X-0.5857 Y1.0255  F20    
G01 X-0.6143 Y1.0255  
G01 X-0.6345 Y1.0457  
G01 X-0.6345 Y1.0624  
G01 X-0.6656 Y1.0935  
G01 X-0.6690 Y1.0969  
G01 X-0.6717 Y1.1009  
G01 X-0.6736 Y1.1054  
G01 X-0.6745 Y1.1101  
G01 X-0.6745 Y1.1857  
G01 X-0.6845 Y1.1957  
G01 X-0.6845 Y1.2243  
G01 X-0.6745 Y1.2343  
G01 X-0.6745 Y1.2899  
G01 X-0.7101 Y1.3255  
G01 X-0.7143 Y1.3255  
G01 X-0.7345 Y1.3457  
G01 X-0.7345 Y1.3743  
G01 X-0.7143 Y1.3945  
G01 X-0.6857 Y1.3945  
G01 X-0.6655 Y1.3743  
G01 X-0.6655 Y1.3501  
G01 X-0.6620 Y1.3466  
G01 X-0.6620 Y1.5274  
G01 X-0.6690 Y1.5344  
G01 X-0.6717 Y1.5384  
G01 X-0.6736 Y1.5429  
G01 X-0.6745 Y1.5476  
G01 X-0.6745 Y1.5505  
G01 X-0.7274 Y1.5505  
G01 X-0.7655 Y1.5124  
G01 X-0.7655 Y1.5066  
G01 X-0.7668 Y1.4999  
G01 X-0.7694 Y1.4937  
G01 X-0.7732 Y1.4880  
G01 X-0.7780 Y1.4832  
G01 X-0.7837 Y1.4794  
G01 X-0.7899 Y1.4768  
G01 X-0.7966 Y1.4755  
G01 X-0.8034 Y1.4755  
G01 X-0.8101 Y1.4768  
G01 X-0.8163 Y1.4794  
G01 X-0.8220 Y1.4832  
G01 X-0.8268 Y1.4880  
G01 X-0.8306 Y1.4937  
G01 X-0.8332 Y1.4999  
G01 X-0.8345 Y1.5066  
G01 X-0.8345 Y1.5134  
G01 X-0.8332 Y1.5201  
G01 X-0.8306 Y1.5263  
G01 X-0.8268 Y1.5320  
G01 X-0.8220 Y1.5368  
G01 X-0.8163 Y1.5406  
G01 X-0.8101 Y1.5432  
G01 X-0.8034 Y1.5445  
G01 X-0.8026 Y1.5445  
G01 X-0.7565 Y1.5906  
G01 X-0.7531 Y1.5940  
G01 X-0.7491 Y1.5967  
G01 X-0.7446 Y1.5986  
G01 X-0.7399 Y1.5995  
G01 X-0.6476 Y1.5995  
G01 X-0.6429 Y1.5986  
G01 X-0.6384 Y1.5967  
G01 X-0.6344 Y1.5940  
G01 X-0.6310 Y1.5906  
G01 X-0.6283 Y1.5866  
G01 X-0.6264 Y1.5821  
G01 X-0.6255 Y1.5774  
G01 X-0.6255 Y1.5601  
G01 X-0.6219 Y1.5565  
G01 X-0.6185 Y1.5531  
G01 X-0.6158 Y1.5491  
G01 X-0.6139 Y1.5446  
G01 X-0.6130 Y1.5399  
G01 X-0.6130 Y1.2976  
G01 X-0.6139 Y1.2929  
G01 X-0.6158 Y1.2884  
G01 X-0.6185 Y1.2844  
G01 X-0.6219 Y1.2810  
G01 X-0.6255 Y1.2786  
G01 X-0.6255 Y1.2343  
G01 X-0.6155 Y1.2243  
G01 X-0.6155 Y1.1957  
G01 X-0.6255 Y1.1857  
G01 X-0.6255 Y1.1226  
G01 X-0.5974 Y1.0945  
G01 X-0.5857 Y1.0945  
G01 X-0.5655 Y1.0743  
G01 X-0.5655 Y1.0457  
G00 Z0.0500  
G00 X-0.8655 Y1.0457  
G01 Z-0.0030 F10    
G01 X-0.8857 Y1.0255  F20    
G01 X-0.9143 Y1.0255  
G01 X-0.9345 Y1.0457  
G01 X-0.9345 Y1.0743  
G01 X-0.9143 Y1.0945  
G01 X-0.9026 Y1.0945  
G01 X-0.8745 Y1.1226  
G01 X-0.8745 Y1.1755  
G01 X-0.9757 Y1.1755  
G01 X-0.9857 Y1.1655  
G01 X-1.0143 Y1.1655  
G01 X-1.0345 Y1.1857  
G01 X-1.0345 Y1.2143  
G01 X-1.0143 Y1.2345  
G01 X-0.9857 Y1.2345  
G01 X-0.9757 Y1.2245  
G01 X-0.8843 Y1.2245  
G01 X-0.8745 Y1.2343  
G01 X-0.8745 Y1.4399  
G01 X-0.9125 Y1.4778  
G01 X-0.9163 Y1.4794  
G01 X-0.9220 Y1.4832  
G01 X-0.9268 Y1.4880  
G01 X-0.9306 Y1.4937  
G01 X-0.9332 Y1.4999  
G01 X-0.9345 Y1.5066  
G01 X-0.9345 Y1.5134  
G01 X-0.9332 Y1.5201  
G01 X-0.9306 Y1.5263  
G01 X-0.9268 Y1.5320  
G01 X-0.9220 Y1.5368  
G01 X-0.9163 Y1.5406  
G01 X-0.9101 Y1.5432  
G01 X-0.9034 Y1.5445  
G01 X-0.8966 Y1.5445  
G01 X-0.8899 Y1.5432  
G01 X-0.8837 Y1.5406  
G01 X-0.8780 Y1.5368  
G01 X-0.8732 Y1.5320  
G01 X-0.8694 Y1.5263  
G01 X-0.8668 Y1.5201  
G01 X-0.8655 Y1.5134  
G01 X-0.8655 Y1.5066  
G01 X-0.8666 Y1.5012  
G01 X-0.8344 Y1.4690  
G01 X-0.8310 Y1.4656  
G01 X-0.8283 Y1.4616  
G01 X-0.8264 Y1.4571  
G01 X-0.8255 Y1.4524  
G01 X-0.8255 Y1.2343  
G01 X-0.8155 Y1.2243  
G01 X-0.8155 Y1.1957  
G01 X-0.8255 Y1.1857  
G01 X-0.8255 Y1.1101  
G01 X-0.8264 Y1.1054  
G01 X-0.8283 Y1.1009  
G01 X-0.8310 Y1.0969  
G01 X-0.8344 Y1.0935  
G01 X-0.8655 Y1.0624  
G01 X-0.8655 Y1.0457  
G00 Z0.0500  
G00 X-0.8711 Y0.9310  
G01 Z-0.0030 F10    
G01 X-0.8289 Y0.9310  F20    
G01 X-0.7990 Y0.9011  
G01 X-0.7990 Y0.8589  
G01 X-0.8289 Y0.8290  
G01 X-0.8711 Y0.8290  
G01 X-0.9010 Y0.8589  
G01 X-0.9010 Y0.8755  
G01 X-0.9757 Y0.8755  
G01 X-0.9857 Y0.8655  
G01 X-1.0143 Y0.8655  
G01 X-1.0345 Y0.8857  
G01 X-1.0345 Y0.9143  
G01 X-1.0143 Y0.9345  
G01 X-0.9857 Y0.9345  
G01 X-0.9757 Y0.9245  
G01 X-0.8776 Y0.9245  
G01 X-0.8711 Y0.9310  
G00 Z0.0500  
G00 X-0.9185 Y1.3094  
G01 Z-0.0030 F10    
G01 X-0.9560 Y1.2719  F20    
G01 X-0.9594 Y1.2685  
G01 X-0.9634 Y1.2658  
G01 X-0.9679 Y1.2639  
G01 X-0.9726 Y1.2630  
G01 X-1.1274 Y1.2630  
G01 X-1.1321 Y1.2639  
G01 X-1.1366 Y1.2658  
G01 X-1.1406 Y1.2685  
G01 X-1.1440 Y1.2719  
G01 X-1.1467 Y1.2759  
G01 X-1.1486 Y1.2804  
G01 X-1.1495 Y1.2851  
G01 X-1.1495 Y1.3707  
G01 X-1.1645 Y1.3857  
G01 X-1.1645 Y1.4049  
G01 X-1.3406 Y1.5810  
G01 X-1.3440 Y1.5844  
G01 X-1.3467 Y1.5884  
G01 X-1.3486 Y1.5929  
G01 X-1.3495 Y1.5976  
G01 X-1.3495 Y2.3524  
G01 X-1.3486 Y2.3571  
G01 X-1.3467 Y2.3616  
G01 X-1.3440 Y2.3656  
G01 X-1.2800 Y2.4296  
G01 X-1.2800 Y2.4339  
G01 X-1.2785 Y2.4417  
G01 X-1.2754 Y2.4489  
G01 X-1.2711 Y2.4555  
G01 X-1.2655 Y2.4611  
G01 X-1.2589 Y2.4654  
G01 X-1.2517 Y2.4685  
G01 X-1.2439 Y2.4700  
G01 X-1.2396 Y2.4700  
G01 X-1.2370 Y2.4726  
G01 X-1.2370 Y2.5633  
G01 X-1.2387 Y2.5645  
G01 X-1.2439 Y2.5697  
G01 X-1.2482 Y2.5756  
G01 X-1.2515 Y2.5822  
G01 X-1.2538 Y2.5891  
G01 X-1.2549 Y2.5963  
G01 X-1.2549 Y2.6037  
G01 X-1.2538 Y2.6109  
G01 X-1.2515 Y2.6178  
G01 X-1.2482 Y2.6244  
G01 X-1.2439 Y2.6303  
G01 X-1.2387 Y2.6355  
G01 X-1.2328 Y2.6398  
G01 X-1.2263 Y2.6431  
G01 X-1.2193 Y2.6454  
G01 X-1.2121 Y2.6465  
G01 X-1.2048 Y2.6465  
G01 X-1.1975 Y2.6454  
G01 X-1.1906 Y2.6431  
G01 X-1.1841 Y2.6398  
G01 X-1.1781 Y2.6355  
G01 X-1.1730 Y2.6303  
G01 X-1.1687 Y2.6244  
G01 X-1.1653 Y2.6178  
G01 X-1.1631 Y2.6109  
G01 X-1.1619 Y2.6037  
G01 X-1.1619 Y2.5963  
G01 X-1.1631 Y2.5891  
G01 X-1.1653 Y2.5822  
G01 X-1.1687 Y2.5756  
G01 X-1.1730 Y2.5697  
G01 X-1.1781 Y2.5645  
G01 X-1.1841 Y2.5602  
G01 X-1.1880 Y2.5582  
G01 X-1.1880 Y2.4601  
G01 X-1.1889 Y2.4554  
G01 X-1.1908 Y2.4509  
G01 X-1.1935 Y2.4469  
G01 X-1.1969 Y2.4435  
G01 X-1.2011 Y2.4393  
G01 X-1.2000 Y2.4339  
G01 X-1.2000 Y2.4261  
G01 X-1.2015 Y2.4183  
G01 X-1.2046 Y2.4111  
G01 X-1.2089 Y2.4045  
G01 X-1.2145 Y2.3989  
G01 X-1.2211 Y2.3946  
G01 X-1.2283 Y2.3915  
G01 X-1.2361 Y2.3900  
G01 X-1.2439 Y2.3900  
G01 X-1.2493 Y2.3911  
G01 X-1.3005 Y2.3399  
G01 X-1.3005 Y1.6101  
G01 X-1.1249 Y1.4345  
G01 X-1.1157 Y1.4345  
G01 X-1.0955 Y1.4143  
G01 X-1.0955 Y1.3857  
G01 X-1.1005 Y1.3807  
G01 X-1.1005 Y1.3120  
G01 X-0.9851 Y1.3120  
G01 X-0.9620 Y1.3351  
G01 X-0.9620 Y1.4274  
G01 X-1.0125 Y1.4778  
G01 X-1.0163 Y1.4794  
G01 X-1.0220 Y1.4832  
G01 X-1.0268 Y1.4880  
G01 X-1.0306 Y1.4937  
G01 X-1.0332 Y1.4999  
G01 X-1.0345 Y1.5066  
G01 X-1.0345 Y1.5134  
G01 X-1.0332 Y1.5201  
G01 X-1.0306 Y1.5263  
G01 X-1.0268 Y1.5320  
G01 X-1.0220 Y1.5368  
G01 X-1.0163 Y1.5406  
G01 X-1.0101 Y1.5432  
G01 X-1.0034 Y1.5445  
G01 X-0.9966 Y1.5445  
G01 X-0.9899 Y1.5432  
G01 X-0.9837 Y1.5406  
G01 X-0.9780 Y1.5368  
G01 X-0.9732 Y1.5320  
G01 X-0.9694 Y1.5263  
G01 X-0.9668 Y1.5201  
G01 X-0.9655 Y1.5134  
G01 X-0.9655 Y1.5066  
G01 X-0.9666 Y1.5012  
G01 X-0.9219 Y1.4565  
G01 X-0.9185 Y1.4531  
G01 X-0.9158 Y1.4491  
G01 X-0.9139 Y1.4446  
G01 X-0.9130 Y1.4399  
G01 X-0.9130 Y1.3226  
G01 X-0.9139 Y1.3179  
G01 X-0.9158 Y1.3134  
G01 X-0.9185 Y1.3094  
G00 Z0.0500  
G00 X-0.9655 Y1.3457  
G01 Z-0.0030 F10    
G01 X-0.9857 Y1.3255  F20    
G01 X-1.0143 Y1.3255  
G01 X-1.0345 Y1.3457  
G01 X-1.0345 Y1.3624  
G01 X-1.0781 Y1.4060  
G01 X-1.0815 Y1.4094  
G01 X-1.0842 Y1.4134  
G01 X-1.0861 Y1.4179  
G01 X-1.0870 Y1.4226  
G01 X-1.0870 Y1.6524  
G01 X-1.0861 Y1.6571  
G01 X-1.0842 Y1.6616  
G01 X-1.0815 Y1.6656  
G01 X-1.0245 Y1.7226  
G01 X-1.0245 Y1.7857  
G01 X-1.0268 Y1.7880  
G01 X-1.0306 Y1.7937  
G01 X-1.0332 Y1.7999  
G01 X-1.0345 Y1.8066  
G01 X-1.0345 Y1.8134  
G01 X-1.0332 Y1.8201  
G01 X-1.0306 Y1.8263  
G01 X-1.0268 Y1.8320  
G01 X-1.0245 Y1.8343  
G01 X-1.0245 Y2.0024  
G01 X-1.0676 Y2.0455  
G01 X-1.0843 Y2.0455  
G01 X-1.1018 Y2.0630  
G01 X-1.1899 Y2.0630  
G01 X-1.1946 Y2.0639  
G01 X-1.1991 Y2.0658  
G01 X-1.2031 Y2.0685  
G01 X-1.2065 Y2.0719  
G01 X-1.2092 Y2.0759  
G01 X-1.2111 Y2.0804  
G01 X-1.2120 Y2.0851  
G01 X-1.2120 Y2.1232  
G01 X-1.2245 Y2.1357  
G01 X-1.2245 Y2.1643  
G01 X-1.2043 Y2.1845  
G01 X-1.1757 Y2.1845  
G01 X-1.1555 Y2.1643  
G01 X-1.1555 Y2.1357  
G01 X-1.1630 Y2.1282  
G01 X-1.1630 Y2.1120  
G01 X-1.0995 Y2.1120  
G01 X-1.0995 Y2.1649  
G01 X-1.0986 Y2.1696  
G01 X-1.0967 Y2.1741  
G01 X-1.0940 Y2.1781  
G01 X-1.0906 Y2.1815  
G01 X-1.0245 Y2.2476  
G01 X-1.0245 Y2.2543  
G01 X-1.0043 Y2.2745  
G01 X-0.9757 Y2.2745  
G01 X-0.9555 Y2.2543  
G01 X-0.9555 Y2.2257  
G01 X-0.9757 Y2.2055  
G01 X-0.9974 Y2.2055  
G01 X-1.0505 Y2.1524  
G01 X-1.0505 Y2.1093  
G01 X-1.0355 Y2.0943  
G01 X-1.0355 Y2.0826  
G01 X-0.9844 Y2.0315  
G01 X-0.9810 Y2.0281  
G01 X-0.9783 Y2.0241  
G01 X-0.9764 Y2.0196  
G01 X-0.9755 Y2.0149  
G01 X-0.9755 Y1.8343  
G01 X-0.9732 Y1.8320  
G01 X-0.9694 Y1.8263  
G01 X-0.9668 Y1.8201  
G01 X-0.9655 Y1.8134  
G01 X-0.9655 Y1.8066  
G01 X-0.9668 Y1.7999  
G01 X-0.9694 Y1.7937  
G01 X-0.9732 Y1.7880  
G01 X-0.9755 Y1.7857  
G01 X-0.9755 Y1.7101  
G01 X-0.9764 Y1.7054  
G01 X-0.9783 Y1.7009  
G01 X-0.9810 Y1.6969  
G01 X-0.9844 Y1.6935  
G01 X-1.0380 Y1.6399  
G01 X-1.0380 Y1.4351  
G01 X-0.9974 Y1.3945  
G01 X-0.9857 Y1.3945  
G01 X-0.9655 Y1.3743  
G01 X-0.9655 Y1.3457  
G00 Z0.0500  
G00 X-1.1390 Y1.6989  
G01 Z-0.0030 F10    
G01 X-1.1689 Y1.6690  F20    
G01 X-1.2111 Y1.6690  
G01 X-1.2410 Y1.6989  
G01 X-1.2410 Y1.7411  
G01 X-1.2245 Y1.7576  
G01 X-1.2245 Y1.8643  
G01 X-1.2043 Y1.8845  
G01 X-1.1757 Y1.8845  
G01 X-1.1555 Y1.8643  
G01 X-1.1555 Y1.8357  
G01 X-1.1755 Y1.8157  
G01 X-1.1755 Y1.7710  
G01 X-1.1689 Y1.7710  
G01 X-1.1390 Y1.7411  
G01 X-1.1390 Y1.6989  
G00 Z0.0500  
G00 X-0.7220 Y1.7832  
G01 Z-0.0030 F10    
G01 X-0.7268 Y1.7880  F20    
G01 X-0.7306 Y1.7937  
G01 X-0.7332 Y1.7999  
G01 X-0.7345 Y1.8066  
G01 X-0.7345 Y1.8134  
G01 X-0.7332 Y1.8201  
G01 X-0.7306 Y1.8263  
G01 X-0.7268 Y1.8320  
G01 X-0.7245 Y1.8343  
G01 X-0.7245 Y1.8649  
G01 X-0.7236 Y1.8696  
G01 X-0.7217 Y1.8741  
G01 X-0.7190 Y1.8781  
G01 X-0.7156 Y1.8815  
G01 X-0.6745 Y1.9226  
G01 X-0.6745 Y1.9343  
G01 X-0.6543 Y1.9545  
G01 X-0.6257 Y1.9545  
G01 X-0.6207 Y1.9495  
G01 X-0.3851 Y1.9495  
G01 X-0.3804 Y1.9486  
G01 X-0.3759 Y1.9467  
G01 X-0.3719 Y1.9440  
G01 X-0.2899 Y1.8620  
G01 X-0.0870 Y1.8620  
G01 X-0.0870 Y2.1399  
G01 X-0.3601 Y2.4130  
G01 X-0.7204 Y2.4130  
G01 X-0.7334 Y2.4000  
G01 X-0.7666 Y2.4000  
G01 X-0.7900 Y2.4234  
G01 X-0.7900 Y2.4566  
G01 X-0.7666 Y2.4800  
G01 X-0.7546 Y2.4800  
G01 X-0.6539 Y2.5807  
G01 X-0.6547 Y2.5822  
G01 X-0.6569 Y2.5891  
G01 X-0.6581 Y2.5963  
G01 X-0.6581 Y2.6037  
G01 X-0.6569 Y2.6109  
G01 X-0.6547 Y2.6178  
G01 X-0.6513 Y2.6244  
G01 X-0.6470 Y2.6303  
G01 X-0.6419 Y2.6355  
G01 X-0.6359 Y2.6398  
G01 X-0.6294 Y2.6431  
G01 X-0.6225 Y2.6454  
G01 X-0.6152 Y2.6465  
G01 X-0.6079 Y2.6465  
G01 X-0.6007 Y2.6454  
G01 X-0.5937 Y2.6431  
G01 X-0.5872 Y2.6398  
G01 X-0.5813 Y2.6355  
G01 X-0.5761 Y2.6303  
G01 X-0.5718 Y2.6244  
G01 X-0.5685 Y2.6178  
G01 X-0.5662 Y2.6109  
G01 X-0.5651 Y2.6037  
G01 X-0.5651 Y2.5963  
G01 X-0.5662 Y2.5891  
G01 X-0.5685 Y2.5822  
G01 X-0.5718 Y2.5756  
G01 X-0.5761 Y2.5697  
G01 X-0.5813 Y2.5645  
G01 X-0.5872 Y2.5602  
G01 X-0.5937 Y2.5569  
G01 X-0.6007 Y2.5546  
G01 X-0.6079 Y2.5535  
G01 X-0.6119 Y2.5535  
G01 X-0.7034 Y2.4620  
G01 X-0.3476 Y2.4620  
G01 X-0.3429 Y2.4611  
G01 X-0.3384 Y2.4592  
G01 X-0.3344 Y2.4565  
G01 X-0.3310 Y2.4531  
G01 X-0.0435 Y2.1656  
G01 X-0.0408 Y2.1616  
G01 X-0.0389 Y2.1571  
G01 X-0.0380 Y2.1524  
G01 X-0.0380 Y1.8351  
G01 X-0.0389 Y1.8304  
G01 X-0.0408 Y1.8259  
G01 X-0.0435 Y1.8219  
G01 X-0.0469 Y1.8185  
G01 X-0.0509 Y1.8158  
G01 X-0.0554 Y1.8139  
G01 X-0.0601 Y1.8130  
G01 X-0.3024 Y1.8130  
G01 X-0.3071 Y1.8139  
G01 X-0.3116 Y1.8158  
G01 X-0.3156 Y1.8185  
G01 X-0.3190 Y1.8219  
G01 X-0.3976 Y1.9005  
G01 X-0.6107 Y1.9005  
G01 X-0.6257 Y1.8855  
G01 X-0.6424 Y1.8855  
G01 X-0.6755 Y1.8524  
G01 X-0.6755 Y1.8343  
G01 X-0.6732 Y1.8320  
G01 X-0.6694 Y1.8263  
G01 X-0.6668 Y1.8201  
G01 X-0.6655 Y1.8134  
G01 X-0.6655 Y1.8066  
G01 X-0.6668 Y1.7999  
G01 X-0.6694 Y1.7937  
G01 X-0.6732 Y1.7880  
G01 X-0.6780 Y1.7832  
G01 X-0.6837 Y1.7794  
G01 X-0.6899 Y1.7768  
G01 X-0.6966 Y1.7755  
G01 X-0.7034 Y1.7755  
G01 X-0.7101 Y1.7768  
G01 X-0.7163 Y1.7794  
G01 X-0.7220 Y1.7832  
G00 Z0.0500  
G00 X-0.5810 Y1.7811  
G01 Z-0.0030 F10    
G01 X-0.5511 Y1.8110  F20    
G01 X-0.5111 Y1.8110  
G01 X-0.4645 Y1.8576  
G01 X-0.4645 Y1.8743  
G01 X-0.4443 Y1.8945  
G01 X-0.4157 Y1.8945  
G01 X-0.3955 Y1.8743  
G01 X-0.3955 Y1.8457  
G01 X-0.4157 Y1.8255  
G01 X-0.4274 Y1.8255  
G01 X-0.4790 Y1.7739  
G01 X-0.4790 Y1.7389  
G01 X-0.5089 Y1.7090  
G01 X-0.5511 Y1.7090  
G01 X-0.5810 Y1.7389  
G01 X-0.5810 Y1.7811  
G00 Z0.0500  
G00 X-0.4645 Y1.6743  
G01 Z-0.0030 F10    
G01 X-0.4443 Y1.6945  F20    
G01 X-0.4157 Y1.6945  
G01 X-0.4082 Y1.6870  
G01 X-0.1867 Y1.6870  
G01 X-0.1893 Y1.6896  
G01 X-0.1940 Y1.6962  
G01 X-0.1977 Y1.7034  
G01 X-0.2002 Y1.7111  
G01 X-0.2015 Y1.7191  
G01 X-0.2015 Y1.7272  
G01 X-0.2002 Y1.7352  
G01 X-0.1977 Y1.7429  
G01 X-0.1940 Y1.7501  
G01 X-0.1893 Y1.7567  
G01 X-0.1835 Y1.7624  
G01 X-0.1770 Y1.7672  
G01 X-0.1698 Y1.7709  
G01 X-0.1621 Y1.7734  
G01 X-0.1541 Y1.7746  
G01 X-0.1459 Y1.7746  
G01 X-0.1379 Y1.7734  
G01 X-0.1302 Y1.7709  
G01 X-0.1230 Y1.7672  
G01 X-0.1164 Y1.7624  
G01 X-0.1107 Y1.7567  
G01 X-0.1060 Y1.7501  
G01 X-0.1023 Y1.7429  
G01 X-0.0998 Y1.7352  
G01 X-0.0985 Y1.7272  
G01 X-0.0985 Y1.7191  
G01 X-0.0998 Y1.7111  
G01 X-0.1023 Y1.7034  
G01 X-0.1060 Y1.6962  
G01 X-0.1107 Y1.6896  
G01 X-0.1164 Y1.6839  
G01 X-0.1230 Y1.6791  
G01 X-0.1255 Y1.6778  
G01 X-0.1255 Y1.6601  
G01 X-0.1264 Y1.6554  
G01 X-0.1283 Y1.6509  
G01 X-0.1310 Y1.6469  
G01 X-0.1344 Y1.6435  
G01 X-0.1384 Y1.6408  
G01 X-0.1429 Y1.6389  
G01 X-0.1476 Y1.6380  
G01 X-0.4032 Y1.6380  
G01 X-0.4157 Y1.6255  
G01 X-0.4443 Y1.6255  
G01 X-0.4645 Y1.6457  
G01 X-0.4645 Y1.6743  
G00 Z0.0500  
G00 X-0.4443 Y2.0055  
G01 Z-0.0030 F10    
G01 X-0.4645 Y2.0257  F20    
G01 X-0.4645 Y2.0543  
G01 X-0.4443 Y2.0745  
G01 X-0.4157 Y2.0745  
G01 X-0.3955 Y2.0543  
G01 X-0.3955 Y2.0426  
G01 X-0.3024 Y1.9495  
G01 X-0.1922 Y1.9495  
G01 X-0.1893 Y1.9535  
G01 X-0.1835 Y1.9593  
G01 X-0.1770 Y1.9640  
G01 X-0.1698 Y1.9677  
G01 X-0.1621 Y1.9702  
G01 X-0.1541 Y1.9715  
G01 X-0.1459 Y1.9715  
G01 X-0.1379 Y1.9702  
G01 X-0.1302 Y1.9677  
G01 X-0.1230 Y1.9640  
G01 X-0.1164 Y1.9593  
G01 X-0.1107 Y1.9535  
G01 X-0.1060 Y1.9470  
G01 X-0.1023 Y1.9398  
G01 X-0.0998 Y1.9321  
G01 X-0.0985 Y1.9241  
G01 X-0.0985 Y1.9159  
G01 X-0.0998 Y1.9079  
G01 X-0.1023 Y1.9002  
G01 X-0.1060 Y1.8930  
G01 X-0.1107 Y1.8864  
G01 X-0.1164 Y1.8807  
G01 X-0.1230 Y1.8760  
G01 X-0.1302 Y1.8723  
G01 X-0.1379 Y1.8698  
G01 X-0.1459 Y1.8685  
G01 X-0.1541 Y1.8685  
G01 X-0.1621 Y1.8698  
G01 X-0.1698 Y1.8723  
G01 X-0.1770 Y1.8760  
G01 X-0.1835 Y1.8807  
G01 X-0.1893 Y1.8864  
G01 X-0.1940 Y1.8930  
G01 X-0.1977 Y1.9002  
G01 X-0.1978 Y1.9005  
G01 X-0.3149 Y1.9005  
G01 X-0.3196 Y1.9014  
G01 X-0.3241 Y1.9033  
G01 X-0.3281 Y1.9060  
G01 X-0.3315 Y1.9094  
G01 X-0.4276 Y2.0055  
G01 X-0.4443 Y2.0055  
G00 Z0.0500  
G00 X-0.4655 Y2.4957  
G01 Z-0.0030 F10    
G01 X-0.4857 Y2.4755  F20    
G01 X-0.5143 Y2.4755  
G01 X-0.5345 Y2.4957  
G01 X-0.5345 Y2.5243  
G01 X-0.5245 Y2.5343  
G01 X-0.5245 Y2.6149  
G01 X-0.5236 Y2.6196  
G01 X-0.5217 Y2.6241  
G01 X-0.5190 Y2.6281  
G01 X-0.4565 Y2.6906  
G01 X-0.4531 Y2.6940  
G01 X-0.4491 Y2.6967  
G01 X-0.4446 Y2.6986  
G01 X-0.4399 Y2.6995  
G01 X-0.1978 Y2.6995  
G01 X-0.1977 Y2.6998  
G01 X-0.1940 Y2.7070  
G01 X-0.1893 Y2.7135  
G01 X-0.1835 Y2.7193  
G01 X-0.1770 Y2.7240  
G01 X-0.1698 Y2.7277  
G01 X-0.1621 Y2.7302  
G01 X-0.1541 Y2.7315  
G01 X-0.1459 Y2.7315  
G01 X-0.1379 Y2.7302  
G01 X-0.1302 Y2.7277  
G01 X-0.1230 Y2.7240  
G01 X-0.1164 Y2.7193  
G01 X-0.1107 Y2.7135  
G01 X-0.1060 Y2.7070  
G01 X-0.1023 Y2.6998  
G01 X-0.0998 Y2.6921  
G01 X-0.0985 Y2.6841  
G01 X-0.0985 Y2.6759  
G01 X-0.0998 Y2.6679  
G01 X-0.1023 Y2.6602  
G01 X-0.1060 Y2.6530  
G01 X-0.1107 Y2.6464  
G01 X-0.1164 Y2.6407  
G01 X-0.1230 Y2.6360  
G01 X-0.1302 Y2.6323  
G01 X-0.1379 Y2.6298  
G01 X-0.1459 Y2.6285  
G01 X-0.1541 Y2.6285  
G01 X-0.1621 Y2.6298  
G01 X-0.1698 Y2.6323  
G01 X-0.1770 Y2.6360  
G01 X-0.1835 Y2.6407  
G01 X-0.1893 Y2.6464  
G01 X-0.1922 Y2.6505  
G01 X-0.4274 Y2.6505  
G01 X-0.4755 Y2.6024  
G01 X-0.4755 Y2.5343  
G01 X-0.4655 Y2.5243  
G01 X-0.4655 Y2.4957  
G00 Z0.0500  
G00 X-0.4443 Y2.5555  
G01 Z-0.0030 F10    
G01 X-0.4645 Y2.5757  F20    
G01 X-0.4645 Y2.6043  
G01 X-0.4443 Y2.6245  
G01 X-0.4157 Y2.6245  
G01 X-0.4032 Y2.6120  
G01 X-0.1476 Y2.6120  
G01 X-0.1429 Y2.6111  
G01 X-0.1384 Y2.6092  
G01 X-0.1344 Y2.6065  
G01 X-0.1310 Y2.6031  
G01 X-0.1283 Y2.5991  
G01 X-0.1264 Y2.5946  
G01 X-0.1255 Y2.5899  
G01 X-0.1255 Y2.5285  
G01 X-0.1230 Y2.5272  
G01 X-0.1164 Y2.5224  
G01 X-0.1107 Y2.5167  
G01 X-0.1060 Y2.5101  
G01 X-0.1023 Y2.5029  
G01 X-0.0998 Y2.4952  
G01 X-0.0985 Y2.4872  
G01 X-0.0985 Y2.4791  
G01 X-0.0998 Y2.4711  
G01 X-0.1023 Y2.4634  
G01 X-0.1060 Y2.4562  
G01 X-0.1107 Y2.4496  
G01 X-0.1164 Y2.4439  
G01 X-0.1230 Y2.4391  
G01 X-0.1302 Y2.4354  
G01 X-0.1379 Y2.4329  
G01 X-0.1459 Y2.4316  
G01 X-0.1541 Y2.4316  
G01 X-0.1621 Y2.4329  
G01 X-0.1698 Y2.4354  
G01 X-0.1770 Y2.4391  
G01 X-0.1835 Y2.4439  
G01 X-0.1893 Y2.4496  
G01 X-0.1940 Y2.4562  
G01 X-0.1977 Y2.4634  
G01 X-0.2002 Y2.4711  
G01 X-0.2015 Y2.4791  
G01 X-0.2015 Y2.4872  
G01 X-0.2002 Y2.4952  
G01 X-0.1977 Y2.5029  
G01 X-0.1940 Y2.5101  
G01 X-0.1893 Y2.5167  
G01 X-0.1835 Y2.5224  
G01 X-0.1770 Y2.5272  
G01 X-0.1745 Y2.5285  
G01 X-0.1745 Y2.5630  
G01 X-0.4082 Y2.5630  
G01 X-0.4157 Y2.5555  
G01 X-0.4443 Y2.5555  
G00 Z0.0500  
G00 X-0.4443 Y2.7555  
G01 Z-0.0030 F10    
G01 X-0.4645 Y2.7757  F20    
G01 X-0.4645 Y2.8043  
G01 X-0.4443 Y2.8245  
G01 X-0.4157 Y2.8245  
G01 X-0.4032 Y2.8120  
G01 X-0.3401 Y2.8120  
G01 X-0.3311 Y2.8210  
G01 X-0.2889 Y2.8210  
G01 X-0.2590 Y2.7911  
G01 X-0.2590 Y2.7489  
G01 X-0.2889 Y2.7190  
G01 X-0.3311 Y2.7190  
G01 X-0.3610 Y2.7489  
G01 X-0.3610 Y2.7630  
G01 X-0.4082 Y2.7630  
G01 X-0.4157 Y2.7555  
G01 X-0.4443 Y2.7555  
G00 Z0.0500  
G00 X-0.6255 Y2.7476  
G01 Z-0.0030 F10    
G01 X-0.6264 Y2.7429  F20    
G01 X-0.6283 Y2.7384  
G01 X-0.6310 Y2.7344  
G01 X-0.6344 Y2.7310  
G01 X-0.7619 Y2.6034  
G01 X-0.7619 Y2.5963  
G01 X-0.7631 Y2.5891  
G01 X-0.7653 Y2.5822  
G01 X-0.7687 Y2.5756  
G01 X-0.7730 Y2.5697  
G01 X-0.7781 Y2.5645  
G01 X-0.7841 Y2.5602  
G01 X-0.7906 Y2.5569  
G01 X-0.7975 Y2.5546  
G01 X-0.8048 Y2.5535  
G01 X-0.8121 Y2.5535  
G01 X-0.8193 Y2.5546  
G01 X-0.8263 Y2.5569  
G01 X-0.8328 Y2.5602  
G01 X-0.8387 Y2.5645  
G01 X-0.8439 Y2.5697  
G01 X-0.8482 Y2.5756  
G01 X-0.8515 Y2.5822  
G01 X-0.8538 Y2.5891  
G01 X-0.8549 Y2.5963  
G01 X-0.8549 Y2.6037  
G01 X-0.8538 Y2.6109  
G01 X-0.8515 Y2.6178  
G01 X-0.8482 Y2.6244  
G01 X-0.8439 Y2.6303  
G01 X-0.8387 Y2.6355  
G01 X-0.8328 Y2.6398  
G01 X-0.8263 Y2.6431  
G01 X-0.8193 Y2.6454  
G01 X-0.8121 Y2.6465  
G01 X-0.8048 Y2.6465  
G01 X-0.7975 Y2.6454  
G01 X-0.7913 Y2.6433  
G01 X-0.6745 Y2.7601  
G01 X-0.6745 Y2.8502  
G01 X-0.6855 Y2.8612  
G01 X-0.6855 Y2.8988  
G01 X-0.6745 Y2.9098  
G01 X-0.6745 Y2.9502  
G01 X-0.6855 Y2.9612  
G01 X-0.6855 Y2.9988  
G01 X-0.6588 Y3.0255  
G01 X-0.6212 Y3.0255  
G01 X-0.5945 Y2.9988  
G01 X-0.5945 Y2.9612  
G01 X-0.6212 Y2.9345  
G01 X-0.6255 Y2.9345  
G01 X-0.6255 Y2.9255  
G01 X-0.6212 Y2.9255  
G01 X-0.5945 Y2.8988  
G01 X-0.5945 Y2.8612  
G01 X-0.6212 Y2.8345  
G01 X-0.6255 Y2.8345  
G01 X-0.6255 Y2.7476  
G00 Z0.0500  
G00 X-0.9813 Y2.6355  
G01 Z-0.0030 F10    
G01 X-0.9761 Y2.6303  F20    
G01 X-0.9718 Y2.6244  
G01 X-0.9685 Y2.6178  
G01 X-0.9662 Y2.6109  
G01 X-0.9651 Y2.6037  
G01 X-0.9651 Y2.5963  
G01 X-0.9662 Y2.5891  
G01 X-0.9685 Y2.5822  
G01 X-0.9718 Y2.5756  
G01 X-0.9761 Y2.5697  
G01 X-0.9813 Y2.5645  
G01 X-0.9872 Y2.5602  
G01 X-0.9937 Y2.5569  
G01 X-1.0007 Y2.5546  
G01 X-1.0079 Y2.5535  
G01 X-1.0152 Y2.5535  
G01 X-1.0225 Y2.5546  
G01 X-1.0294 Y2.5569  
G01 X-1.0359 Y2.5602  
G01 X-1.0419 Y2.5645  
G01 X-1.0470 Y2.5697  
G01 X-1.0513 Y2.5756  
G01 X-1.0547 Y2.5822  
G01 X-1.0569 Y2.5891  
G01 X-1.0581 Y2.5963  
G01 X-1.0581 Y2.6037  
G01 X-1.0569 Y2.6109  
G01 X-1.0547 Y2.6178  
G01 X-1.0513 Y2.6244  
G01 X-1.0495 Y2.6269  
G01 X-1.0495 Y2.8345  
G01 X-1.0588 Y2.8345  
G01 X-1.0855 Y2.8612  
G01 X-1.0855 Y2.8988  
G01 X-1.0745 Y2.9098  
G01 X-1.0745 Y2.9502  
G01 X-1.0855 Y2.9612  
G01 X-1.0855 Y2.9988  
G01 X-1.0588 Y3.0255  
G01 X-1.0212 Y3.0255  
G01 X-0.9945 Y2.9988  
G01 X-0.9945 Y2.9612  
G01 X-1.0212 Y2.9345  
G01 X-1.0255 Y2.9345  
G01 X-1.0255 Y2.9255  
G01 X-1.0212 Y2.9255  
G01 X-0.9945 Y2.8988  
G01 X-0.9945 Y2.8612  
G01 X-1.0005 Y2.8552  
G01 X-1.0005 Y2.6453  
G01 X-0.9937 Y2.6431  
G01 X-0.9872 Y2.6398  
G01 X-0.9813 Y2.6355  
G00 Z0.0500  
G00 X-1.0945 Y2.8612  
G01 Z-0.0030 F10    
G01 X-1.1212 Y2.8345  F20    
G01 X-1.1588 Y2.8345  
G01 X-1.1855 Y2.8612  
G01 X-1.1855 Y2.8988  
G01 X-1.1588 Y2.9255  
G01 X-1.1212 Y2.9255  
G01 X-1.0945 Y2.8988  
G01 X-1.0945 Y2.8612  
G00 Z0.0500  
G00 X-1.1945 Y2.8612  
G01 Z-0.0030 F10    
G01 X-1.2212 Y2.8345  F20    
G01 X-1.2588 Y2.8345  
G01 X-1.2855 Y2.8612  
G01 X-1.2855 Y2.8988  
G01 X-1.2588 Y2.9255  
G01 X-1.2212 Y2.9255  
G01 X-1.1945 Y2.8988  
G01 X-1.1945 Y2.8612  
G00 Z0.0500  
G00 X-1.2945 Y2.8612  
G01 Z-0.0030 F10    
G01 X-1.3212 Y2.8345  F20    
G01 X-1.3588 Y2.8345  
G01 X-1.3855 Y2.8612  
G01 X-1.3855 Y2.8988  
G01 X-1.3588 Y2.9255  
G01 X-1.3212 Y2.9255  
G01 X-1.2945 Y2.8988  
G01 X-1.2945 Y2.8612  
G00 Z0.0500  
G00 X-1.2945 Y2.9612  
G01 Z-0.0030 F10    
G01 X-1.3212 Y2.9345  F20    
G01 X-1.3588 Y2.9345  
G01 X-1.3855 Y2.9612  
G01 X-1.3855 Y2.9988  
G01 X-1.3588 Y3.0255  
G01 X-1.3212 Y3.0255  
G01 X-1.2945 Y2.9988  
G01 X-1.2945 Y2.9612  
G00 Z0.0500  
G00 X-1.2855 Y2.9612  
G01 Z-0.0030 F10    
G01 X-1.2855 Y2.9988  F20    
G01 X-1.2588 Y3.0255  
G01 X-1.2212 Y3.0255  
G01 X-1.1945 Y2.9988  
G01 X-1.1945 Y2.9612  
G01 X-1.2212 Y2.9345  
G01 X-1.2588 Y2.9345  
G01 X-1.2855 Y2.9612  
G00 Z0.0500  
G00 X-1.1855 Y2.9612  
G01 Z-0.0030 F10    
G01 X-1.1855 Y2.9988  F20    
G01 X-1.1588 Y3.0255  
G01 X-1.1212 Y3.0255  
G01 X-1.0945 Y2.9988  
G01 X-1.0945 Y2.9612  
G01 X-1.1212 Y2.9345  
G01 X-1.1588 Y2.9345  
G01 X-1.1855 Y2.9612  
G00 Z0.0500  
G00 X-0.6345 Y0.7243  
G01 Z-0.0030 F10    
G01 X-0.6143 Y0.7445  F20    
G01 X-0.5857 Y0.7445  
G01 X-0.5655 Y0.7243  
G01 X-0.5655 Y0.6957  
G01 X-0.5755 Y0.6857  
G01 X-0.5755 Y0.6076  
G01 X-0.5490 Y0.5811  
G01 X-0.5490 Y0.5389  
G01 X-0.5789 Y0.5090  
G01 X-0.6211 Y0.5090  
G01 X-0.6510 Y0.5389  
G01 X-0.6510 Y0.5811  
G01 X-0.6245 Y0.6076  
G01 X-0.6245 Y0.6857  
G01 X-0.6345 Y0.6957  
G01 X-0.6345 Y0.7243  
G00 Z0.0500  
G00 X-0.6211 Y0.4110  
G01 Z-0.0030 F10    
G01 X-0.5789 Y0.4110  F20    
G01 X-0.5549 Y0.3870  
G01 X-0.4718 Y0.3870  
G01 X-0.4643 Y0.3945  
G01 X-0.4357 Y0.3945  
G01 X-0.4155 Y0.3743  
G01 X-0.4155 Y0.3457  
G01 X-0.4357 Y0.3255  
G01 X-0.4643 Y0.3255  
G01 X-0.4768 Y0.3380  
G01 X-0.5499 Y0.3380  
G01 X-0.5789 Y0.3090  
G01 X-0.6211 Y0.3090  
G01 X-0.6510 Y0.3389  
G01 X-0.6510 Y0.3811  
G01 X-0.6211 Y0.4110  
G00 Z0.0500  
G00 X-0.1298 Y0.1459  
G01 Z-0.0030 F10    
G01 X-0.1334 Y0.1423  F20    
G01 X-0.1377 Y0.1395  
G01 X-0.1424 Y0.1375  
G01 X-0.1474 Y0.1365  
G01 X-0.4226 Y0.1365  
G01 X-0.4351 Y0.1240  
G01 X-0.4649 Y0.1240  
G01 X-0.4860 Y0.1451  
G01 X-0.4860 Y0.1749  
G01 X-0.4649 Y0.1960  
G01 X-0.4351 Y0.1960  
G01 X-0.4276 Y0.1885  
G01 X-0.2010 Y0.1885  
G01 X-0.2017 Y0.1907  
G01 X-0.2030 Y0.1990  
G01 X-0.2030 Y0.2073  
G01 X-0.2017 Y0.2156  
G01 X-0.1991 Y0.2235  
G01 X-0.1953 Y0.2309  
G01 X-0.1904 Y0.2377  
G01 X-0.1845 Y0.2436  
G01 X-0.1778 Y0.2485  
G01 X-0.1703 Y0.2523  
G01 X-0.1624 Y0.2548  
G01 X-0.1542 Y0.2561  
G01 X-0.1458 Y0.2561  
G01 X-0.1376 Y0.2548  
G01 X-0.1297 Y0.2523  
G01 X-0.1222 Y0.2485  
G01 X-0.1155 Y0.2436  
G01 X-0.1096 Y0.2377  
G01 X-0.1047 Y0.2309  
G01 X-0.1009 Y0.2235  
G01 X-0.0983 Y0.2156  
G01 X-0.0970 Y0.2073  
G01 X-0.0970 Y0.1990  
G01 X-0.0983 Y0.1907  
G01 X-0.1009 Y0.1828  
G01 X-0.1047 Y0.1754  
G01 X-0.1096 Y0.1686  
G01 X-0.1155 Y0.1627  
G01 X-0.1222 Y0.1578  
G01 X-0.1247 Y0.1566  
G01 X-0.1250 Y0.1549  
G01 X-0.1270 Y0.1502  
G01 X-0.1298 Y0.1459  
G00 Z0.0500  
G00 X-0.1297 Y0.3509  
G01 Z-0.0030 F10    
G01 X-0.1376 Y0.3483  F20    
G01 X-0.1458 Y0.3470  
G01 X-0.1542 Y0.3470  
G01 X-0.1624 Y0.3483  
G01 X-0.1703 Y0.3509  
G01 X-0.1778 Y0.3547  
G01 X-0.1845 Y0.3596  
G01 X-0.1904 Y0.3655  
G01 X-0.1953 Y0.3722  
G01 X-0.1962 Y0.3740  
G01 X-0.2651 Y0.3740  
G01 X-0.2701 Y0.3750  
G01 X-0.2748 Y0.3770  
G01 X-0.2791 Y0.3798  
G01 X-0.2827 Y0.3834  
G01 X-0.4077 Y0.5084  
G01 X-0.4105 Y0.5127  
G01 X-0.4125 Y0.5174  
G01 X-0.4135 Y0.5224  
G01 X-0.4135 Y0.6267  
G01 X-0.4608 Y0.6740  
G01 X-0.4649 Y0.6740  
G01 X-0.4860 Y0.6951  
G01 X-0.4860 Y0.7249  
G01 X-0.4649 Y0.7460  
G01 X-0.4351 Y0.7460  
G01 X-0.4140 Y0.7249  
G01 X-0.4140 Y0.7008  
G01 X-0.3709 Y0.6577  
G01 X-0.3673 Y0.6541  
G01 X-0.3645 Y0.6498  
G01 X-0.3625 Y0.6451  
G01 X-0.3615 Y0.6401  
G01 X-0.3615 Y0.5358  
G01 X-0.2517 Y0.4260  
G01 X-0.1962 Y0.4260  
G01 X-0.1953 Y0.4278  
G01 X-0.1904 Y0.4345  
G01 X-0.1845 Y0.4404  
G01 X-0.1778 Y0.4453  
G01 X-0.1703 Y0.4491  
G01 X-0.1624 Y0.4517  
G01 X-0.1542 Y0.4530  
G01 X-0.1458 Y0.4530  
G01 X-0.1376 Y0.4517  
G01 X-0.1297 Y0.4491  
G01 X-0.1222 Y0.4453  
G01 X-0.1155 Y0.4404  
G01 X-0.1096 Y0.4345  
G01 X-0.1047 Y0.4278  
G01 X-0.1009 Y0.4203  
G01 X-0.0983 Y0.4124  
G01 X-0.0970 Y0.4042  
G01 X-0.0970 Y0.3958  
G01 X-0.0983 Y0.3876  
G01 X-0.1009 Y0.3797  
G01 X-0.1047 Y0.3722  
G01 X-0.1096 Y0.3655  
G01 X-0.1155 Y0.3596  
G01 X-0.1222 Y0.3547  
G01 X-0.1297 Y0.3509  
G00 Z0.0500  
G00 X-0.1298 Y0.5334  
G01 Z-0.0030 F10    
G01 X-0.1334 Y0.5298  F20    
G01 X-0.1377 Y0.5270  
G01 X-0.1424 Y0.5250  
G01 X-0.1474 Y0.5240  
G01 X-0.2518 Y0.5240  
G01 X-0.2783 Y0.4975  
G01 X-0.3217 Y0.4975  
G01 X-0.3525 Y0.5283  
G01 X-0.3525 Y0.5717  
G01 X-0.3217 Y0.6025  
G01 X-0.2783 Y0.6025  
G01 X-0.2518 Y0.5760  
G01 X-0.1989 Y0.5760  
G01 X-0.1991 Y0.5765  
G01 X-0.2017 Y0.5844  
G01 X-0.2030 Y0.5927  
G01 X-0.2030 Y0.6010  
G01 X-0.2017 Y0.6093  
G01 X-0.1991 Y0.6172  
G01 X-0.1953 Y0.6246  
G01 X-0.1904 Y0.6314  
G01 X-0.1845 Y0.6373  
G01 X-0.1778 Y0.6422  
G01 X-0.1703 Y0.6460  
G01 X-0.1624 Y0.6485  
G01 X-0.1542 Y0.6499  
G01 X-0.1494 Y0.6499  
G01 X-0.0885 Y0.7108  
G01 X-0.0885 Y0.8115  
G01 X-0.7403 Y0.8115  
G01 X-0.7423 Y0.8084  
G01 X-0.7982 Y0.7525  
G01 X-0.7975 Y0.7517  
G01 X-0.7975 Y0.7083  
G01 X-0.8283 Y0.6775  
G01 X-0.8717 Y0.6775  
G01 X-0.9025 Y0.7083  
G01 X-0.9025 Y0.7517  
G01 X-0.8717 Y0.7825  
G01 X-0.8418 Y0.7825  
G01 X-0.7885 Y0.8358  
G01 X-0.7885 Y1.4401  
G01 X-0.7875 Y1.4451  
G01 X-0.7855 Y1.4498  
G01 X-0.7827 Y1.4541  
G01 X-0.7791 Y1.4577  
G01 X-0.7351 Y1.5017  
G01 X-0.7360 Y1.5065  
G01 X-0.7360 Y1.5135  
G01 X-0.7346 Y1.5205  
G01 X-0.7319 Y1.5271  
G01 X-0.7280 Y1.5329  
G01 X-0.7229 Y1.5380  
G01 X-0.7171 Y1.5419  
G01 X-0.7105 Y1.5446  
G01 X-0.7035 Y1.5460  
G01 X-0.6965 Y1.5460  
G01 X-0.6895 Y1.5446  
G01 X-0.6829 Y1.5419  
G01 X-0.6771 Y1.5380  
G01 X-0.6720 Y1.5329  
G01 X-0.6681 Y1.5271  
G01 X-0.6654 Y1.5205  
G01 X-0.6640 Y1.5135  
G01 X-0.6640 Y1.5065  
G01 X-0.6654 Y1.4995  
G01 X-0.6681 Y1.4929  
G01 X-0.6720 Y1.4871  
G01 X-0.6771 Y1.4820  
G01 X-0.6829 Y1.4781  
G01 X-0.6867 Y1.4766  
G01 X-0.7365 Y1.4267  
G01 X-0.7365 Y0.8635  
G01 X-0.0885 Y0.8635  
G01 X-0.0885 Y1.1892  
G01 X-0.1666 Y1.2673  
G01 X-0.1702 Y1.2709  
G01 X-0.1722 Y1.2740  
G01 X-0.2618 Y1.2740  
G01 X-0.2883 Y1.2475  
G01 X-0.3317 Y1.2475  
G01 X-0.3625 Y1.2783  
G01 X-0.3625 Y1.3217  
G01 X-0.3605 Y1.3237  
G01 X-0.4041 Y1.3673  
G01 X-0.4077 Y1.3709  
G01 X-0.4105 Y1.3752  
G01 X-0.4125 Y1.3799  
G01 X-0.4135 Y1.3849  
G01 X-0.4135 Y1.4767  
G01 X-0.6483 Y1.7115  
G01 X-0.7901 Y1.7115  
G01 X-0.7951 Y1.7125  
G01 X-0.7998 Y1.7145  
G01 X-0.8041 Y1.7173  
G01 X-0.8077 Y1.7209  
G01 X-0.8105 Y1.7252  
G01 X-0.8125 Y1.7299  
G01 X-0.8135 Y1.7349  
G01 X-0.8135 Y1.7766  
G01 X-0.8171 Y1.7781  
G01 X-0.8229 Y1.7820  
G01 X-0.8280 Y1.7871  
G01 X-0.8319 Y1.7929  
G01 X-0.8346 Y1.7995  
G01 X-0.8360 Y1.8065  
G01 X-0.8360 Y1.8117  
G01 X-0.8541 Y1.8298  
G01 X-0.8577 Y1.8334  
G01 X-0.8605 Y1.8377  
G01 X-0.8625 Y1.8424  
G01 X-0.8635 Y1.8474  
G01 X-0.8635 Y1.8926  
G01 X-0.8760 Y1.9051  
G01 X-0.8760 Y1.9349  
G01 X-0.8549 Y1.9560  
G01 X-0.8251 Y1.9560  
G01 X-0.8201 Y1.9510  
G01 X-0.7347 Y1.9510  
G01 X-0.7327 Y1.9541  
G01 X-0.5577 Y2.1291  
G01 X-0.5541 Y2.1327  
G01 X-0.5498 Y2.1355  
G01 X-0.5451 Y2.1375  
G01 X-0.5401 Y2.1385  
G01 X-0.4635 Y2.1385  
G01 X-0.4635 Y2.2267  
G01 X-0.5483 Y2.3115  
G01 X-0.5643 Y2.3115  
G01 X-0.5883 Y2.2875  
G01 X-0.6317 Y2.2875  
G01 X-0.6625 Y2.3183  
G01 X-0.6625 Y2.3240  
G01 X-0.8401 Y2.3240  
G01 X-0.8451 Y2.3250  
G01 X-0.8498 Y2.3270  
G01 X-0.8541 Y2.3298  
G01 X-0.8577 Y2.3334  
G01 X-0.8605 Y2.3377  
G01 X-0.8625 Y2.3424  
G01 X-0.8635 Y2.3474  
G01 X-0.8635 Y2.4008  
G01 X-0.8659 Y2.4015  
G01 X-0.8718 Y2.4045  
G01 X-0.8770 Y2.4083  
G01 X-0.8802 Y2.4115  
G01 X-1.0998 Y2.4115  
G01 X-1.1228 Y2.3885  
G01 X-1.1372 Y2.3885  
G01 X-1.2365 Y2.2892  
G01 X-1.2365 Y2.0983  
G01 X-1.0798 Y1.9416  
G01 X-1.0770 Y1.9373  
G01 X-1.0750 Y1.9326  
G01 X-1.0740 Y1.9276  
G01 X-1.0740 Y1.6849  
G01 X-1.0750 Y1.6799  
G01 X-1.0770 Y1.6752  
G01 X-1.0798 Y1.6709  
G01 X-1.0834 Y1.6673  
G01 X-1.0990 Y1.6517  
G01 X-1.0990 Y1.6199  
G01 X-1.0940 Y1.6149  
G01 X-1.0940 Y1.5851  
G01 X-1.1151 Y1.5640  
G01 X-1.1449 Y1.5640  
G01 X-1.1660 Y1.5851  
G01 X-1.1660 Y1.6149  
G01 X-1.1510 Y1.6299  
G01 X-1.1510 Y1.6651  
G01 X-1.1500 Y1.6701  
G01 X-1.1480 Y1.6748  
G01 X-1.1452 Y1.6791  
G01 X-1.1260 Y1.6983  
G01 X-1.1260 Y1.9142  
G01 X-1.2791 Y2.0673  
G01 X-1.2827 Y2.0709  
G01 X-1.2855 Y2.0752  
G01 X-1.2875 Y2.0799  
G01 X-1.2885 Y2.0849  
G01 X-1.2885 Y2.3026  
G01 X-1.2875 Y2.3076  
G01 X-1.2855 Y2.3123  
G01 X-1.2827 Y2.3166  
G01 X-1.1815 Y2.4178  
G01 X-1.1815 Y2.4472  
G01 X-1.1572 Y2.4715  
G01 X-1.1228 Y2.4715  
G01 X-1.1148 Y2.4635  
G01 X-0.9260 Y2.4635  
G01 X-0.9260 Y2.8330  
G01 X-0.9595 Y2.8330  
G01 X-0.9665 Y2.8400  
G01 X-0.9720 Y2.8400  
G01 X-0.9757 Y2.8415  
G01 X-0.9785 Y2.8443  
G01 X-0.9800 Y2.8480  
G01 X-0.9800 Y2.8535  
G01 X-0.9870 Y2.8605  
G01 X-0.9870 Y2.8995  
G01 X-0.9800 Y2.9065  
G01 X-0.9800 Y2.9535  
G01 X-0.9870 Y2.9605  
G01 X-0.9870 Y2.9995  
G01 X-0.9800 Y3.0065  
G01 X-0.9800 Y3.0120  
G01 X-0.9785 Y3.0157  
G01 X-0.9757 Y3.0185  
G01 X-0.9720 Y3.0200  
G01 X-0.9665 Y3.0200  
G01 X-0.9595 Y3.0270  
G01 X-0.9205 Y3.0270  
G01 X-0.9135 Y3.0200  
G01 X-0.8665 Y3.0200  
G01 X-0.8595 Y3.0270  
G01 X-0.8205 Y3.0270  
G01 X-0.8135 Y3.0200  
G01 X-0.7665 Y3.0200  
G01 X-0.7635 Y3.0230  
G01 X-0.7635 Y3.0651  
G01 X-0.7625 Y3.0701  
G01 X-0.7605 Y3.0748  
G01 X-0.7577 Y3.0791  
G01 X-0.7541 Y3.0827  
G01 X-0.7498 Y3.0855  
G01 X-0.7451 Y3.0875  
G01 X-0.7401 Y3.0885  
G01 X-0.6099 Y3.0885  
G01 X-0.6049 Y3.0875  
G01 X-0.6002 Y3.0855  
G01 X-0.5959 Y3.0827  
G01 X-0.5923 Y3.0791  
G01 X-0.5423 Y3.0291  
G01 X-0.5403 Y3.0260  
G01 X-0.3282 Y3.0260  
G01 X-0.3117 Y3.0425  
G01 X-0.2683 Y3.0425  
G01 X-0.2393 Y3.0135  
G01 X-0.1474 Y3.0135  
G01 X-0.1424 Y3.0125  
G01 X-0.1377 Y3.0105  
G01 X-0.1334 Y3.0077  
G01 X-0.1298 Y3.0041  
G01 X-0.1270 Y2.9998  
G01 X-0.1250 Y2.9951  
G01 X-0.1240 Y2.9901  
G01 X-0.1240 Y2.9231  
G01 X-0.1222 Y2.9222  
G01 X-0.1155 Y2.9173  
G01 X-0.1096 Y2.9114  
G01 X-0.1047 Y2.9046  
G01 X-0.1009 Y2.8972  
G01 X-0.0983 Y2.8893  
G01 X-0.0970 Y2.8810  
G01 X-0.0970 Y2.8727  
G01 X-0.0983 Y2.8644  
G01 X-0.1009 Y2.8565  
G01 X-0.1047 Y2.8491  
G01 X-0.1096 Y2.8423  
G01 X-0.1155 Y2.8364  
G01 X-0.1222 Y2.8315  
G01 X-0.1297 Y2.8277  
G01 X-0.1376 Y2.8252  
G01 X-0.1458 Y2.8239  
G01 X-0.1542 Y2.8239  
G01 X-0.1624 Y2.8252  
G01 X-0.1703 Y2.8277  
G01 X-0.1778 Y2.8315  
G01 X-0.1845 Y2.8364  
G01 X-0.1904 Y2.8423  
G01 X-0.1953 Y2.8491  
G01 X-0.1991 Y2.8565  
G01 X-0.2017 Y2.8644  
G01 X-0.2030 Y2.8727  
G01 X-0.2030 Y2.8810  
G01 X-0.2017 Y2.8893  
G01 X-0.1991 Y2.8972  
G01 X-0.1953 Y2.9046  
G01 X-0.1904 Y2.9114  
G01 X-0.1845 Y2.9173  
G01 X-0.1778 Y2.9222  
G01 X-0.1760 Y2.9231  
G01 X-0.1760 Y2.9615  
G01 X-0.2443 Y2.9615  
G01 X-0.2683 Y2.9375  
G01 X-0.3117 Y2.9375  
G01 X-0.3425 Y2.9683  
G01 X-0.3425 Y2.9740  
G01 X-0.5651 Y2.9740  
G01 X-0.5701 Y2.9750  
G01 X-0.5748 Y2.9770  
G01 X-0.5791 Y2.9798  
G01 X-0.5827 Y2.9834  
G01 X-0.5855 Y2.9877  
G01 X-0.5875 Y2.9924  
G01 X-0.5885 Y2.9974  
G01 X-0.5885 Y3.0017  
G01 X-0.6233 Y3.0365  
G01 X-0.7115 Y3.0365  
G01 X-0.7115 Y3.0200  
G01 X-0.7080 Y3.0200  
G01 X-0.7043 Y3.0185  
G01 X-0.7015 Y3.0157  
G01 X-0.7000 Y3.0120  
G01 X-0.7000 Y3.0065  
G01 X-0.6930 Y2.9995  
G01 X-0.6930 Y2.9605  
G01 X-0.7000 Y2.9535  
G01 X-0.7000 Y2.9065  
G01 X-0.6930 Y2.8995  
G01 X-0.6930 Y2.8605  
G01 X-0.7000 Y2.8535  
G01 X-0.7000 Y2.8480  
G01 X-0.7015 Y2.8443  
G01 X-0.7043 Y2.8415  
G01 X-0.7080 Y2.8400  
G01 X-0.7135 Y2.8400  
G01 X-0.7205 Y2.8330  
G01 X-0.7595 Y2.8330  
G01 X-0.7665 Y2.8400  
G01 X-0.8135 Y2.8400  
G01 X-0.8205 Y2.8330  
G01 X-0.8595 Y2.8330  
G01 X-0.8665 Y2.8400  
G01 X-0.8740 Y2.8400  
G01 X-0.8740 Y2.4739  
G01 X-0.8718 Y2.4755  
G01 X-0.8659 Y2.4785  
G01 X-0.8597 Y2.4805  
G01 X-0.8533 Y2.4815  
G01 X-0.8467 Y2.4815  
G01 X-0.8403 Y2.4805  
G01 X-0.8341 Y2.4785  
G01 X-0.8282 Y2.4755  
G01 X-0.8230 Y2.4717  
G01 X-0.8183 Y2.4670  
G01 X-0.8145 Y2.4618  
G01 X-0.8115 Y2.4559  
G01 X-0.8095 Y2.4497  
G01 X-0.8085 Y2.4433  
G01 X-0.8085 Y2.4367  
G01 X-0.8095 Y2.4303  
G01 X-0.8115 Y2.4242  
G01 X-0.8115 Y2.3760  
G01 X-0.6482 Y2.3760  
G01 X-0.6317 Y2.3925  
G01 X-0.5883 Y2.3925  
G01 X-0.5593 Y2.3635  
G01 X-0.5349 Y2.3635  
G01 X-0.5299 Y2.3625  
G01 X-0.5252 Y2.3605  
G01 X-0.5209 Y2.3577  
G01 X-0.5173 Y2.3541  
G01 X-0.4173 Y2.2541  
G01 X-0.4145 Y2.2498  
G01 X-0.4125 Y2.2451  
G01 X-0.4115 Y2.2401  
G01 X-0.4115 Y2.1385  
G01 X-0.1985 Y2.1385  
G01 X-0.1953 Y2.1446  
G01 X-0.1904 Y2.1514  
G01 X-0.1845 Y2.1573  
G01 X-0.1778 Y2.1622  
G01 X-0.1703 Y2.1660  
G01 X-0.1624 Y2.1685  
G01 X-0.1542 Y2.1699  
G01 X-0.1458 Y2.1699  
G01 X-0.1376 Y2.1685  
G01 X-0.1297 Y2.1660  
G01 X-0.1222 Y2.1622  
G01 X-0.1155 Y2.1573  
G01 X-0.1096 Y2.1514  
G01 X-0.1047 Y2.1446  
G01 X-0.1009 Y2.1372  
G01 X-0.0983 Y2.1293  
G01 X-0.0970 Y2.1210  
G01 X-0.0970 Y2.1127  
G01 X-0.0983 Y2.1044  
G01 X-0.1009 Y2.0965  
G01 X-0.1047 Y2.0891  
G01 X-0.1096 Y2.0823  
G01 X-0.1155 Y2.0764  
G01 X-0.1222 Y2.0715  
G01 X-0.1297 Y2.0677  
G01 X-0.1376 Y2.0652  
G01 X-0.1458 Y2.0639  
G01 X-0.1542 Y2.0639  
G01 X-0.1624 Y2.0652  
G01 X-0.1703 Y2.0677  
G01 X-0.1778 Y2.0715  
G01 X-0.1845 Y2.0764  
G01 X-0.1904 Y2.0823  
G01 X-0.1935 Y2.0865  
G01 X-0.2740 Y2.0865  
G01 X-0.2740 Y2.0782  
G01 X-0.2475 Y2.0517  
G01 X-0.2475 Y2.0083  
G01 X-0.2783 Y1.9775  
G01 X-0.3217 Y1.9775  
G01 X-0.3525 Y2.0083  
G01 X-0.3525 Y2.0517  
G01 X-0.3260 Y2.0782  
G01 X-0.3260 Y2.0865  
G01 X-0.5267 Y2.0865  
G01 X-0.6865 Y1.9267  
G01 X-0.6865 Y1.9224  
G01 X-0.6875 Y1.9174  
G01 X-0.6895 Y1.9127  
G01 X-0.6923 Y1.9084  
G01 X-0.6959 Y1.9048  
G01 X-0.7002 Y1.9020  
G01 X-0.7049 Y1.9000  
G01 X-0.7099 Y1.8990  
G01 X-0.8101 Y1.8990  
G01 X-0.8115 Y1.8976  
G01 X-0.8115 Y1.8608  
G01 X-0.7967 Y1.8460  
G01 X-0.7965 Y1.8460  
G01 X-0.7895 Y1.8446  
G01 X-0.7829 Y1.8419  
G01 X-0.7771 Y1.8380  
G01 X-0.7720 Y1.8329  
G01 X-0.7681 Y1.8271  
G01 X-0.7654 Y1.8205  
G01 X-0.7640 Y1.8135  
G01 X-0.7640 Y1.8112  
G01 X-0.7635 Y1.8103  
G01 X-0.7631 Y1.8089  
G01 X-0.7625 Y1.8076  
G01 X-0.7623 Y1.8065  
G01 X-0.7619 Y1.8054  
G01 X-0.7618 Y1.8040  
G01 X-0.7615 Y1.8026  
G01 X-0.7615 Y1.8014  
G01 X-0.7614 Y1.8003  
G01 X-0.7615 Y1.7989  
G01 X-0.7615 Y1.7635  
G01 X-0.6349 Y1.7635  
G01 X-0.6299 Y1.7625  
G01 X-0.6252 Y1.7605  
G01 X-0.6209 Y1.7577  
G01 X-0.6173 Y1.7541  
G01 X-0.3673 Y1.5041  
G01 X-0.3645 Y1.4998  
G01 X-0.3625 Y1.4951  
G01 X-0.3615 Y1.4901  
G01 X-0.3615 Y1.3983  
G01 X-0.3157 Y1.3525  
G01 X-0.2883 Y1.3525  
G01 X-0.2618 Y1.3260  
G01 X-0.1931 Y1.3260  
G01 X-0.1953 Y1.3291  
G01 X-0.1991 Y1.3365  
G01 X-0.2017 Y1.3444  
G01 X-0.2030 Y1.3527  
G01 X-0.2030 Y1.3610  
G01 X-0.2017 Y1.3693  
G01 X-0.1991 Y1.3772  
G01 X-0.1953 Y1.3846  
G01 X-0.1904 Y1.3914  
G01 X-0.1845 Y1.3973  
G01 X-0.1778 Y1.4022  
G01 X-0.1703 Y1.4060  
