(/Applications/pcbgcode.repo/pcb-gcode.ulp)
(Copyright 2005 - 2012 by John Johnson)
(See readme.txt for licensing terms.)
(This file generated from the board:)
(.../4chan_mixer/eagle/4chan_mixer.brd)
(Current profile is .../pcbgcode.repo/profiles/mach.pp  )
(This file generated 3/23/16 9:24 PM)
(Settings from pcb-machine.h)
(spindle on time = 0.0000)
(spindle speed = 15000.0000)
(milling depth = -0.0700)
(tool change at 0.0000  0.0000  3.0000  )
(feed rate xy = F10    )
(feed rate z  = F5     )
(Z Axis Settings)
(  High     Up        Down     Drill)
(0.2500  	0.0500  	-0.0030 	-0.0730 )
(Settings from pcb-defaults.h)
(isolate min = 0.0050)
(isolate max = 0.0150)
(isolate step = 0.0015)
(Generated bottom outlines, bottom drill, )
(Unit of measure: inch)
(Inch Mode)
G20
(Absolute Coordinates)
G90
S15000
G00 Z0.2500  
G00 X0.0000  Y0.0000  
M03
G04 P0.000000
G00 Z0.0500  
G00 X-0.0300 Y0.0200  
G01 Z-0.0700 F5     
G01 X-1.4000 Y0.0200  F10    
G01 X-1.4500 Y0.0700  
G01 X-1.4500 Y3.0700  
G01 X-1.3800 Y3.1400  
G01 X-0.0400 Y3.1400  
G01 X0.0300  Y3.0700  
G01 X0.0300  Y0.0800  
G01 X-0.0300 Y0.0200  
G00 Z0.0500  
G00 X-1.2100 Y0.1800  
G01 Z-0.0700 F5     
G01 X-1.2100 Y0.2500  F10    
G01 X-1.2900 Y0.2500  
G01 X-1.2900 Y0.1800  
G01 X-1.2100 Y0.1800  
G00 Z0.2500  
M05
M02
